(G-CODE GENERATED BY FLATCAM v8.994 - www.flatcam.org - Version Date: 2020/11/7)

(Name: PCB_milli-NPTH.drl_cnc)
(Type: G-code from Geometry)
(Units: MM)

(Created on Saturday, 26 April 2025 at 17:00)

(This preprocessor is the default preprocessor used by FlatCAM.)
(It is made to work with MACH3 compatible motion controllers.)


(TOOLS DIAMETER: )
(Tool: 1 -> Dia: 2.5)
(Tool: 2 -> Dia: 3.0)

(FEEDRATE Z: )
(Tool: 1 -> Feedrate: 300.0)
(Tool: 2 -> Feedrate: 300.0)

(FEEDRATE RAPIDS: )
(Tool: 1 -> Feedrate Rapids: 1500.0)
(Tool: 2 -> Feedrate Rapids: 1500.0)

(Z_CUT: )
(Tool: 1 -> Z_Cut: -2.3)
(Tool: 2 -> Z_Cut: -2.4)

(Tools Offset: )
(Tool: 2 -> Offset Z: 0.0)

(Z_MOVE: )
(Tool: 1 -> Z_Move: 2.0)
(Tool: 2 -> Z_Move: 2.0)

(Z Toolchange: 15 mm)
(X,Y Toolchange: 0.0000, 0.0000 mm)
(Z Start: None mm)
(Z End: 0.5 mm)
(X,Y End: None mm)
(Steps per circle: 64)
(Preprocessor Excellon: default)

(X range:    2.6748 ...   47.1502  mm)
(Y range:    2.3098 ...   59.4852  mm)

(Spindle Speed: 10000 RPM)
G21
G90
G94

G01 F300.00

M5
G00 Z15.0000
T2
G00 X0.0000 Y0.0000                
M6
(MSG, Change to Tool Dia = 3.0000 ||| Total drills for tool T2 = 4)
M0
G00 Z15.0000

G01 F300.00
M03 S10000
G4 P1.0
G00 X45.5500 Y3.9100
G01 Z-2.4000
G01 Z0
G00 Z2.0000
G00 X4.2750 Y3.9100
G01 Z-2.4000
G01 Z0
G00 Z2.0000
G00 X4.2750 Y57.8850
G01 Z-2.4000
G01 Z0
G00 Z2.0000
G00 X45.5500 Y57.8850
G01 Z-2.4000
G01 Z0
G00 Z2.0000
M05
G00 Z0.50


