(G-CODE GENERATED BY FLATCAM v8.994 - www.flatcam.org - Version Date: 2020/11/7)

(Name: PCB_milli-PTH.drl_cnc)
(Type: G-code from Geometry)
(Units: MM)

(Created on Saturday, 26 April 2025 at 17:04)

(This preprocessor is the default preprocessor used by FlatCAM.)
(It is made to work with MACH3 compatible motion controllers.)


(TOOLS DIAMETER: )
(Tool: 1 -> Dia: 0.8)
(Tool: 2 -> Dia: 0.8)
(Tool: 3 -> Dia: 0.8)
(Tool: 4 -> Dia: 0.8)
(Tool: 5 -> Dia: 1.0)
(Tool: 6 -> Dia: 1.0)
(Tool: 7 -> Dia: 1.0)
(Tool: 8 -> Dia: 1.0)
(Tool: 9 -> Dia: 1.25)

(FEEDRATE Z: )
(Tool: 1 -> Feedrate: 300.0)
(Tool: 2 -> Feedrate: 300.0)
(Tool: 3 -> Feedrate: 300.0)
(Tool: 4 -> Feedrate: 300.0)
(Tool: 5 -> Feedrate: 300.0)
(Tool: 6 -> Feedrate: 300.0)
(Tool: 7 -> Feedrate: 300.0)
(Tool: 8 -> Feedrate: 300.0)
(Tool: 9 -> Feedrate: 300.0)

(FEEDRATE RAPIDS: )
(Tool: 1 -> Feedrate Rapids: 1500.0)
(Tool: 2 -> Feedrate Rapids: 1500.0)
(Tool: 3 -> Feedrate Rapids: 1500.0)
(Tool: 4 -> Feedrate Rapids: 1500.0)
(Tool: 5 -> Feedrate Rapids: 1500.0)
(Tool: 6 -> Feedrate Rapids: 1500.0)
(Tool: 7 -> Feedrate Rapids: 1500.0)
(Tool: 8 -> Feedrate Rapids: 1500.0)
(Tool: 9 -> Feedrate Rapids: 1500.0)

(Z_CUT: )
(Tool: 1 -> Z_Cut: -1.9)
(Tool: 2 -> Z_Cut: -1.9)
(Tool: 3 -> Z_Cut: -1.9)
(Tool: 4 -> Z_Cut: -1.9)
(Tool: 5 -> Z_Cut: -1.9)
(Tool: 6 -> Z_Cut: -1.9)
(Tool: 7 -> Z_Cut: -1.9)
(Tool: 8 -> Z_Cut: -1.9)
(Tool: 9 -> Z_Cut: -2.0)

(Tools Offset: )
(Tool: 8 -> Offset Z: 0.0)

(Z_MOVE: )
(Tool: 1 -> Z_Move: 2.0)
(Tool: 2 -> Z_Move: 2.0)
(Tool: 3 -> Z_Move: 2.0)
(Tool: 4 -> Z_Move: 2.0)
(Tool: 5 -> Z_Move: 2.0)
(Tool: 6 -> Z_Move: 2.0)
(Tool: 7 -> Z_Move: 2.0)
(Tool: 8 -> Z_Move: 2.0)
(Tool: 9 -> Z_Move: 2.0)

(Z Toolchange: 15.0 mm)
(X,Y Toolchange: 0.0000, 0.0000 mm)
(Z Start: None mm)
(Z End: 0.5 mm)
(X,Y End: None mm)
(Steps per circle: 64)
(Preprocessor Excellon: default)

(X range:    7.0499 ...   42.8754  mm)
(Y range:    7.9550 ...   57.9587  mm)

(Spindle Speed: 10000 RPM)
G21
G90
G94

G01 F300.00

M5
G00 Z15.0000
T7
G00 X0.0000 Y0.0000                
M6
(MSG, Change to Tool Dia = 1.0000 ||| Total drills for tool T7 = 7)
M0
G00 Z15.0000

G01 F300.00
M03 S10000
G4 P1.0
G00 X42.3750 Y36.2950
G01 Z-1.9000
G01 Z0
G00 Z2.0000
G00 X39.8350 Y45.1088
G01 Z-1.9000
G01 Z0
G00 Z2.0000
G00 X17.6100 Y45.1088
G01 Z-1.9000
G01 Z0
G00 Z2.0000
G00 X11.8950 Y45.1088
G01 Z-1.9000
G01 Z0
G00 Z2.0000
G00 X20.7850 Y16.6862
G01 Z-1.9000
G01 Z0
G00 Z2.0000
G00 X26.5000 Y16.6862
G01 Z-1.9000
G01 Z0
G00 Z2.0000
G00 X33.4850 Y16.6862
G01 Z-1.9000
G01 Z0
G00 Z2.0000
G00 X39.8350 Y16.6862
G01 Z-1.9000
G01 Z0
G00 Z2.0000
M05
G00 Z0.50


