(G-CODE GENERATED BY FLATCAM v8.994 - www.flatcam.org - Version Date: 2020/11/7)

(Name: PCB_milli-B_Cu.gbr_iso_combined_1_cnc)
(Type: G-code from Geometry)
(Units: MM)

(Created on Thursday, 01 May 2025 at 16:05)

(This preprocessor is the default preprocessor used by FlatCAM.)
(It is made to work with MACH3 compatible motion controllers.)

(TOOL DIAMETER: 0.15 mm)
(Feedrate_XY: 120.0 mm/min)
(Feedrate_Z: 60.0 mm/min)
(Feedrate rapids 1500.0 mm/min)

(Z_Cut: -0.055 mm)
(Z_Move: 2.0 mm)
(Z Start: None mm)
(Z End: 15.0 mm)
(X,Y End: None mm)
(Steps per circle: 64)
(Preprocessor Geometry: default)

(X range:   14.2315 ...   35.3395  mm)
(Y range:   42.0000 ...   52.5005  mm)

(Spindle Speed: 10000.0 RPM)
G21
G90
G94

G01 F120.00

M5
G00 Z15.0000
G00 X0.0000 Y0.0000
T1
M6    
(MSG, Change to Tool Dia = 0.1500)
M0
G00 Z15.0000

M03 S10000.0
G01 F120.00
G00 X15.0000 Y42.4422
G01 F60.00
G01 Z-0.0550
G01 F120.00
G01 X14.8739 Y42.5096
G01 X14.8429 Y42.5282
G01 X14.8054 Y42.5533
G01 X14.7764 Y42.5748
G01 X14.6656 Y42.6657
G01 X14.6389 Y42.6899
G01 X14.6069 Y42.7218
G01 X14.5827 Y42.7486
G01 X14.4918 Y42.8594
G01 X14.4703 Y42.8884
G01 X14.4452 Y42.9259
G01 X14.4266 Y42.9569
G01 X14.3591 Y43.0833
G01 X14.3436 Y43.1159
G01 X14.3264 Y43.1576
G01 X14.3142 Y43.1916
G01 X14.2726 Y43.3287
G01 X14.2638 Y43.3638
G01 X14.2550 Y43.4080
G01 X14.2497 Y43.4437
G01 X14.2344 Y43.5995
G01 X14.2331 Y43.6175
G01 X14.2315 Y43.6582
G01 X14.2315 Y51.1568
G01 X14.2319 Y51.1749
G01 X14.2344 Y51.2155
G01 X14.2497 Y51.3713
G01 X14.2550 Y51.4070
G01 X14.2638 Y51.4512
G01 X14.2726 Y51.4863
G01 X14.3142 Y51.6234
G01 X14.3264 Y51.6574
G01 X14.3436 Y51.6991
G01 X14.3591 Y51.7317
G01 X14.4266 Y51.8581
G01 X14.4452 Y51.8891
G01 X14.4703 Y51.9266
G01 X14.4918 Y51.9556
G01 X14.5827 Y52.0664
G01 X14.6069 Y52.0931
G01 X14.6389 Y52.1251
G01 X14.6656 Y52.1493
G01 X14.7764 Y52.2402
G01 X14.8054 Y52.2617
G01 X14.8429 Y52.2868
G01 X14.8739 Y52.3054
G01 X15.0003 Y52.3729
G01 X15.0329 Y52.3884
G01 X15.0746 Y52.4056
G01 X15.1086 Y52.4178
G01 X15.2457 Y52.4594
G01 X15.2808 Y52.4682
G01 X15.3250 Y52.4770
G01 X15.3607 Y52.4823
G01 X15.5165 Y52.4976
G01 X15.5345 Y52.4989
G01 X15.5752 Y52.5005
G01 X33.9958 Y52.5005
G01 X34.0365 Y52.4989
G01 X34.0545 Y52.4976
G01 X34.2103 Y52.4823
G01 X34.2460 Y52.4770
G01 X34.2902 Y52.4682
G01 X34.3253 Y52.4594
G01 X34.4624 Y52.4178
G01 X34.4964 Y52.4056
G01 X34.5381 Y52.3884
G01 X34.5707 Y52.3729
G01 X34.6971 Y52.3054
G01 X34.7281 Y52.2868
G01 X34.7656 Y52.2617
G01 X34.7946 Y52.2402
G01 X34.9054 Y52.1493
G01 X34.9321 Y52.1251
G01 X34.9641 Y52.0931
G01 X34.9883 Y52.0664
G01 X35.0792 Y51.9556
G01 X35.1007 Y51.9266
G01 X35.1258 Y51.8891
G01 X35.1444 Y51.8581
G01 X35.2119 Y51.7317
G01 X35.2274 Y51.6991
G01 X35.2446 Y51.6574
G01 X35.2568 Y51.6234
G01 X35.2984 Y51.4862
G01 X35.3072 Y51.4512
G01 X35.3160 Y51.4070
G01 X35.3213 Y51.3713
G01 X35.3366 Y51.2155
G01 X35.3380 Y51.1974
G01 X35.3395 Y51.1568
G01 X35.3395 Y42.0000
G00 Z2.0000
G00 X15.0000 Y42.5273
G01 F60.00
G01 Z-0.0550
G01 F120.00
G01 X14.9109 Y42.5749
G01 X14.8831 Y42.5916
G01 X14.8486 Y42.6146
G01 X14.8225 Y42.6339
G01 X14.7146 Y42.7225
G01 X14.6906 Y42.7443
G01 X14.6613 Y42.7736
G01 X14.6395 Y42.7976
G01 X14.5509 Y42.9055
G01 X14.5316 Y42.9316
G01 X14.5086 Y42.9660
G01 X14.4919 Y42.9939
G01 X14.4261 Y43.1170
G01 X14.4122 Y43.1463
G01 X14.3964 Y43.1846
G01 X14.3854 Y43.2151
G01 X14.3449 Y43.3487
G01 X14.3370 Y43.3802
G01 X14.3289 Y43.4209
G01 X14.3242 Y43.4529
G01 X14.3091 Y43.6060
G01 X14.3079 Y43.6221
G01 X14.3065 Y43.6576
G01 X14.3065 Y51.1559
G01 X14.3069 Y51.1721
G01 X14.3091 Y51.2090
G01 X14.3242 Y51.3621
G01 X14.3289 Y51.3941
G01 X14.3370 Y51.4348
G01 X14.3449 Y51.4662
G01 X14.3854 Y51.5999
G01 X14.3964 Y51.6304
G01 X14.4122 Y51.6687
G01 X14.4261 Y51.6980
G01 X14.4919 Y51.8211
G01 X14.5086 Y51.8490
G01 X14.5316 Y51.8834
G01 X14.5509 Y51.9095
G01 X14.6395 Y52.0174
G01 X14.6613 Y52.0414
G01 X14.6906 Y52.0707
G01 X14.7146 Y52.0925
G01 X14.8225 Y52.1811
G01 X14.8486 Y52.2004
G01 X14.8831 Y52.2234
G01 X14.9109 Y52.2401
G01 X15.0340 Y52.3059
G01 X15.0633 Y52.3198
G01 X15.1016 Y52.3356
G01 X15.1321 Y52.3466
G01 X15.2657 Y52.3871
G01 X15.2972 Y52.3950
G01 X15.3379 Y52.4031
G01 X15.3699 Y52.4078
G01 X15.5230 Y52.4229
G01 X15.5391 Y52.4241
G01 X15.5761 Y52.4255
G01 X33.9949 Y52.4255
G01 X34.0111 Y52.4251
G01 X34.0480 Y52.4229
G01 X34.2011 Y52.4078
G01 X34.2331 Y52.4031
G01 X34.2738 Y52.3950
G01 X34.3053 Y52.3871
G01 X34.4389 Y52.3466
G01 X34.4694 Y52.3356
G01 X34.5077 Y52.3198
G01 X34.5370 Y52.3059
G01 X34.6601 Y52.2401
G01 X34.6879 Y52.2234
G01 X34.7224 Y52.2004
G01 X34.7485 Y52.1811
G01 X34.8564 Y52.0925
G01 X34.8804 Y52.0707
G01 X34.9097 Y52.0414
G01 X34.9315 Y52.0174
G01 X35.0201 Y51.9095
G01 X35.0394 Y51.8834
G01 X35.0624 Y51.8490
G01 X35.0791 Y51.8211
G01 X35.1449 Y51.6980
G01 X35.1588 Y51.6687
G01 X35.1746 Y51.6304
G01 X35.1856 Y51.5999
G01 X35.2261 Y51.4662
G01 X35.2340 Y51.4348
G01 X35.2421 Y51.3942
G01 X35.2468 Y51.3621
G01 X35.2619 Y51.2090
G01 X35.2631 Y51.1929
G01 X35.2645 Y51.1559
G01 X35.2645 Y42.0000
G00 Z2.0000
G00 X15.0000 Y42.6469
G01 F60.00
G01 Z-0.0550
G01 F120.00
G01 X14.9509 Y42.6733
G01 X14.8981 Y42.7086
G01 X14.7787 Y42.8064
G01 X14.7704 Y42.8137
G01 X14.7333 Y42.8508
G01 X14.7258 Y42.8589
G01 X14.6301 Y42.9753
G01 X14.6214 Y42.9871
G01 X14.5903 Y43.0339
G01 X14.5174 Y43.1700
G01 X14.5111 Y43.1833
G01 X14.4924 Y43.2284
G01 X14.4886 Y43.2387
G01 X14.4448 Y43.3829
G01 X14.4412 Y43.3972
G01 X14.4317 Y43.4450
G01 X14.4299 Y43.4559
G01 X14.4136 Y43.6218
G01 X14.4120 Y43.6572
G01 X14.4120 Y51.1578
G01 X14.4139 Y51.1969
G01 X14.4299 Y51.3590
G01 X14.4317 Y51.3700
G01 X14.4412 Y51.4178
G01 X14.4438 Y51.4286
G01 X14.4886 Y51.5763
G01 X14.4924 Y51.5866
G01 X14.5111 Y51.6317
G01 X14.5174 Y51.6450
G01 X14.5867 Y51.7746
G01 X14.5922 Y51.7842
G01 X14.6214 Y51.8279
G01 X14.6278 Y51.8368
G01 X14.7234 Y51.9533
G01 X14.7333 Y51.9642
G01 X14.7678 Y51.9987
G01 X14.7759 Y52.0062
G01 X14.8923 Y52.1019
G01 X14.9041 Y52.1106
G01 X14.9447 Y52.1378
G01 X14.9541 Y52.1435
G01 X15.0902 Y52.2163
G01 X15.1003 Y52.2209
G01 X15.1454 Y52.2396
G01 X15.1557 Y52.2434
G01 X15.2999 Y52.2872
G01 X15.3106 Y52.2900
G01 X15.3620 Y52.3003
G01 X15.3730 Y52.3021
G01 X15.5351 Y52.3181
G01 X15.5742 Y52.3200
G01 X34.0004 Y52.3200
G01 X34.0359 Y52.3181
G01 X34.1944 Y52.3025
G01 X34.2090 Y52.3003
G01 X34.2568 Y52.2908
G01 X34.2676 Y52.2882
G01 X34.4118 Y52.2445
G01 X34.4222 Y52.2409
G01 X34.4707 Y52.2209
G01 X34.4808 Y52.2163
G01 X34.6136 Y52.1453
G01 X34.6232 Y52.1398
G01 X34.6669 Y52.1106
G01 X34.6758 Y52.1042
G01 X34.7951 Y52.0062
G01 X34.8032 Y51.9987
G01 X34.8377 Y51.9642
G01 X34.8452 Y51.9561
G01 X34.9409 Y51.8397
G01 X34.9496 Y51.8279
G01 X34.9768 Y51.7873
G01 X34.9843 Y51.7746
G01 X35.0553 Y51.6417
G01 X35.0599 Y51.6317
G01 X35.0799 Y51.5832
G01 X35.0835 Y51.5728
G01 X35.1272 Y51.4286
G01 X35.1298 Y51.4178
G01 X35.1393 Y51.3700
G01 X35.1411 Y51.3591
G01 X35.1571 Y51.1969
G01 X35.1590 Y51.1578
G01 X35.1590 Y42.0000
G00 Z2.0000
G00 X35.0840 Y42.0000
G01 F60.00
G01 Z-0.0550
G01 F120.00
G01 X35.0840 Y51.1578
G01 X35.0826 Y51.1877
G01 X35.0666 Y51.3499
G01 X35.0562 Y51.4032
G01 X35.0544 Y51.4103
G01 X35.0112 Y51.5527
G01 X34.9906 Y51.6030
G01 X34.9875 Y51.6097
G01 X34.9182 Y51.7393
G01 X34.9144 Y51.7456
G01 X34.8840 Y51.7907
G01 X34.7896 Y51.9057
G01 X34.7847 Y51.9112
G01 X34.7461 Y51.9495
G01 X34.6311 Y52.0439
G01 X34.6252 Y52.0483
G01 X34.5799 Y52.0783
G01 X34.4487 Y52.1485
G01 X34.4420 Y52.1516
G01 X34.3917 Y52.1722
G01 X34.2440 Y52.2168
G01 X34.1889 Y52.2276
G01 X34.0285 Y52.2434
G01 X33.9968 Y52.2450
G01 X15.5742 Y52.2450
G01 X15.5461 Y52.2437
G00 Z2.0000
G00 X15.5461 Y52.2437
G01 F60.00
G01 Z-0.0550
G01 F120.00
G01 X15.3840 Y52.2278
G01 X15.3767 Y52.2267
G01 X15.3234 Y52.2159
G01 X15.1810 Y52.1728
G01 X15.1741 Y52.1703
G01 X15.1240 Y52.1493
G01 X14.9879 Y52.0764
G01 X14.9413 Y52.0450
G01 X14.8263 Y51.9506
G01 X14.8208 Y51.9457
G01 X14.7825 Y51.9071
G01 X14.6848 Y51.7877
G01 X14.6537 Y51.7409
G01 X14.5811 Y51.6047
G01 X14.5598 Y51.5527
G01 X14.5152 Y51.4050
G01 X14.5044 Y51.3499
G01 X14.4883 Y51.1859
G01 X14.4870 Y51.1578
G01 X14.4870 Y43.6572
G01 X14.4883 Y43.6291
G01 X14.5044 Y43.4651
G01 X14.5148 Y43.4118
G01 X14.5166 Y43.4047
G01 X14.5598 Y43.2623
G01 X14.5804 Y43.2120
G01 X14.5835 Y43.2053
G01 X14.6537 Y43.0741
G01 X14.6837 Y43.0288
G01 X14.6881 Y43.0229
G01 X14.7825 Y42.9079
G01 X14.8208 Y42.8693
G01 X14.8263 Y42.8644
G01 X14.9413 Y42.7700
G01 X14.9879 Y42.7386
G01 X15.0000 Y42.7319
G00 Z2.0000
M05
G00 Z2.0000
G00 Z15.00


