(G-CODE GENERATED BY FLATCAM v8.994 - www.flatcam.org - Version Date: 2020/11/7)

(Name: PCB_milli-Edge_Cuts.gbr_cutout_cnc)
(Type: G-code from Geometry)
(Units: MM)

(Created on Saturday, 26 April 2025 at 16:58)

(This preprocessor is the default preprocessor used by FlatCAM.)
(It is made to work with MACH3 compatible motion controllers.)

(TOOL DIAMETER: 0.95 mm)
(Feedrate_XY: 120.0 mm/min)
(Feedrate_Z: 60.0 mm/min)
(Feedrate rapids 1500.0 mm/min)

(Z_Cut: -1.79 mm)
(DepthPerCut: 0.6 mm <=>3 passes)
(Z_Move: 2.0 mm)
(Z Start: None mm)
(Z End: 15.0 mm)
(X,Y End: None mm)
(Steps per circle: 64)
(Preprocessor Geometry: default)

(X range:   -0.1350 ...   49.9600  mm)
(Y range:   -0.5000 ...   62.2950  mm)

(Spindle Speed: 10000.0 RPM)
G21
G90
G94

G01 F120.00

M5
G00 Z15.0000
G00 X0.0000 Y0.0000
T1
M6    
(MSG, Change to Tool Dia = 0.9500)
M0
G00 Z15.0000

M03 S10000.0
G01 F120.00
G00 X-0.1350 Y28.5225
G01 F60.00
G01 Z-0.6000
G01 F120.00
G01 X-0.1350 Y0.0750
G01 X-0.1322 Y0.0186
G01 X-0.1240 Y-0.0372
G01 X-0.1103 Y-0.0919
G01 X-0.0912 Y-0.1451
G01 X-0.0671 Y-0.1961
G01 X-0.0381 Y-0.2445
G01 X-0.0045 Y-0.2898
G01 X0.0334 Y-0.3316
G01 X0.0752 Y-0.3695
G01 X0.1205 Y-0.4031
G01 X0.1689 Y-0.4321
G01 X0.2199 Y-0.4562
G01 X0.2731 Y-0.4753
G01 X0.3278 Y-0.4890
G01 X0.3836 Y-0.4972
G01 X0.4400 Y-0.5000
G01 X49.3850 Y-0.5000
G01 X49.4414 Y-0.4972
G01 X49.4972 Y-0.4890
G01 X49.5519 Y-0.4753
G01 X49.6051 Y-0.4562
G01 X49.6561 Y-0.4321
G01 X49.7045 Y-0.4031
G01 X49.7498 Y-0.3695
G01 X49.7916 Y-0.3316
G01 X49.8295 Y-0.2898
G01 X49.8631 Y-0.2445
G01 X49.8921 Y-0.1961
G01 X49.9162 Y-0.1451
G01 X49.9353 Y-0.0919
G01 X49.9490 Y-0.0372
G01 X49.9572 Y0.0186
G01 X49.9600 Y0.0750
G01 X49.9600 Y28.5225
G00 X49.9600 Y28.5225
G01 F60.00
G01 Z-1.2000
G01 F120.00
G01 X49.9600 Y0.0750
G01 X49.9572 Y0.0186
G01 X49.9490 Y-0.0372
G01 X49.9353 Y-0.0919
G01 X49.9162 Y-0.1451
G01 X49.8921 Y-0.1961
G01 X49.8631 Y-0.2445
G01 X49.8295 Y-0.2898
G01 X49.7916 Y-0.3316
G01 X49.7498 Y-0.3695
G01 X49.7045 Y-0.4031
G01 X49.6561 Y-0.4321
G01 X49.6051 Y-0.4562
G01 X49.5519 Y-0.4753
G01 X49.4972 Y-0.4890
G01 X49.4414 Y-0.4972
G01 X49.3850 Y-0.5000
G01 X0.4400 Y-0.5000
G01 X0.3836 Y-0.4972
G01 X0.3278 Y-0.4890
G01 X0.2731 Y-0.4753
G01 X0.2199 Y-0.4562
G01 X0.1689 Y-0.4321
G01 X0.1205 Y-0.4031
G01 X0.0752 Y-0.3695
G01 X0.0334 Y-0.3316
G01 X-0.0045 Y-0.2898
G01 X-0.0381 Y-0.2445
G01 X-0.0671 Y-0.1961
G01 X-0.0912 Y-0.1451
G01 X-0.1103 Y-0.0919
G01 X-0.1240 Y-0.0372
G01 X-0.1322 Y0.0186
G01 X-0.1350 Y0.0750
G01 X-0.1350 Y28.5225
G00 X-0.1350 Y28.5225
G01 F60.00
G01 Z-1.7900
G01 F120.00
G01 X-0.1350 Y0.0750
G01 X-0.1322 Y0.0186
G01 X-0.1240 Y-0.0372
G01 X-0.1103 Y-0.0919
G01 X-0.0912 Y-0.1451
G01 X-0.0671 Y-0.1961
G01 X-0.0381 Y-0.2445
G01 X-0.0045 Y-0.2898
G01 X0.0334 Y-0.3316
G01 X0.0752 Y-0.3695
G01 X0.1205 Y-0.4031
G01 X0.1689 Y-0.4321
G01 X0.2199 Y-0.4562
G01 X0.2731 Y-0.4753
G01 X0.3278 Y-0.4890
G01 X0.3836 Y-0.4972
G01 X0.4400 Y-0.5000
G01 X49.3850 Y-0.5000
G01 X49.4414 Y-0.4972
G01 X49.4972 Y-0.4890
G01 X49.5519 Y-0.4753
G01 X49.6051 Y-0.4562
G01 X49.6561 Y-0.4321
G01 X49.7045 Y-0.4031
G01 X49.7498 Y-0.3695
G01 X49.7916 Y-0.3316
G01 X49.8295 Y-0.2898
G01 X49.8631 Y-0.2445
G01 X49.8921 Y-0.1961
G01 X49.9162 Y-0.1451
G01 X49.9353 Y-0.0919
G01 X49.9490 Y-0.0372
G01 X49.9572 Y0.0186
G01 X49.9600 Y0.0750
G01 X49.9600 Y28.5225
G00 Z2.0000
G00 X-0.1350 Y33.4725
G01 F60.00
G01 Z-0.6000
G01 F120.00
G01 X-0.1350 Y61.7200
G01 X-0.1322 Y61.7764
G01 X-0.1240 Y61.8322
G01 X-0.1103 Y61.8869
G01 X-0.0912 Y61.9401
G01 X-0.0671 Y61.9911
G01 X-0.0381 Y62.0395
G01 X-0.0045 Y62.0848
G01 X0.0334 Y62.1266
G01 X0.0752 Y62.1645
G01 X0.1205 Y62.1981
G01 X0.1689 Y62.2271
G01 X0.2199 Y62.2512
G01 X0.2731 Y62.2703
G01 X0.3278 Y62.2840
G01 X0.3836 Y62.2922
G01 X0.4400 Y62.2950
G01 X49.3850 Y62.2950
G01 X49.4414 Y62.2922
G01 X49.4972 Y62.2840
G01 X49.5519 Y62.2703
G01 X49.6051 Y62.2512
G01 X49.6561 Y62.2271
G01 X49.7045 Y62.1981
G01 X49.7498 Y62.1645
G01 X49.7916 Y62.1266
G01 X49.8295 Y62.0848
G01 X49.8631 Y62.0395
G01 X49.8921 Y61.9911
G01 X49.9162 Y61.9401
G01 X49.9353 Y61.8869
G01 X49.9490 Y61.8322
G01 X49.9572 Y61.7764
G01 X49.9600 Y61.7200
G01 X49.9600 Y33.4725
G00 X49.9600 Y33.4725
G01 F60.00
G01 Z-1.2000
G01 F120.00
G01 X49.9600 Y61.7200
G01 X49.9572 Y61.7764
G01 X49.9490 Y61.8322
G01 X49.9353 Y61.8869
G01 X49.9162 Y61.9401
G01 X49.8921 Y61.9911
G01 X49.8631 Y62.0395
G01 X49.8295 Y62.0848
G01 X49.7916 Y62.1266
G01 X49.7498 Y62.1645
G01 X49.7045 Y62.1981
G01 X49.6561 Y62.2271
G01 X49.6051 Y62.2512
G01 X49.5519 Y62.2703
G01 X49.4972 Y62.2840
G01 X49.4414 Y62.2922
G01 X49.3850 Y62.2950
G01 X0.4400 Y62.2950
G01 X0.3836 Y62.2922
G01 X0.3278 Y62.2840
G01 X0.2731 Y62.2703
G01 X0.2199 Y62.2512
G01 X0.1689 Y62.2271
G01 X0.1205 Y62.1981
G01 X0.0752 Y62.1645
G01 X0.0334 Y62.1266
G01 X-0.0045 Y62.0848
G01 X-0.0381 Y62.0395
G01 X-0.0671 Y61.9911
G01 X-0.0912 Y61.9401
G01 X-0.1103 Y61.8869
G01 X-0.1240 Y61.8322
G01 X-0.1322 Y61.7764
G01 X-0.1350 Y61.7200
G01 X-0.1350 Y33.4725
G00 X-0.1350 Y33.4725
G01 F60.00
G01 Z-1.7900
G01 F120.00
G01 X-0.1350 Y61.7200
G01 X-0.1322 Y61.7764
G01 X-0.1240 Y61.8322
G01 X-0.1103 Y61.8869
G01 X-0.0912 Y61.9401
G01 X-0.0671 Y61.9911
G01 X-0.0381 Y62.0395
G01 X-0.0045 Y62.0848
G01 X0.0334 Y62.1266
G01 X0.0752 Y62.1645
G01 X0.1205 Y62.1981
G01 X0.1689 Y62.2271
G01 X0.2199 Y62.2512
G01 X0.2731 Y62.2703
G01 X0.3278 Y62.2840
G01 X0.3836 Y62.2922
G01 X0.4400 Y62.2950
G01 X49.3850 Y62.2950
G01 X49.4414 Y62.2922
G01 X49.4972 Y62.2840
G01 X49.5519 Y62.2703
G01 X49.6051 Y62.2512
G01 X49.6561 Y62.2271
G01 X49.7045 Y62.1981
G01 X49.7498 Y62.1645
G01 X49.7916 Y62.1266
G01 X49.8295 Y62.0848
G01 X49.8631 Y62.0395
G01 X49.8921 Y61.9911
G01 X49.9162 Y61.9401
G01 X49.9353 Y61.8869
G01 X49.9490 Y61.8322
G01 X49.9572 Y61.7764
G01 X49.9600 Y61.7200
G01 X49.9600 Y33.4725
G00 Z2.0000
M05
G00 Z2.0000
G00 Z15.00


