(G-CODE GENERATED BY FLATCAM v8.994 - www.flatcam.org - Version Date: 2020/11/7)

(Name: PCB_milli-B_Cu.gbr_ncc_cnc)
(Type: G-code from Geometry)
(Units: MM)

(Created on Saturday, 26 April 2025 at 17:10)

(This preprocessor is the default preprocessor used by FlatCAM.)
(It is made to work with MACH3 compatible motion controllers.)

(TOOL DIAMETER: 0.15 mm)
(Feedrate_XY: 120.0 mm/min)
(Feedrate_Z: 60.0 mm/min)
(Feedrate rapids 1500.0 mm/min)

(Z_Cut: -0.055 mm)
(Z_Move: 2.0 mm)
(Z Start: None mm)
(Z End: 15.0 mm)
(X,Y End: None mm)
(Steps per circle: 64)
(Preprocessor Geometry: default)

(X range:   22.5742 ...   36.0250  mm)
(Y range:   22.4750 ...   38.8023  mm)

(Spindle Speed: 10000.0 RPM)
G21
G90
G94

G01 F120.00

M5
G00 Z15.0000
G00 X0.0000 Y0.0000
T3
M6    
(MSG, Change to Tool Dia = 0.1500)
M0
G00 Z15.0000

M03 S10000.0
G01 F120.00
G00 X23.0987 Y27.9750
G01 F60.00
G01 Z-0.0550
G01 F120.00
G01 X23.0987 Y38.7891
G01 X23.0237 Y38.7516
G01 X23.0237 Y30.4809
G01 X22.9487 Y30.5409
G01 X22.9487 Y38.7141
G01 X22.6760 Y38.5778
G01 X22.5742 Y30.8406
G01 X23.0496 Y30.4601
G01 X23.0548 Y30.4550
G01 X23.0595 Y30.4495
G01 X23.0646 Y30.4420
G01 X23.0680 Y30.4355
G01 X23.0713 Y30.4271
G01 X23.0732 Y30.4201
G01 X23.0746 Y30.4111
G01 X23.0750 Y30.4039
G01 X23.0750 Y29.6724
G01 X23.0748 Y29.6668
G01 X23.0739 Y29.6594
G01 X23.0722 Y29.6522
G01 X23.0705 Y29.6469
G01 X23.0676 Y29.6400
G01 X23.0650 Y29.6351
G01 X23.0621 Y29.6303
G01 X23.0576 Y29.6244
G01 X22.5750 Y29.0453
G01 X22.5750 Y27.9750
G01 X23.1119 Y27.9750
G01 X23.2147 Y28.9002
G01 X23.2163 Y28.9093
G01 X23.2197 Y28.9199
G01 X23.2236 Y28.9283
G01 X23.2286 Y28.9361
G01 X23.2358 Y28.9446
G01 X23.2428 Y28.9508
G01 X23.6250 Y29.2375
G01 X23.6250 Y30.4518
G01 X23.1457 Y30.9311
G01 X23.1409 Y30.9367
G01 X23.1376 Y30.9412
G01 X23.1339 Y30.9475
G01 X23.1314 Y30.9524
G01 X23.1288 Y30.9593
G01 X23.1272 Y30.9646
G01 X23.1258 Y30.9718
G01 X23.1251 Y30.9792
G01 X23.1250 Y38.8023
G01 X22.6760 Y38.5778
G01 X22.7237 Y38.6016
G01 X22.7237 Y30.7209
G01 X22.7987 Y30.6609
G01 X22.7987 Y38.6391
G01 X22.8737 Y38.6766
G01 X22.8737 Y30.6009
G01 X23.1737 Y30.9030
G01 X23.1737 Y28.5317
G00 Z2.0000
G00 X23.2487 Y28.9553
G01 F60.00
G01 Z-0.0550
G01 F120.00
G01 X23.2487 Y30.8280
G01 X23.3237 Y30.7530
G01 X23.3237 Y29.0115
G01 X23.6237 Y29.2365
G01 X23.6237 Y30.4530
G01 X23.5487 Y30.5280
G01 X23.5487 Y29.1803
G01 X23.4737 Y29.1240
G01 X23.4737 Y30.6030
G01 X23.3987 Y30.6780
G01 X23.3987 Y29.0678
G01 X23.0237 Y29.5837
G01 X23.0237 Y27.9750
G01 X22.9487 Y27.9750
G01 X22.9487 Y29.4937
G01 X22.8737 Y29.4037
G01 X22.8737 Y27.9750
G01 X22.7987 Y27.9750
G01 X22.7987 Y29.3137
G01 X22.7237 Y29.2237
G01 X22.7237 Y27.9750
G01 X22.6487 Y27.9750
G01 X22.6487 Y29.1337
G00 Z2.0000
G00 X22.6487 Y30.7809
G01 F60.00
G01 Z-0.0550
G01 F120.00
G01 X22.6487 Y36.5044
G00 Z2.0000
G00 X34.7227 Y22.4750
G01 F60.00
G01 Z-0.0550
G01 F120.00
G01 X34.3977 Y23.1250
G01 X36.0250 Y23.1250
G01 X36.0250 Y22.4750
G01 X34.7227 Y22.4750
G01 X34.6977 Y22.5250
G01 X36.0250 Y22.5250
G01 X36.0250 Y22.6000
G01 X34.6602 Y22.6000
G01 X34.6227 Y22.6750
G01 X36.0250 Y22.6750
G01 X36.0250 Y22.7500
G01 X34.5852 Y22.7500
G01 X34.5477 Y22.8250
G01 X36.0250 Y22.8250
G01 X36.0250 Y22.9000
G01 X34.5102 Y22.9000
G01 X34.4727 Y22.9750
G01 X36.0250 Y22.9750
G01 X36.0250 Y23.0500
G01 X34.4352 Y23.0500
G01 X34.3977 Y23.1250
G01 X36.0250 Y23.1250
G00 Z2.0000
M05
G00 Z2.0000
G00 Z15.00


