(G-CODE GENERATED BY FLATCAM v8.994 - www.flatcam.org - Version Date: 2020/11/7)

(Name: PCB_milli-B_Cu.gbr_iso_combined_cnc)
(Type: G-code from Geometry)
(Units: MM)

(Created on Saturday, 26 April 2025 at 16:50)

(This preprocessor is the default preprocessor used by FlatCAM.)
(It is made to work with MACH3 compatible motion controllers.)

(TOOL DIAMETER: 0.15 mm)
(Feedrate_XY: 120.0 mm/min)
(Feedrate_Z: 60.0 mm/min)
(Feedrate rapids 1500.0 mm/min)

(Z_Cut: -0.055 mm)
(Z_Move: 2.0 mm)
(Z Start: None mm)
(Z End: 15.0 mm)
(X,Y End: None mm)
(Steps per circle: 64)
(Preprocessor Geometry: default)

(X range:    0.8000 ...   49.0250  mm)
(Y range:    0.4350 ...   61.3600  mm)

(Spindle Speed: 10000.0 RPM)
G21
G90
G94

G01 F120.00

M5
G00 Z15.0000
G00 X0.0000 Y0.0000
T1
M6    
(MSG, Change to Tool Dia = 0.1500)
M0
G00 Z15.0000

M03 S10000.0
G01 F120.00
G00 X2.5901 Y4.4819
G01 F60.00
G01 Z-0.0550
G01 F120.00
G01 X2.5299 Y4.2571
G01 X2.4995 Y4.0264
G01 X2.4995 Y3.7936
G01 X2.5299 Y3.5629
G01 X2.5901 Y3.3381
G01 X2.6792 Y3.1230
G01 X2.7956 Y2.9215
G01 X2.9372 Y2.7368
G01 X3.1018 Y2.5722
G01 X3.2865 Y2.4306
G01 X3.4880 Y2.3142
G01 X3.7031 Y2.2251
G01 X3.9279 Y2.1649
G01 X4.1586 Y2.1345
G01 X4.3914 Y2.1345
G01 X4.6221 Y2.1649
G01 X4.8469 Y2.2251
G01 X5.0620 Y2.3142
G01 X5.2635 Y2.4306
G01 X5.4482 Y2.5722
G01 X5.6128 Y2.7368
G01 X5.7544 Y2.9215
G01 X5.8708 Y3.1230
G01 X5.9599 Y3.3381
G01 X6.0201 Y3.5629
G01 X6.0505 Y3.7936
G01 X6.0505 Y4.0264
G01 X6.0201 Y4.2571
G01 X5.9599 Y4.4819
G01 X5.8708 Y4.6970
G01 X5.7544 Y4.8985
G01 X5.6128 Y5.0832
G01 X5.4482 Y5.2478
G01 X5.2635 Y5.3894
G01 X5.0620 Y5.5058
G01 X4.8469 Y5.5949
G01 X4.6221 Y5.6551
G01 X4.3914 Y5.6855
G01 X4.1586 Y5.6855
G01 X3.9279 Y5.6551
G01 X3.7031 Y5.5949
G01 X3.4880 Y5.5058
G01 X3.2865 Y5.3894
G01 X3.1018 Y5.2478
G01 X2.9372 Y5.0832
G01 X2.7956 Y4.8985
G01 X2.6792 Y4.6970
G01 X2.5901 Y4.4819
G00 Z2.0000
G00 X2.6613 Y4.4578
G01 F60.00
G01 Z-0.0550
G01 F120.00
G01 X2.6036 Y4.2425
G01 X2.5745 Y4.0215
G01 X2.5745 Y3.7985
G01 X2.6036 Y3.5775
G01 X2.6613 Y3.3622
G01 X2.7466 Y3.1563
G01 X2.8581 Y2.9632
G01 X2.9938 Y2.7864
G01 X3.1514 Y2.6287
G01 X3.3282 Y2.4930
G01 X3.5213 Y2.3816
G01 X3.7272 Y2.2963
G01 X3.9425 Y2.2386
G01 X4.1635 Y2.2095
G01 X4.3865 Y2.2095
G01 X4.6075 Y2.2386
G01 X4.8228 Y2.2963
G01 X5.0287 Y2.3816
G01 X5.2218 Y2.4931
G01 X5.3986 Y2.6288
G01 X5.5563 Y2.7864
G01 X5.6920 Y2.9632
G01 X5.8034 Y3.1563
G01 X5.8887 Y3.3622
G01 X5.9464 Y3.5775
G01 X5.9755 Y3.7985
G01 X5.9755 Y4.0215
G01 X5.9464 Y4.2425
G01 X5.8887 Y4.4578
G01 X5.8034 Y4.6637
G01 X5.6919 Y4.8568
G01 X5.5562 Y5.0336
G01 X5.3986 Y5.1913
G01 X5.2218 Y5.3270
G01 X5.0287 Y5.4384
G01 X4.8228 Y5.5237
G01 X4.6075 Y5.5814
G01 X4.3865 Y5.6105
G01 X4.1635 Y5.6105
G01 X3.9425 Y5.5814
G01 X3.7272 Y5.5237
G01 X3.5213 Y5.4384
G01 X3.3282 Y5.3269
G01 X3.1514 Y5.1912
G01 X2.9938 Y5.0336
G01 X2.8581 Y4.8568
G01 X2.7466 Y4.6637
G01 X2.6613 Y4.4578
G00 Z2.0000
G00 X2.7325 Y4.4336
G01 F60.00
G01 Z-0.0550
G01 F120.00
G01 X2.6773 Y4.2278
G01 X2.6495 Y4.0165
G01 X2.6495 Y3.8035
G01 X2.6773 Y3.5922
G01 X2.7325 Y3.3864
G01 X2.8140 Y3.1895
G01 X2.9205 Y3.0050
G01 X3.0503 Y2.8359
G01 X3.2009 Y2.6853
G01 X3.3700 Y2.5555
G01 X3.5545 Y2.4490
G01 X3.7514 Y2.3675
G01 X3.9572 Y2.3123
G01 X4.1685 Y2.2845
G01 X4.3815 Y2.2845
G01 X4.5928 Y2.3123
G01 X4.7986 Y2.3675
G01 X4.9955 Y2.4490
G01 X5.1800 Y2.5555
G01 X5.3491 Y2.6853
G01 X5.4997 Y2.8359
G01 X5.6295 Y3.0050
G01 X5.7360 Y3.1895
G01 X5.8175 Y3.3864
G01 X5.8727 Y3.5922
G01 X5.9005 Y3.8035
G01 X5.9005 Y4.0165
G01 X5.8727 Y4.2278
G01 X5.8175 Y4.4336
G01 X5.7360 Y4.6305
G01 X5.6295 Y4.8150
G01 X5.4997 Y4.9841
G01 X5.3491 Y5.1347
G01 X5.1800 Y5.2645
G01 X4.9955 Y5.3710
G01 X4.7986 Y5.4525
G01 X4.5928 Y5.5077
G01 X4.3815 Y5.5355
G01 X4.1685 Y5.5355
G01 X3.9572 Y5.5077
G01 X3.7514 Y5.4525
G01 X3.5545 Y5.3710
G01 X3.3700 Y5.2645
G01 X3.2009 Y5.1347
G01 X3.0503 Y4.9841
G01 X2.9205 Y4.8150
G01 X2.8140 Y4.6305
G01 X2.7325 Y4.4336
G00 Z2.0000
G00 X2.8036 Y4.4094
G01 F60.00
G01 Z-0.0550
G01 F120.00
G01 X2.7510 Y4.2131
G01 X2.7245 Y4.0116
G01 X2.7245 Y3.8084
G01 X2.7510 Y3.6069
G01 X2.8036 Y3.4105
G01 X2.8814 Y3.2228
G01 X2.9830 Y3.0467
G01 X3.1068 Y2.8855
G01 X3.2505 Y2.7418
G01 X3.4117 Y2.6180
G01 X3.5878 Y2.5164
G01 X3.7756 Y2.4386
G01 X3.9719 Y2.3860
G01 X4.1734 Y2.3595
G01 X4.3766 Y2.3595
G01 X4.5781 Y2.3860
G01 X4.7745 Y2.4386
G01 X4.9622 Y2.5164
G01 X5.1383 Y2.6180
G01 X5.2995 Y2.7418
G01 X5.4432 Y2.8855
G01 X5.5670 Y3.0467
G01 X5.6686 Y3.2228
G01 X5.7464 Y3.4106
G01 X5.7990 Y3.6069
G01 X5.8255 Y3.8084
G01 X5.8255 Y4.0116
G01 X5.7990 Y4.2131
G01 X5.7464 Y4.4095
G01 X5.6686 Y4.5972
G01 X5.5670 Y4.7733
G01 X5.4432 Y4.9345
G01 X5.2995 Y5.0782
G01 X5.1383 Y5.2020
G01 X4.9622 Y5.3036
G01 X4.7745 Y5.3814
G01 X4.5781 Y5.4340
G01 X4.3766 Y5.4605
G01 X4.1734 Y5.4605
G01 X3.9719 Y5.4340
G01 X3.7755 Y5.3814
G01 X3.5878 Y5.3036
G01 X3.4117 Y5.2020
G01 X3.2505 Y5.0782
G01 X3.1068 Y4.9345
G01 X2.9830 Y4.7733
G01 X2.8814 Y4.5972
G01 X2.8036 Y4.4094
G00 Z2.0000
G00 X7.6534 Y7.3613
G01 F60.00
G01 Z-0.0550
G01 F120.00
G01 X7.7263 Y7.2884
G01 X7.8182 Y7.2416
G01 X7.8944 Y7.2295
G01 X9.5456 Y7.2295
G01 X9.6218 Y7.2416
G01 X9.7137 Y7.2884
G01 X9.7866 Y7.3613
G01 X9.8334 Y7.4532
G01 X9.8455 Y7.5294
G01 X9.8457 Y8.4672
G01 X9.8469 Y8.4763
G01 X9.8659 Y8.5716
G01 X9.8677 Y8.5788
G01 X9.8702 Y8.5857
G01 X9.8733 Y8.5923
G01 X9.8771 Y8.5987
G01 X9.9332 Y8.6824
G01 X9.9404 Y8.6908
G01 X13.1042 Y11.8546
G01 X13.1096 Y11.8595
G01 X13.1156 Y11.8639
G01 X13.2010 Y11.9208
G01 X13.2110 Y11.9255
G01 X13.2216 Y11.9287
G01 X13.3187 Y11.9481
G01 X13.3296 Y11.9494
G01 X13.9406 Y11.9495
G01 X14.0168 Y11.9616
G01 X14.1087 Y12.0084
G01 X14.1799 Y12.0796
G01 X14.1854 Y12.0845
G01 X14.1913 Y12.0889
G01 X14.2721 Y12.1429
G01 X14.2784 Y12.1467
G01 X14.2868 Y12.1505
G01 X14.2973 Y12.1537
G01 X14.3944 Y12.1731
G01 X14.4035 Y12.1743
G01 X17.0366 Y12.1745
G01 X17.1575 Y12.1985
G01 X17.2713 Y12.2457
G01 X17.3737 Y12.3141
G01 X20.2742 Y15.2146
G01 X20.2796 Y15.2195
G01 X20.2856 Y15.2239
G01 X20.3679 Y15.2789
G01 X20.3727 Y15.2817
G01 X20.3793 Y15.2848
G01 X20.3862 Y15.2873
G01 X20.3934 Y15.2891
G01 X20.4887 Y15.3081
G01 X20.4978 Y15.3093
G01 X21.6478 Y15.3095
G01 X21.6740 Y15.3116
G01 X21.8154 Y15.3526
G01 X21.9405 Y15.4267
G01 X22.0433 Y15.5295
G01 X22.1174 Y15.6546
G01 X22.1584 Y15.7960
G01 X22.1605 Y15.8222
G01 X22.1605 Y17.5478
G01 X22.1584 Y17.5740
G01 X22.1174 Y17.7154
G01 X22.0433 Y17.8405
G01 X21.9405 Y17.9433
G01 X21.8154 Y18.0174
G01 X21.6740 Y18.0584
G01 X21.6477 Y18.0605
G01 X19.9223 Y18.0605
G01 X19.8960 Y18.0584
G01 X19.7546 Y18.0174
G01 X19.6295 Y17.9433
G01 X19.5267 Y17.8405
G01 X19.4526 Y17.7154
G01 X19.4059 Y17.5544
G01 X19.3943 Y17.5162
G01 X19.3923 Y17.5109
G01 X19.3891 Y17.5040
G01 X19.3853 Y17.4975
G01 X19.3313 Y17.4168
G01 X19.3269 Y17.4109
G01 X19.3193 Y17.4029
G01 X19.3121 Y17.3971
G01 X19.2298 Y17.3421
G01 X19.2251 Y17.3392
G01 X19.2185 Y17.3359
G01 X19.2117 Y17.3332
G01 X19.2046 Y17.3313
G01 X19.1057 Y17.3116
G01 X19.0984 Y17.3107
G01 X19.0929 Y17.3105
G01 X16.0233 Y17.3105
G01 X16.0159 Y17.3109
G01 X16.0087 Y17.3119
G01 X15.9134 Y17.3309
G01 X15.9062 Y17.3327
G01 X15.8976 Y17.3359
G01 X15.8879 Y17.3411
G01 X15.8040 Y17.3971
G01 X15.7996 Y17.4005
G01 X15.7942 Y17.4054
G01 X12.2931 Y20.9065
G01 X12.2854 Y20.9155
G01 X12.2385 Y20.9801
G01 X12.2344 Y20.9868
G01 X12.2226 Y21.0099
G01 X12.1185 Y21.1532
G01 X11.9932 Y21.2785
G01 X11.8499 Y21.3826
G01 X11.6920 Y21.4630
G01 X11.5236 Y21.5178
G01 X11.3486 Y21.5455
G01 X11.1714 Y21.5455
G01 X10.9964 Y21.5178
G01 X10.8280 Y21.4630
G01 X10.6701 Y21.3826
G01 X10.5268 Y21.2785
G01 X10.4015 Y21.1532
G01 X10.2974 Y21.0099
G01 X10.2170 Y20.8520
G01 X10.1622 Y20.6836
G01 X10.1345 Y20.5086
G01 X10.1345 Y20.3314
G01 X10.1622 Y20.1564
G01 X10.2170 Y19.9880
G01 X10.2974 Y19.8301
G01 X10.4015 Y19.6868
G01 X10.5268 Y19.5615
G01 X10.6701 Y19.4574
G01 X10.8280 Y19.3770
G01 X10.9964 Y19.3222
G01 X11.1714 Y19.2945
G01 X11.3486 Y19.2945
G01 X11.5236 Y19.3222
G01 X11.6921 Y19.3770
G01 X11.7244 Y19.3934
G01 X11.7437 Y19.4023
G01 X11.7520 Y19.4053
G01 X11.7589 Y19.4070
G01 X11.8542 Y19.4260
G01 X11.8596 Y19.4268
G01 X11.8670 Y19.4274
G01 X11.8743 Y19.4272
G01 X11.8834 Y19.4260
G01 X11.9787 Y19.4070
G01 X11.9859 Y19.4052
G01 X11.9911 Y19.4034
G01 X11.9978 Y19.4004
G01 X12.0042 Y19.3968
G01 X12.0881 Y19.3408
G01 X12.0925 Y19.3374
G01 X12.0979 Y19.3325
G01 X15.2313 Y16.1991
G01 X15.3337 Y16.1307
G01 X15.4476 Y16.0835
G01 X15.5684 Y16.0595
G01 X18.5677 Y16.0595
G01 X18.5787 Y16.0587
G01 X18.6794 Y16.0387
G01 X18.6865 Y16.0368
G01 X18.6951 Y16.0333
G01 X18.7047 Y16.0279
G01 X18.7870 Y15.9729
G01 X18.7928 Y15.9684
G01 X18.7968 Y15.9646
G01 X18.8017 Y15.9591
G01 X18.8061 Y15.9532
G01 X18.8611 Y15.8709
G01 X18.8639 Y15.8661
G01 X18.8670 Y15.8595
G01 X18.8695 Y15.8526
G01 X18.8709 Y15.8472
G01 X18.8903 Y15.7501
G01 X18.8911 Y15.7447
G01 X18.8917 Y15.7373
G01 X18.8915 Y15.7300
G01 X18.8909 Y15.7245
G01 X18.8713 Y15.6256
G01 X18.8700 Y15.6202
G01 X18.8677 Y15.6132
G01 X18.8647 Y15.6065
G01 X18.8611 Y15.6001
G01 X18.8051 Y15.5162
G01 X18.8006 Y15.5104
G01 X18.7968 Y15.5064
G01 X16.8095 Y13.5191
G01 X16.8054 Y13.5155
G01 X16.7994 Y13.5111
G01 X16.7187 Y13.4571
G01 X16.7123 Y13.4533
G01 X16.7057 Y13.4502
G01 X16.6988 Y13.4477
G01 X16.6916 Y13.4459
G01 X16.5963 Y13.4269
G01 X16.5891 Y13.4259
G01 X16.5817 Y13.4255
G01 X14.5219 Y13.4255
G01 X14.4660 Y13.4308
G01 X14.4587 Y13.4321
G01 X14.4534 Y13.4335
G01 X14.4465 Y13.4360
G01 X14.3567 Y13.4732
G01 X14.3501 Y13.4763
G01 X14.3422 Y13.4811
G01 X14.3378 Y13.4845
G01 X14.3324 Y13.4894
G01 X14.2637 Y13.5581
G01 X14.2587 Y13.5636
G01 X14.2544 Y13.5695
G01 X14.2506 Y13.5758
G01 X14.2482 Y13.5808
G01 X14.2103 Y13.6722
G01 X14.2078 Y13.6792
G01 X14.2060 Y13.6863
G01 X14.2049 Y13.6936
G01 X14.2045 Y13.7009
G01 X14.2045 Y13.7981
G01 X14.2051 Y13.8073
G01 X14.2405 Y13.9862
G01 X14.2405 Y14.1538
G01 X14.2078 Y14.3181
G01 X14.1364 Y14.4906
G01 X14.1199 Y14.5443
G01 X14.1183 Y14.5515
G01 X14.1173 Y14.5606
G01 X14.1172 Y14.6633
G01 X14.1183 Y14.6743
G01 X14.1194 Y14.6797
G01 X14.1216 Y14.6867
G01 X14.1601 Y14.7799
G01 X14.1632 Y14.7866
G01 X14.1670 Y14.7929
G01 X14.2319 Y14.8900
G01 X14.2837 Y15.0150
G01 X13.8940 Y15.0150
G01 X13.8878 Y15.0051
G01 X13.8538 Y14.9594
G01 X13.8168 Y14.9184
G01 X13.8116 Y14.9132
G01 X13.7706 Y14.8762
G01 X13.7264 Y14.8432
G01 X13.7202 Y14.8391
G01 X13.6728 Y14.8108
G01 X13.6230 Y14.7872
G01 X13.6162 Y14.7843
G01 X13.5642 Y14.7658
G01 X13.5106 Y14.7523
G01 X13.5034 Y14.7509
G01 X13.4488 Y14.7429
G01 X13.3900 Y14.7400
G01 X12.9382 Y14.7400
G01 X12.8812 Y14.7429
G01 X12.8229 Y14.7515
G01 X12.7658 Y14.7658
G01 X12.7104 Y14.7857
G01 X12.6572 Y14.8108
G01 X12.6067 Y14.8411
G01 X12.5594 Y14.8762
G01 X12.5157 Y14.9157
G01 X12.4762 Y14.9594
G01 X12.4422 Y15.0051
G01 X12.4360 Y15.0150
G01 X12.0463 Y15.0150
G01 X12.0981 Y14.8900
G01 X12.1640 Y14.7914
G01 X12.1898 Y14.7435
G01 X12.1929 Y14.7369
G01 X12.1949 Y14.7317
G01 X12.1968 Y14.7246
G01 X12.2162 Y14.6275
G01 X12.2172 Y14.6202
G01 X12.2176 Y14.6129
G01 X12.2172 Y14.6055
G01 X12.2162 Y14.5983
G01 X12.1972 Y14.5030
G01 X12.1949 Y14.4941
G01 X12.1222 Y14.3181
G01 X12.0895 Y14.1538
G01 X12.0895 Y13.9862
G01 X12.1222 Y13.8219
G01 X12.1466 Y13.7629
G01 X12.1545 Y13.7416
G01 X12.1568 Y13.7330
G01 X12.1580 Y13.7261
G01 X12.1694 Y13.6296
G01 X12.1699 Y13.6186
G01 X12.1693 Y13.6112
G01 X12.1676 Y13.6022
G01 X12.1391 Y13.5017
G01 X12.1354 Y13.4932
G01 X12.1016 Y13.4268
G01 X12.0895 Y13.3506
G01 X12.0894 Y12.7396
G01 X12.0881 Y12.7287
G01 X12.0687 Y12.6316
G01 X12.0655 Y12.6210
G01 X12.0608 Y12.6110
G01 X12.0039 Y12.5256
G01 X11.9995 Y12.5196
G01 X11.9946 Y12.5142
G01 X9.0558 Y9.5754
G01 X9.0474 Y9.5682
G01 X8.9637 Y9.5121
G01 X8.9573 Y9.5083
G01 X8.9507 Y9.5052
G01 X8.9438 Y9.5027
G01 X8.9366 Y9.5009
G01 X8.8413 Y9.4819
G01 X8.8322 Y9.4807
G01 X7.8944 Y9.4805
G01 X7.8182 Y9.4684
G01 X7.7263 Y9.4216
G01 X7.6534 Y9.3487
G01 X7.6066 Y9.2568
G01 X7.5945 Y9.1806
G01 X7.5945 Y7.5294
G01 X7.6066 Y7.4532
G01 X7.6534 Y7.3613
G00 Z2.0000
G00 X7.7700 Y7.5550
G01 F60.00
G01 Z-0.0550
G01 F120.00
G01 X7.7700 Y9.1587
G01 X7.7707 Y9.1697
G01 X7.7729 Y9.1843
G01 X7.7765 Y9.1985
G01 X7.7801 Y9.2090
G01 X7.7844 Y9.2191
G01 X7.7913 Y9.2321
G01 X7.7995 Y9.2444
G01 X7.8089 Y9.2557
G01 X7.8193 Y9.2661
G01 X7.8306 Y9.2755
G01 X7.8429 Y9.2837
G01 X7.8559 Y9.2906
G01 X7.8695 Y9.2962
G01 X7.8836 Y9.3005
G01 X7.8980 Y9.3034
G01 X7.9126 Y9.3048
G01 X9.0334 Y9.3050
G01 X12.2650 Y12.5366
G01 X12.2650 Y13.3250
G01 X12.2657 Y13.3397
G01 X12.2672 Y13.3506
G01 X12.2704 Y13.3650
G01 X12.2751 Y13.3790
G01 X12.2794 Y13.3891
G01 X12.2827 Y13.3957
G01 X12.2883 Y13.4052
G01 X12.2924 Y13.4114
G01 X12.3014 Y13.4230
G01 X12.3089 Y13.4311
G01 X12.3143 Y13.4361
G01 X12.3227 Y13.4433
G01 X12.3286 Y13.4476
G01 X12.3379 Y13.4537
G01 X12.3443 Y13.4573
G01 X12.3576 Y13.4636
G01 X12.3645 Y13.4662
G01 X12.3750 Y13.4696
G01 X12.3821 Y13.4714
G01 X12.3930 Y13.4734
G01 X12.4003 Y13.4743
G01 X12.4113 Y13.4750
G01 X12.6213 Y13.4750
G01 X12.5650 Y13.5088
G01 X12.5176 Y13.5437
G01 X12.5062 Y13.5530
G01 X12.4680 Y13.5876
G01 X12.4576 Y13.5980
G01 X12.4182 Y13.6418
G01 X12.3788 Y13.6950
G01 X12.3447 Y13.7518
G01 X12.3194 Y13.8050
G01 X12.3137 Y13.8186
G01 X12.2964 Y13.8671
G01 X12.2921 Y13.8812
G01 X12.2780 Y13.9383
G01 X12.2683 Y14.0038
G01 X12.2652 Y14.0626
G01 X12.2652 Y14.0774
G01 X12.2683 Y14.1362
G01 X12.2780 Y14.2017
G01 X12.2921 Y14.2588
G01 X12.2964 Y14.2729
G01 X12.3164 Y14.3283
G01 X12.3414 Y14.3816
G01 X12.3483 Y14.3946
G01 X12.3788 Y14.4450
G01 X12.4137 Y14.4924
G01 X12.4206 Y14.5010
G01 X12.4627 Y14.5473
G01 X12.5062 Y14.5870
G01 X12.5176 Y14.5963
G01 X12.5620 Y14.6292
G01 X12.5712 Y14.6352
G01 X12.6154 Y14.6617
G01 X12.6251 Y14.6670
G01 X12.6783 Y14.6922
G01 X12.6886 Y14.6963
G01 X12.7130 Y14.7050
G01 X12.6886 Y14.7137
G01 X12.6783 Y14.7178
G01 X12.6284 Y14.7414
G01 X12.6186 Y14.7465
G01 X12.5650 Y14.7788
G01 X12.5176 Y14.8137
G01 X12.5062 Y14.8230
G01 X12.4680 Y14.8576
G01 X12.4601 Y14.8653
G01 X12.4206 Y14.9090
G01 X12.4137 Y14.9176
G01 X12.3971 Y14.9400
G01 X12.1586 Y14.9400
G01 X12.1646 Y14.9255
G01 X12.2293 Y14.8283
G01 X12.2559 Y14.7789
G01 X12.2622 Y14.7656
G01 X12.2661 Y14.7552
G01 X12.2700 Y14.7410
G01 X12.2897 Y14.6422
G01 X12.2919 Y14.6276
G01 X12.2924 Y14.6203
G01 X12.2926 Y14.6092
G01 X12.2919 Y14.5982
G01 X12.2904 Y14.5873
G01 X12.2708 Y14.4883
G01 X12.2682 Y14.4776
G01 X12.2661 Y14.4706
G01 X12.2622 Y14.4602
G01 X12.1943 Y14.2962
G01 X12.1645 Y14.1464
G01 X12.1645 Y13.9936
G01 X12.1943 Y13.8438
G01 X12.2175 Y13.7875
G01 X12.2265 Y13.7625
G01 X12.2302 Y13.7488
G01 X12.2325 Y13.7349
G01 X12.2439 Y13.6384
G01 X12.2448 Y13.6274
G01 X12.2449 Y13.6164
G01 X12.2437 Y13.6017
G01 X12.2426 Y13.5944
G01 X12.2403 Y13.5836
G01 X12.2108 Y13.4795
G01 X12.2069 Y13.4692
G01 X12.2039 Y13.4625
G01 X12.1738 Y13.4034
G01 X12.1645 Y13.3447
G01 X12.1643 Y12.7359
G01 X12.1634 Y12.7249
G01 X12.1623 Y12.7177
G01 X12.1419 Y12.6151
G01 X12.1391 Y12.6045
G01 X12.1355 Y12.5940
G01 X12.1311 Y12.5839
G01 X12.1261 Y12.5741
G01 X12.1203 Y12.5647
G01 X12.0642 Y12.4809
G01 X12.0552 Y12.4693
G01 X12.0476 Y12.4612
G01 X9.1088 Y9.5224
G01 X9.1007 Y9.5148
G01 X9.0921 Y9.5079
G01 X9.0022 Y9.4477
G01 X8.9894 Y9.4405
G01 X8.9794 Y9.4359
G01 X8.9655 Y9.4309
G01 X8.9513 Y9.4273
G01 X8.8560 Y9.4084
G01 X8.8451 Y9.4066
G01 X8.8377 Y9.4059
G01 X8.8267 Y9.4055
G01 X7.9003 Y9.4055
G01 X7.8416 Y9.3962
G01 X7.7709 Y9.3602
G01 X7.7148 Y9.3041
G01 X7.6788 Y9.2334
G01 X7.6695 Y9.1747
G01 X7.6695 Y7.5353
G01 X7.6788 Y7.4766
G01 X7.7148 Y7.4059
G01 X7.7709 Y7.3498
G01 X7.8416 Y7.3138
G01 X7.9003 Y7.3045
G01 X9.5397 Y7.3045
G01 X9.5984 Y7.3138
G01 X9.6691 Y7.3498
G01 X9.7252 Y7.4059
G01 X9.7612 Y7.4766
G01 X9.7705 Y7.5353
G01 X9.7705 Y8.4617
G01 X9.7709 Y8.4727
G01 X9.7721 Y8.4837
G01 X9.7734 Y8.4910
G01 X9.7923 Y8.5863
G01 X9.7959 Y8.6005
G01 X9.8009 Y8.6144
G01 X9.8072 Y8.6277
G01 X9.8127 Y8.6372
G01 X9.8729 Y8.7271
G01 X9.8798 Y8.7357
G01 X9.8874 Y8.7438
G01 X13.0512 Y11.9076
G01 X13.0621 Y11.9175
G01 X13.0709 Y11.9242
G01 X13.1547 Y11.9803
G01 X13.1641 Y11.9861
G01 X13.1739 Y11.9911
G01 X13.1840 Y11.9955
G01 X13.1945 Y11.9991
G01 X13.2051 Y12.0019
G01 X13.3077 Y12.0223
G01 X13.3186 Y12.0238
G01 X13.3259 Y12.0243
G01 X13.9347 Y12.0245
G01 X13.9934 Y12.0338
G01 X14.0641 Y12.0698
G01 X14.1269 Y12.1326
G01 X14.1350 Y12.1402
G01 X14.1407 Y12.1448
G01 X14.1496 Y12.1513
G01 X14.2304 Y12.2053
G01 X14.2430 Y12.2128
G01 X14.2530 Y12.2177
G01 X14.2598 Y12.2205
G01 X14.2702 Y12.2241
G01 X14.2809 Y12.2269
G01 X14.3798 Y12.2466
G01 X14.3870 Y12.2479
G01 X14.3980 Y12.2491
G01 X14.4090 Y12.2495
G01 X17.0292 Y12.2495
G01 X17.1356 Y12.2707
G01 X17.2358 Y12.3122
G01 X17.3259 Y12.3724
G01 X20.2212 Y15.2676
G01 X20.2321 Y15.2775
G01 X20.2439 Y15.2863
G01 X20.3278 Y15.3423
G01 X20.3406 Y15.3495
G01 X20.3540 Y15.3555
G01 X20.3680 Y15.3601
G01 X20.3787 Y15.3627
G01 X20.4740 Y15.3816
G01 X20.4849 Y15.3834
G01 X20.4923 Y15.3841
G01 X20.5033 Y15.3845
G01 X21.6448 Y15.3845
G01 X21.6605 Y15.3857
G01 X21.7854 Y15.4220
G01 X21.8942 Y15.4864
G01 X21.9836 Y15.5758
G01 X22.0480 Y15.6846
G01 X22.0843 Y15.8095
G01 X22.0855 Y15.8252
G01 X22.0855 Y17.5448
G01 X22.0843 Y17.5605
G01 X22.0480 Y17.6854
G01 X21.9836 Y17.7942
G01 X21.8942 Y17.8836
G01 X21.7854 Y17.9480
G01 X21.6605 Y17.9843
G01 X21.6448 Y17.9855
G01 X19.9252 Y17.9855
G01 X19.9095 Y17.9843
G01 X19.7846 Y17.9480
G01 X19.6758 Y17.8836
G01 X19.5864 Y17.7942
G01 X19.5220 Y17.6854
G01 X19.4779 Y17.5335
G01 X19.4657 Y17.4932
G01 X19.4632 Y17.4861
G01 X19.4588 Y17.4756
G01 X19.4554 Y17.4689
G01 X19.4497 Y17.4590
G01 X19.3916 Y17.3721
G01 X19.3825 Y17.3605
G01 X19.3724 Y17.3498
G01 X19.3641 Y17.3425
G01 X19.3523 Y17.3337
G01 X19.2684 Y17.2777
G01 X19.2589 Y17.2722
G01 X19.2489 Y17.2673
G01 X19.2352 Y17.2620
G01 X19.2210 Y17.2581
G01 X19.1185 Y17.2377
G01 X19.1039 Y17.2359
G01 X19.0929 Y17.2355
G01 X16.0233 Y17.2355
G01 X16.0123 Y17.2359
G01 X15.9977 Y17.2377
G01 X15.8987 Y17.2573
G01 X15.8845 Y17.2609
G01 X15.8740 Y17.2645
G01 X15.8672 Y17.2673
G01 X15.8573 Y17.2722
G01 X15.8478 Y17.2777
G01 X15.7609 Y17.3358
G01 X15.7493 Y17.3448
G01 X15.7412 Y17.3524
G01 X12.2401 Y20.8535
G01 X12.2347 Y20.8592
G01 X12.2271 Y20.8682
G01 X12.1790 Y20.9344
G01 X12.1704 Y20.9476
G01 X12.1585 Y20.9706
G01 X12.0613 Y21.1044
G01 X11.9444 Y21.2213
G01 X11.8106 Y21.3185
G01 X11.6633 Y21.3935
G01 X11.5060 Y21.4446
G01 X11.3427 Y21.4705
G01 X11.1773 Y21.4705
G01 X11.0140 Y21.4446
G01 X10.8567 Y21.3935
G01 X10.7094 Y21.3185
G01 X10.5756 Y21.2213
G01 X10.4587 Y21.1044
G01 X10.3615 Y20.9706
G01 X10.2865 Y20.8233
G01 X10.2354 Y20.6660
G01 X10.2095 Y20.5027
G01 X10.2095 Y20.3373
G01 X10.2354 Y20.1740
G01 X10.2865 Y20.0167
G01 X10.3615 Y19.8694
G01 X10.4587 Y19.7356
G01 X10.5756 Y19.6187
G01 X10.7094 Y19.5215
G01 X10.8568 Y19.4465
G01 X11.0140 Y19.3954
G01 X11.1773 Y19.3695
G01 X11.3427 Y19.3695
G01 X11.5060 Y19.3954
G01 X11.6633 Y19.4465
G01 X11.6903 Y19.4602
G01 X11.7107 Y19.4697
G01 X11.7205 Y19.4738
G01 X11.7305 Y19.4771
G01 X11.7443 Y19.4806
G01 X11.8432 Y19.5002
G01 X11.8541 Y19.5017
G01 X11.8688 Y19.5024
G01 X11.8835 Y19.5017
G01 X11.8981 Y19.4995
G01 X11.9970 Y19.4798
G01 X12.0076 Y19.4770
G01 X12.0181 Y19.4734
G01 X12.0315 Y19.4674
G01 X12.0443 Y19.4602
G01 X12.1313 Y19.4021
G01 X12.1400 Y19.3954
G01 X12.1509 Y19.3855
G01 X15.2791 Y16.2574
G01 X15.3692 Y16.1972
G01 X15.4694 Y16.1557
G01 X15.5758 Y16.1345
G01 X18.5677 Y16.1345
G01 X18.5824 Y16.1338
G01 X18.5970 Y16.1316
G01 X18.6959 Y16.1119
G01 X18.7100 Y16.1080
G01 X18.7204 Y16.1041
G01 X18.7304 Y16.0995
G01 X18.7432 Y16.0923
G01 X18.8301 Y16.0342
G01 X18.8417 Y16.0252
G01 X18.8498 Y16.0176
G01 X18.8574 Y16.0095
G01 X18.8643 Y16.0009
G01 X18.9245 Y15.9110
G01 X18.9317 Y15.8982
G01 X18.9363 Y15.8882
G01 X18.9402 Y15.8778
G01 X18.9441 Y15.8637
G01 X18.9651 Y15.7575
G01 X18.9665 Y15.7429
G01 X18.9667 Y15.7318
G01 X18.9660 Y15.7208
G01 X18.9638 Y15.7062
G01 X18.9441 Y15.6073
G01 X18.9402 Y15.5932
G01 X18.9349 Y15.5794
G01 X18.9300 Y15.5695
G01 X18.9225 Y15.5569
G01 X18.8664 Y15.4731
G01 X18.8620 Y15.4671
G01 X18.8549 Y15.4587
G01 X16.8612 Y13.4648
G01 X16.8529 Y13.4575
G01 X16.8411 Y13.4487
G01 X16.7572 Y13.3927
G01 X16.7477 Y13.3872
G01 X16.7378 Y13.3823
G01 X16.7240 Y13.3770
G01 X16.7099 Y13.3731
G01 X16.6110 Y13.3534
G01 X16.5964 Y13.3512
G01 X16.5817 Y13.3505
G01 X14.5201 Y13.3505
G01 X14.5091 Y13.3512
G01 X14.4568 Y13.3564
G01 X14.4423 Y13.3589
G01 X14.4316 Y13.3617
G01 X14.4178 Y13.3667
G01 X14.3280 Y13.4039
G01 X14.3180 Y13.4085
G01 X14.3083 Y13.4138
G01 X14.2990 Y13.4198
G01 X14.2931 Y13.4242
G01 X14.2820 Y13.4338
G01 X14.2081 Y13.5077
G01 X14.2008 Y13.5160
G01 X14.1941 Y13.5248
G01 X14.1862 Y13.5372
G01 X14.1827 Y13.5437
G01 X14.1781 Y13.5538
G01 X14.1396 Y13.6469
G01 X14.1360 Y13.6574
G01 X14.1332 Y13.6681
G01 X14.1307 Y13.6826
G01 X14.1296 Y13.6972
G01 X14.1295 Y13.7981
G01 X14.1299 Y13.8091
G01 X14.1312 Y13.8201
G01 X14.1324 Y13.8273
G01 X14.1655 Y13.9936
G01 X14.1655 Y14.1464
G01 X14.1357 Y14.2962
G01 X14.0651 Y14.4671
G01 X14.0476 Y14.5243
G01 X14.0451 Y14.5351
G01 X14.0429 Y14.5496
G01 X14.0422 Y14.5643
G01 X14.0424 Y14.6688
G01 X14.0429 Y14.6762
G01 X14.0444 Y14.6871
G01 X14.0467 Y14.6979
G01 X14.0497 Y14.7085
G01 X14.0536 Y14.7189
G01 X14.0908 Y14.8086
G01 X14.0971 Y14.8219
G01 X14.1046 Y14.8346
G01 X14.1654 Y14.9255
G01 X14.1714 Y14.9400
G01 X13.9329 Y14.9400
G01 X13.9163 Y14.9176
G01 X13.9094 Y14.9090
G01 X13.8699 Y14.8653
G01 X13.8620 Y14.8576
G01 X13.8238 Y14.8230
G01 X13.8124 Y14.8137
G01 X13.7650 Y14.7788
G01 X13.7114 Y14.7465
G01 X13.7016 Y14.7414
G01 X13.6517 Y14.7178
G01 X13.6414 Y14.7137
G01 X13.6170 Y14.7050
G01 X13.6414 Y14.6963
G01 X13.6517 Y14.6922
G01 X13.7049 Y14.6670
G01 X13.7146 Y14.6617
G01 X13.7588 Y14.6352
G01 X13.7680 Y14.6292
G01 X13.8182 Y14.5918
G01 X13.8620 Y14.5524
G01 X13.8724 Y14.5420
G01 X13.9070 Y14.5038
G01 X13.9141 Y14.4953
G01 X13.9512 Y14.4450
G01 X13.9817 Y14.3946
G01 X13.9886 Y14.3816
G01 X14.0136 Y14.3283
G01 X14.0359 Y14.2659
G01 X14.0504 Y14.2089
G01 X14.0533 Y14.1944
G01 X14.0608 Y14.1435
G01 X14.0621 Y14.1325
G01 X14.0650 Y14.0700
G01 X14.0623 Y14.0112
G01 X14.0608 Y13.9965
G01 X14.0520 Y13.9383
G01 X14.0379 Y13.8812
G01 X14.0336 Y13.8671
G01 X14.0136 Y13.8117
G01 X13.9853 Y13.7518
G01 X13.9552 Y13.7012
G01 X13.9470 Y13.6890
G01 X13.9118 Y13.6418
G01 X13.8673 Y13.5927
G01 X13.8238 Y13.5530
G01 X13.8124 Y13.5437
G01 X13.7650 Y13.5088
G01 X13.7087 Y13.4750
G01 X13.9150 Y13.4750
G01 X13.9260 Y13.4746
G01 X13.9370 Y13.4734
G01 X13.9443 Y13.4721
G01 X13.9550 Y13.4696
G01 X13.9621 Y13.4674
G01 X13.9724 Y13.4636
G01 X13.9791 Y13.4606
G01 X13.9857 Y13.4573
G01 X13.9952 Y13.4517
G01 X14.0073 Y13.4433
G01 X14.0157 Y13.4361
G01 X14.0261 Y13.4257
G01 X14.0333 Y13.4173
G01 X14.0397 Y13.4083
G01 X14.0455 Y13.3989
G01 X14.0521 Y13.3858
G01 X14.0562 Y13.3755
G01 X14.0596 Y13.3650
G01 X14.0614 Y13.3579
G01 X14.0634 Y13.3470
G01 X14.0646 Y13.3360
G01 X14.0650 Y13.3250
G01 X14.0650 Y13.2501
G01 X16.7885 Y13.2501
G01 X19.5850 Y16.0466
G01 X19.5850 Y16.2349
G01 X15.6263 Y16.2349
G01 X15.5895 Y16.2367
G01 X15.5786 Y16.2379
G01 X15.5422 Y16.2435
G01 X15.5029 Y16.2532
G01 X15.4923 Y16.2565
G01 X15.4577 Y16.2691
G01 X15.4244 Y16.2847
G01 X15.4114 Y16.2916
G01 X15.3799 Y16.3107
G01 X15.3502 Y16.3325
G01 X15.3389 Y16.3418
G01 X15.3117 Y16.3667
G01 X11.9309 Y19.7475
G01 X11.8627 Y19.6856
G01 X11.7878 Y19.6301
G01 X11.7078 Y19.5822
G01 X11.6235 Y19.5423
G01 X11.5358 Y19.5109
G01 X11.4453 Y19.4883
G01 X11.3531 Y19.4746
G01 X11.2674 Y19.4702
G01 X11.2526 Y19.4702
G01 X11.1669 Y19.4746
G01 X11.0819 Y19.4870
G01 X11.0675 Y19.4899
G01 X10.9913 Y19.5089
G01 X10.9772 Y19.5132
G01 X10.8965 Y19.5423
G01 X10.8187 Y19.5789
G01 X10.8058 Y19.5858
G01 X10.7322 Y19.6301
G01 X10.6573 Y19.6856
G01 X10.5882 Y19.7482
G01 X10.5304 Y19.8118
G01 X10.5211 Y19.8231
G01 X10.4701 Y19.8922
G01 X10.4222 Y19.9722
G01 X10.3823 Y20.0565
G01 X10.3532 Y20.1372
G01 X10.3489 Y20.1513
G01 X10.3299 Y20.2275
G01 X10.3270 Y20.2419
G01 X10.3146 Y20.3269
G01 X10.3102 Y20.4126
G01 X10.3102 Y20.4274
G01 X10.3146 Y20.5131
G01 X10.3270 Y20.5981
G01 X10.3299 Y20.6125
G01 X10.3489 Y20.6887
G01 X10.3532 Y20.7028
G01 X10.3823 Y20.7835
G01 X10.4189 Y20.8613
G01 X10.4258 Y20.8742
G01 X10.4701 Y20.9478
G01 X10.5256 Y21.0227
G01 X10.5832 Y21.0864
G01 X10.5936 Y21.0968
G01 X10.6573 Y21.1544
G01 X10.7262 Y21.2057
G01 X10.7384 Y21.2138
G01 X10.8122 Y21.2578
G01 X10.8897 Y21.2947
G01 X10.8999 Y21.2991
G01 X10.9842 Y21.3291
G01 X11.0675 Y21.3501
G01 X11.0819 Y21.3530
G01 X11.1669 Y21.3654
G01 X11.2526 Y21.3698
G01 X11.2674 Y21.3698
G01 X11.3531 Y21.3654
G01 X11.4381 Y21.3530
G01 X11.4525 Y21.3501
G01 X11.5358 Y21.3291
G01 X11.6167 Y21.3003
G01 X11.6303 Y21.2947
G01 X11.7078 Y21.2578
G01 X11.7816 Y21.2138
G01 X11.7938 Y21.2057
G01 X11.8569 Y21.1589
G01 X11.8655 Y21.1520
G01 X11.9318 Y21.0918
G01 X11.9896 Y21.0282
G01 X11.9989 Y21.0169
G01 X12.0457 Y20.9538
G01 X12.0538 Y20.9416
G01 X12.0978 Y20.8678
G01 X12.1278 Y20.8049
G01 X12.1481 Y20.7922
G01 X12.1777 Y20.7703
G01 X12.1861 Y20.7632
G01 X12.2133 Y20.7383
G01 X15.8165 Y17.1351
G01 X19.5850 Y17.1352
G01 X19.5850 Y17.4850
G01 X19.5864 Y17.5169
G01 X19.5878 Y17.5315
G01 X19.5914 Y17.5558
G01 X19.5934 Y17.5666
G01 X19.6022 Y17.6011
G01 X19.6141 Y17.6347
G01 X19.6184 Y17.6448
G01 X19.6322 Y17.6736
G01 X19.6524 Y17.7072
G01 X19.6758 Y17.7388
G01 X19.6971 Y17.7625
G01 X19.7075 Y17.7729
G01 X19.7284 Y17.7918
G01 X19.7370 Y17.7987
G01 X19.7628 Y17.8176
G01 X19.7900 Y17.8341
G01 X19.7997 Y17.8395
G01 X19.8285 Y17.8531
G01 X19.8388 Y17.8572
G01 X19.8654 Y17.8667
G01 X19.8760 Y17.8697
G01 X19.8998 Y17.8757
G01 X19.9142 Y17.8786
G01 X19.9458 Y17.8831
G01 X19.9850 Y17.8850
G01 X21.5887 Y17.8850
G01 X21.6169 Y17.8836
G01 X21.6279 Y17.8827
G01 X21.6594 Y17.8780
G01 X21.6702 Y17.8757
G01 X21.7011 Y17.8678
G01 X21.7312 Y17.8572
G01 X21.7415 Y17.8531
G01 X21.7703 Y17.8395
G01 X21.7800 Y17.8341
G01 X21.8072 Y17.8176
G01 X21.8330 Y17.7987
G01 X21.8443 Y17.7894
G01 X21.8678 Y17.7678
G01 X21.8894 Y17.7443
G01 X21.8987 Y17.7330
G01 X21.9176 Y17.7072
G01 X21.9341 Y17.6800
G01 X21.9411 Y17.6670
G01 X21.9546 Y17.6381
G01 X21.9655 Y17.6081
G01 X21.9697 Y17.5940
G01 X21.9773 Y17.5630
G01 X21.9831 Y17.5242
G01 X21.9850 Y17.4850
G01 X21.9850 Y15.8850
G01 X21.9831 Y15.8458
G01 X21.9786 Y15.8142
G01 X21.9766 Y15.8034
G01 X21.9678 Y15.7689
G01 X21.9572 Y15.7388
G01 X21.9516 Y15.7252
G01 X21.9378 Y15.6964
G01 X21.9176 Y15.6628
G01 X21.8987 Y15.6370
G01 X21.8894 Y15.6257
G01 X21.8678 Y15.6022
G01 X21.8443 Y15.5806
G01 X21.8330 Y15.5713
G01 X21.8072 Y15.5524
G01 X21.7736 Y15.5322
G01 X21.7448 Y15.5184
G01 X21.7312 Y15.5128
G01 X21.7011 Y15.5022
G01 X21.6630 Y15.4927
G01 X21.6242 Y15.4869
G01 X21.5850 Y15.4850
G01 X20.2966 Y15.4850
G01 X17.2933 Y12.4817
G01 X17.2606 Y12.4520
G01 X17.2251 Y12.4257
G01 X17.1872 Y12.4030
G01 X17.1473 Y12.3841
G01 X17.1057 Y12.3692
G01 X17.0628 Y12.3585
G01 X17.0191 Y12.3520
G01 X16.9750 Y12.3499
G01 X14.0650 Y12.3498
G01 X14.0650 Y12.2750
G01 X14.0646 Y12.2640
G01 X14.0639 Y12.2566
G01 X14.0614 Y12.2421
G01 X14.0585 Y12.2315
G01 X14.0549 Y12.2210
G01 X14.0490 Y12.2076
G01 X14.0417 Y12.1948
G01 X14.0355 Y12.1856
G01 X14.0310 Y12.1798
G01 X14.0211 Y12.1689
G01 X14.0157 Y12.1639
G01 X14.0073 Y12.1567
G01 X13.9983 Y12.1503
G01 X13.9921 Y12.1463
G01 X13.9791 Y12.1394
G01 X13.9655 Y12.1338
G01 X13.9514 Y12.1295
G01 X13.9406 Y12.1272
G01 X13.9334 Y12.1261
G01 X13.9224 Y12.1252
G01 X13.9150 Y12.1250
G01 X13.1266 Y12.1250
G01 X9.6700 Y8.6684
G01 X9.6698 Y7.5476
G01 X9.6684 Y7.5330
G01 X9.6655 Y7.5186
G01 X9.6635 Y7.5115
G01 X9.6599 Y7.5010
G01 X9.6540 Y7.4876
G01 X9.6467 Y7.4748
G01 X9.6383 Y7.4627
G01 X9.6286 Y7.4516
G01 X9.6180 Y7.4414
G01 X9.6064 Y7.4324
G01 X9.5971 Y7.4263
G01 X9.5841 Y7.4194
G01 X9.5740 Y7.4151
G01 X9.5600 Y7.4104
G01 X9.5493 Y7.4079
G01 X9.5384 Y7.4061
G01 X9.5237 Y7.4050
G01 X7.9200 Y7.4050
G01 X7.9090 Y7.4054
G01 X7.8944 Y7.4072
G01 X7.8800 Y7.4104
G01 X7.8660 Y7.4151
G01 X7.8526 Y7.4210
G01 X7.8429 Y7.4263
G01 X7.8306 Y7.4345
G01 X7.8193 Y7.4439
G01 X7.8089 Y7.4543
G01 X7.7995 Y7.4656
G01 X7.7933 Y7.4748
G01 X7.7860 Y7.4876
G01 X7.7801 Y7.5010
G01 X7.7754 Y7.5150
G01 X7.7729 Y7.5257
G01 X7.7707 Y7.5403
G01 X7.7700 Y7.5550
G00 Z2.0000
G00 X7.8450 Y7.5550
G01 F60.00
G01 Z-0.0550
G01 F120.00
G01 X7.8454 Y7.5476
G01 X7.8464 Y7.5404
G01 X7.8482 Y7.5332
G01 X7.8507 Y7.5263
G01 X7.8539 Y7.5196
G01 X7.8576 Y7.5133
G01 X7.8620 Y7.5074
G01 X7.8670 Y7.5020
G01 X7.8724 Y7.4970
G01 X7.8783 Y7.4926
G01 X7.8830 Y7.4897
G01 X7.8896 Y7.4864
G01 X7.8965 Y7.4838
G01 X7.9036 Y7.4818
G01 X7.9108 Y7.4806
G01 X7.9182 Y7.4800
G01 X9.5200 Y7.4800
G01 X9.5255 Y7.4802
G01 X9.5328 Y7.4811
G01 X9.5400 Y7.4827
G01 X9.5470 Y7.4850
G01 X9.5521 Y7.4872
G01 X9.5586 Y7.4907
G01 X9.5647 Y7.4948
G01 X9.5704 Y7.4994
G01 X9.5756 Y7.5046
G01 X9.5802 Y7.5103
G01 X9.5843 Y7.5164
G01 X9.5886 Y7.5246
G01 X9.5912 Y7.5315
G01 X9.5932 Y7.5386
G01 X9.5944 Y7.5458
G01 X9.5950 Y7.5532
G01 X9.5950 Y8.6995
G01 X13.0955 Y12.2000
G01 X13.9150 Y12.2000
G01 X13.9242 Y12.2006
G01 X13.9332 Y12.2022
G01 X13.9420 Y12.2050
G01 X13.9520 Y12.2097
G01 X13.9611 Y12.2159
G01 X13.9680 Y12.2220
G01 X13.9752 Y12.2303
G01 X13.9803 Y12.2380
G01 X13.9850 Y12.2480
G01 X13.9878 Y12.2568
G01 X13.9892 Y12.2640
G01 X13.9900 Y12.2732
G01 X13.9900 Y12.4248
G01 X16.9750 Y12.4249
G01 X17.0118 Y12.4267
G01 X17.0482 Y12.4321
G01 X17.0839 Y12.4410
G01 X17.1169 Y12.4527
G01 X17.1518 Y12.4691
G01 X17.1834 Y12.4881
G01 X17.2130 Y12.5100
G01 X17.2403 Y12.5347
G01 X20.2655 Y15.5600
G01 X21.5887 Y15.5601
G01 X21.6169 Y15.5616
G01 X21.6448 Y15.5656
G01 X21.6520 Y15.5671
G01 X21.6793 Y15.5740
G01 X21.7094 Y15.5847
G01 X21.7349 Y15.5967
G01 X21.7414 Y15.6002
G01 X21.7671 Y15.6158
G01 X21.7883 Y15.6315
G01 X21.7940 Y15.6362
G01 X21.8148 Y15.6552
G01 X21.8338 Y15.6760
G01 X21.8385 Y15.6817
G01 X21.8552 Y15.7044
G01 X21.8716 Y15.7318
G01 X21.8853 Y15.7606
G01 X21.8949 Y15.7872
G01 X21.8970 Y15.7942
G01 X21.9038 Y15.8216
G01 X21.9080 Y15.8495
G01 X21.9087 Y15.8568
G01 X21.9099 Y15.8813
G01 X21.9100 Y17.4868
G01 X21.9084 Y17.5169
G01 X21.9044 Y17.5448
G01 X21.9029 Y17.5520
G01 X21.8960 Y17.5793
G01 X21.8853 Y17.6094
G01 X21.8733 Y17.6349
G01 X21.8698 Y17.6414
G01 X21.8542 Y17.6671
G01 X21.8362 Y17.6912
G01 X21.8173 Y17.7121
G01 X21.8121 Y17.7173
G01 X21.7940 Y17.7338
G01 X21.7883 Y17.7385
G01 X21.7656 Y17.7552
G01 X21.7414 Y17.7698
G01 X21.7349 Y17.7733
G01 X21.7094 Y17.7853
G01 X21.6793 Y17.7960
G01 X21.6484 Y17.8038
G01 X21.6150 Y17.8086
G01 X21.5850 Y17.8100
G01 X19.9850 Y17.8100
G01 X19.9568 Y17.8087
G01 X19.9495 Y17.8080
G01 X19.9216 Y17.8038
G01 X19.8924 Y17.7965
G01 X19.8606 Y17.7853
G01 X19.8351 Y17.7733
G01 X19.8286 Y17.7698
G01 X19.8044 Y17.7552
G01 X19.7817 Y17.7385
G01 X19.7760 Y17.7338
G01 X19.7552 Y17.7148
G01 X19.7362 Y17.6940
G01 X19.7315 Y17.6883
G01 X19.7148 Y17.6656
G01 X19.7002 Y17.6414
G01 X19.6967 Y17.6349
G01 X19.6847 Y17.6094
G01 X19.6740 Y17.5793
G01 X19.6671 Y17.5520
G01 X19.6656 Y17.5448
G01 X19.6616 Y17.5169
G01 X19.6600 Y17.4868
G01 X19.6600 Y17.0602
G01 X15.7854 Y17.0601
G01 X12.1603 Y20.6853
G01 X12.1330 Y20.7100
G01 X12.1064 Y20.7298
G01 X12.1003 Y20.7339
G01 X12.0695 Y20.7521
G01 X12.0669 Y20.7582
G01 X12.0317 Y20.8325
G01 X11.9895 Y20.9030
G01 X11.9854 Y20.9091
G01 X11.9364 Y20.9751
G01 X11.8813 Y21.0361
G01 X11.8761 Y21.0413
G01 X11.8151 Y21.0964
G01 X11.7461 Y21.1475
G01 X11.6757 Y21.1899
G01 X11.6692 Y21.1933
G01 X11.5982 Y21.2269
G01 X11.5914 Y21.2297
G01 X11.5140 Y21.2573
G01 X11.4307 Y21.2782
G01 X11.3458 Y21.2908
G01 X11.2637 Y21.2949
G01 X11.2563 Y21.2949
G01 X11.1779 Y21.2911
G01 X11.1706 Y21.2903
G01 X11.0893 Y21.2782
G01 X11.0060 Y21.2573
G01 X10.9252 Y21.2284
G01 X10.8508 Y21.1933
G01 X10.8443 Y21.1899
G01 X10.7724 Y21.1465
G01 X10.7049 Y21.0964
G01 X10.6439 Y21.0413
G01 X10.6387 Y21.0361
G01 X10.5860 Y20.9779
G01 X10.5814 Y20.9722
G01 X10.5325 Y20.9061
G01 X10.4901 Y20.8357
G01 X10.4867 Y20.8292
G01 X10.4516 Y20.7548
G01 X10.4227 Y20.6740
G01 X10.4018 Y20.5907
G01 X10.3892 Y20.5058
G01 X10.3850 Y20.4200
G01 X10.3892 Y20.3342
G01 X10.4018 Y20.2493
G01 X10.4217 Y20.1695
G01 X10.4238 Y20.1625
G01 X10.4516 Y20.0852
G01 X10.4867 Y20.0108
G01 X10.4901 Y20.0043
G01 X10.5305 Y19.9370
G01 X10.5346 Y19.9309
G01 X10.5836 Y19.8649
G01 X10.6413 Y19.8013
G01 X10.7049 Y19.7436
G01 X10.7739 Y19.6925
G01 X10.8475 Y19.6483
G01 X10.9252 Y19.6116
G01 X11.0060 Y19.5827
G01 X11.0893 Y19.5618
G01 X11.1742 Y19.5492
G01 X11.2563 Y19.5451
G01 X11.2637 Y19.5451
G01 X11.3458 Y19.5492
G01 X11.4307 Y19.5618
G01 X11.5140 Y19.5827
G01 X11.5914 Y19.6103
G01 X11.5982 Y19.6131
G01 X11.6725 Y19.6483
G01 X11.7430 Y19.6905
G01 X11.7491 Y19.6946
G01 X11.8122 Y19.7414
G01 X11.8179 Y19.7460
G01 X11.8787 Y19.8013
G01 X11.9284 Y19.8560
G01 X15.3647 Y16.4197
G01 X15.3892 Y16.3974
G01 X15.3949 Y16.3927
G01 X15.4216 Y16.3731
G01 X15.4515 Y16.3550
G01 X15.4864 Y16.3384
G01 X15.5176 Y16.3272
G01 X15.5246 Y16.3250
G01 X15.5568 Y16.3171
G01 X15.5896 Y16.3121
G01 X15.5969 Y16.3114
G01 X15.6300 Y16.3099
G01 X19.6600 Y16.3099
G01 X19.6600 Y16.0155
G01 X16.8196 Y13.1752
G01 X13.9900 Y13.1751
G01 X13.9900 Y13.3250
G01 X13.9896 Y13.3324
G01 X13.9886 Y13.3396
G01 X13.9868 Y13.3468
G01 X13.9836 Y13.3554
G01 X13.9793 Y13.3636
G01 X13.9741 Y13.3711
G01 X13.9693 Y13.3767
G01 X13.9626 Y13.3830
G01 X13.9567 Y13.3874
G01 X13.9487 Y13.3920
G01 X13.9420 Y13.3950
G01 X13.9332 Y13.3978
G01 X13.9260 Y13.3992
G01 X13.9168 Y13.4000
G01 X13.5402 Y13.4000
G01 X13.5402 Y13.4897
G01 X13.5659 Y13.4964
G01 X13.6179 Y13.5150
G01 X13.6745 Y13.5417
G01 X13.7233 Y13.5711
G01 X13.7677 Y13.6039
G01 X13.7734 Y13.6086
G01 X13.8129 Y13.6445
G01 X13.8514 Y13.6866
G01 X13.8561 Y13.6923
G01 X13.8889 Y13.7367
G01 X13.9173 Y13.7840
G01 X13.9208 Y13.7905
G01 X13.9443 Y13.8404
G01 X13.9630 Y13.8923
G01 X13.9651 Y13.8994
G01 X13.9785 Y13.9529
G01 X13.9867 Y14.0075
G01 X13.9874 Y14.0149
G01 X13.9900 Y14.0700
G01 X13.9874 Y14.1251
G01 X13.9867 Y14.1325
G01 X13.9785 Y14.1871
G01 X13.9651 Y14.2406
G01 X13.9630 Y14.2477
G01 X13.9443 Y14.2996
G01 X13.9208 Y14.3495
G01 X13.9173 Y14.3560
G01 X13.8889 Y14.4033
G01 X13.8561 Y14.4477
G01 X13.8514 Y14.4534
G01 X13.8143 Y14.4943
G01 X13.7706 Y14.5338
G01 X13.7233 Y14.5689
G01 X13.6728 Y14.5992
G01 X13.6230 Y14.6228
G01 X13.6162 Y14.6257
G01 X13.5677 Y14.6430
G01 X13.5606 Y14.6451
G01 X13.5071 Y14.6585
G01 X13.4525 Y14.6667
G01 X13.4451 Y14.6674
G01 X13.3900 Y14.6700
G01 X12.9400 Y14.6700
G01 X12.8794 Y14.6669
G01 X12.8266 Y14.6591
G01 X12.8194 Y14.6577
G01 X12.7658 Y14.6442
G01 X12.7138 Y14.6257
G01 X12.7070 Y14.6228
G01 X12.6572 Y14.5992
G01 X12.6051 Y14.5678
G01 X12.5594 Y14.5338
G01 X12.5184 Y14.4968
G01 X12.5132 Y14.4916
G01 X12.4762 Y14.4506
G01 X12.4432 Y14.4064
G01 X12.4391 Y14.4002
G01 X12.4108 Y14.3528
G01 X12.3857 Y14.2996
G01 X12.3670 Y14.2477
G01 X12.3649 Y14.2406
G01 X12.3515 Y14.1871
G01 X12.3429 Y14.1288
G01 X12.3401 Y14.0737
G01 X12.3401 Y14.0663
G01 X12.3429 Y14.0112
G01 X12.3509 Y13.9566
G01 X12.3523 Y13.9494
G01 X12.3658 Y13.8958
G01 X12.3843 Y13.8438
G01 X12.3872 Y13.8370
G01 X12.4108 Y13.7872
G01 X12.4391 Y13.7398
G01 X12.4432 Y13.7336
G01 X12.4750 Y13.6908
G01 X12.5157 Y13.6457
G01 X12.5566 Y13.6086
G01 X12.5623 Y13.6039
G01 X12.6082 Y13.5701
G01 X12.6572 Y13.5408
G01 X12.7087 Y13.5164
G01 X12.7641 Y13.4964
G01 X12.7898 Y13.4897
G01 X12.7898 Y13.4000
G01 X12.4150 Y13.4000
G01 X12.4076 Y13.3996
G01 X12.3986 Y13.3982
G01 X12.3897 Y13.3956
G01 X12.3813 Y13.3920
G01 X12.3733 Y13.3874
G01 X12.3660 Y13.3818
G01 X12.3582 Y13.3740
G01 X12.3526 Y13.3667
G01 X12.3480 Y13.3587
G01 X12.3450 Y13.3520
G01 X12.3422 Y13.3432
G01 X12.3406 Y13.3342
G01 X12.3400 Y13.3250
G01 X12.3400 Y12.5055
G01 X9.0645 Y9.2300
G01 X7.9182 Y9.2300
G01 X7.9108 Y9.2294
G01 X7.9036 Y9.2282
G01 X7.8965 Y9.2262
G01 X7.8896 Y9.2236
G01 X7.8830 Y9.2203
G01 X7.8768 Y9.2163
G01 X7.8696 Y9.2106
G01 X7.8644 Y9.2054
G01 X7.8598 Y9.1997
G01 X7.8557 Y9.1936
G01 X7.8530 Y9.1887
G01 X7.8500 Y9.1820
G01 X7.8477 Y9.1750
G01 X7.8461 Y9.1678
G01 X7.8454 Y9.1624
G01 X7.8450 Y9.1550
G01 X7.8450 Y7.5550
G00 Z2.0000
G00 X9.0450 Y14.7926
G01 F60.00
G01 Z-0.0550
G01 F120.00
G01 X9.1902 Y14.8397
G01 X9.3620 Y14.9273
G01 X9.5180 Y15.0406
G01 X9.6544 Y15.1770
G01 X9.7677 Y15.3330
G01 X9.8553 Y15.5048
G01 X9.9024 Y15.6500
G01 X9.5320 Y15.6500
G01 X9.5269 Y15.6368
G01 X9.4917 Y15.5625
G01 X9.4475 Y15.4889
G01 X9.3964 Y15.4199
G01 X9.3387 Y15.3563
G01 X9.2751 Y15.2986
G01 X9.2061 Y15.2475
G01 X9.1325 Y15.2033
G01 X9.0582 Y15.1681
G01 X9.0450 Y15.1630
G01 X9.0450 Y14.7926
G00 Z2.0000
G00 X9.1200 Y14.8958
G01 F60.00
G01 Z-0.0550
G01 F120.00
G01 X9.1614 Y14.9093
G01 X9.3227 Y14.9914
G01 X9.4692 Y15.0978
G01 X9.5972 Y15.2258
G01 X9.7036 Y15.3723
G01 X9.7857 Y15.5336
G01 X9.7992 Y15.5750
G01 X9.5806 Y15.5750
G01 X9.5611 Y15.5337
G01 X9.5560 Y15.5239
G01 X9.5138 Y15.4534
G01 X9.5078 Y15.4442
G01 X9.4544 Y15.3723
G01 X9.3918 Y15.3032
G01 X9.3227 Y15.2406
G01 X9.2508 Y15.1872
G01 X9.2416 Y15.1812
G01 X9.1711 Y15.1390
G01 X9.1613 Y15.1339
G01 X9.1200 Y15.1144
G01 X9.1200 Y14.8958
G00 Z2.0000
G00 X9.1950 Y15.0105
G01 F60.00
G01 Z-0.0550
G01 F120.00
G01 X9.2834 Y15.0556
G01 X9.4203 Y15.1550
G01 X9.5400 Y15.2747
G01 X9.6394 Y15.4116
G01 X9.6845 Y15.5000
G01 X9.6281 Y15.5000
G01 X9.6185 Y15.4822
G01 X9.5782 Y15.4149
G01 X9.5723 Y15.4055
G01 X9.5659 Y15.3965
G01 X9.5123 Y15.3247
G01 X9.5051 Y15.3164
G01 X9.4448 Y15.2502
G01 X9.3786 Y15.1899
G01 X9.3703 Y15.1827
G01 X9.2985 Y15.1291
G01 X9.2895 Y15.1227
G01 X9.2801 Y15.1168
G01 X9.2128 Y15.0765
G01 X9.1950 Y15.0669
G01 X9.1950 Y15.0105
G00 Z2.0000
G00 X7.7555 Y15.5000
G01 F60.00
G01 Z-0.0550
G01 F120.00
G01 X7.8006 Y15.4116
G01 X7.9000 Y15.2747
G01 X8.0197 Y15.1550
G01 X8.1566 Y15.0556
G01 X8.2450 Y15.0105
G01 X8.2450 Y15.0669
G01 X8.2272 Y15.0765
G01 X8.1599 Y15.1168
G01 X8.1505 Y15.1227
G01 X8.1415 Y15.1291
G01 X8.0697 Y15.1827
G01 X8.0614 Y15.1899
G01 X7.9952 Y15.2502
G01 X7.9349 Y15.3164
G01 X7.9277 Y15.3247
G01 X7.8741 Y15.3965
G01 X7.8677 Y15.4055
G01 X7.8618 Y15.4149
G01 X7.8215 Y15.4822
G01 X7.8119 Y15.5000
G01 X7.7555 Y15.5000
G00 Z2.0000
G00 X7.6408 Y15.5750
G01 F60.00
G01 Z-0.0550
G01 F120.00
G01 X7.6543 Y15.5336
G01 X7.7364 Y15.3723
G01 X7.8428 Y15.2258
G01 X7.9708 Y15.0978
G01 X8.1173 Y14.9914
G01 X8.2786 Y14.9093
G01 X8.3200 Y14.8958
G01 X8.3200 Y15.1144
G01 X8.2787 Y15.1339
G01 X8.2689 Y15.1390
G01 X8.1984 Y15.1812
G01 X8.1892 Y15.1872
G01 X8.1173 Y15.2406
G01 X8.0482 Y15.3032
G01 X7.9856 Y15.3723
G01 X7.9322 Y15.4442
G01 X7.9262 Y15.4534
G01 X7.8840 Y15.5239
G01 X7.8789 Y15.5337
G01 X7.8594 Y15.5750
G01 X7.6408 Y15.5750
G00 Z2.0000
G00 X7.5376 Y15.6500
G01 F60.00
G01 Z-0.0550
G01 F120.00
G01 X7.5847 Y15.5048
G01 X7.6723 Y15.3330
G01 X7.7856 Y15.1770
G01 X7.9220 Y15.0406
G01 X8.0780 Y14.9273
G01 X8.2498 Y14.8397
G01 X8.3950 Y14.7926
G01 X8.3950 Y15.1630
G01 X8.3818 Y15.1681
G01 X8.3075 Y15.2033
G01 X8.2339 Y15.2475
G01 X8.1649 Y15.2986
G01 X8.1013 Y15.3563
G01 X8.0436 Y15.4199
G01 X7.9925 Y15.4889
G01 X7.9483 Y15.5625
G01 X7.9131 Y15.6368
G01 X7.9080 Y15.6500
G01 X7.5376 Y15.6500
G00 Z2.0000
G00 X7.5376 Y16.3000
G01 F60.00
G01 Z-0.0550
G01 F120.00
G01 X7.9080 Y16.3000
G01 X7.9131 Y16.3132
G01 X7.9483 Y16.3875
G01 X7.9925 Y16.4611
G01 X8.0436 Y16.5301
G01 X8.1013 Y16.5937
G01 X8.1649 Y16.6514
G01 X8.2339 Y16.7025
G01 X8.3075 Y16.7467
G01 X8.3818 Y16.7819
G01 X8.3950 Y16.7870
G01 X8.3950 Y17.1574
G01 X8.2498 Y17.1103
G01 X8.0780 Y17.0227
G01 X7.9220 Y16.9094
G01 X7.7856 Y16.7730
G01 X7.6723 Y16.6170
G01 X7.5847 Y16.4452
G01 X7.5376 Y16.3000
G00 Z2.0000
G00 X7.6408 Y16.3750
G01 F60.00
G01 Z-0.0550
G01 F120.00
G01 X7.8594 Y16.3750
G01 X7.8789 Y16.4163
G01 X7.8840 Y16.4261
G01 X7.9262 Y16.4966
G01 X7.9322 Y16.5058
G01 X7.9856 Y16.5777
G01 X8.0482 Y16.6468
G01 X8.1173 Y16.7094
G01 X8.1892 Y16.7628
G01 X8.1984 Y16.7688
G01 X8.2689 Y16.8110
G01 X8.2787 Y16.8161
G01 X8.3200 Y16.8356
G01 X8.3200 Y17.0542
G01 X8.2786 Y17.0407
G01 X8.1173 Y16.9586
G01 X7.9708 Y16.8522
G01 X7.8428 Y16.7242
G01 X7.7364 Y16.5777
G01 X7.6543 Y16.4164
G01 X7.6408 Y16.3750
G00 Z2.0000
G00 X7.8119 Y16.4500
G01 F60.00
G01 Z-0.0550
G01 F120.00
G01 X7.8215 Y16.4678
G01 X7.8618 Y16.5351
G01 X7.8677 Y16.5445
G01 X7.8741 Y16.5535
G01 X7.9277 Y16.6253
G01 X7.9349 Y16.6336
G01 X7.9952 Y16.6998
G01 X8.0614 Y16.7601
G01 X8.0697 Y16.7673
G01 X8.1415 Y16.8209
G01 X8.1505 Y16.8273
G01 X8.1599 Y16.8332
G01 X8.2272 Y16.8735
G01 X8.2450 Y16.8831
G01 X8.2450 Y16.9395
G01 X8.1566 Y16.8944
G01 X8.0197 Y16.7950
G01 X7.9000 Y16.6753
G01 X7.8006 Y16.5384
G01 X7.7555 Y16.4500
G01 X7.8119 Y16.4500
G00 Z2.0000
G00 X9.0450 Y16.7870
G01 F60.00
G01 Z-0.0550
G01 F120.00
G01 X9.0582 Y16.7819
G01 X9.1325 Y16.7467
G01 X9.2061 Y16.7025
G01 X9.2751 Y16.6514
G01 X9.3387 Y16.5937
G01 X9.3964 Y16.5301
G01 X9.4475 Y16.4611
G01 X9.4917 Y16.3875
G01 X9.5269 Y16.3132
G01 X9.5320 Y16.3000
G01 X9.9024 Y16.3000
G01 X9.8553 Y16.4452
G01 X9.7677 Y16.6170
G01 X9.6544 Y16.7730
G01 X9.5180 Y16.9094
G01 X9.3620 Y17.0227
G01 X9.1902 Y17.1103
G01 X9.0450 Y17.1574
G01 X9.0450 Y16.7870
G00 Z2.0000
G00 X9.1200 Y16.8356
G01 F60.00
G01 Z-0.0550
G01 F120.00
G01 X9.1613 Y16.8161
G01 X9.1711 Y16.8110
G01 X9.2416 Y16.7688
G01 X9.2508 Y16.7628
G01 X9.3227 Y16.7094
G01 X9.3918 Y16.6468
G01 X9.4544 Y16.5777
G01 X9.5078 Y16.5058
G01 X9.5138 Y16.4966
G01 X9.5560 Y16.4261
G01 X9.5611 Y16.4163
G01 X9.5806 Y16.3750
G01 X9.7992 Y16.3750
G01 X9.7857 Y16.4164
G01 X9.7036 Y16.5777
G01 X9.5972 Y16.7242
G01 X9.4692 Y16.8522
G01 X9.3227 Y16.9586
G01 X9.1614 Y17.0407
G01 X9.1200 Y17.0542
G01 X9.1200 Y16.8356
G00 Z2.0000
G00 X9.1950 Y16.8831
G01 F60.00
G01 Z-0.0550
G01 F120.00
G01 X9.2128 Y16.8735
G01 X9.2801 Y16.8332
G01 X9.2895 Y16.8273
G01 X9.2985 Y16.8209
G01 X9.3703 Y16.7673
G01 X9.3786 Y16.7601
G01 X9.4448 Y16.6998
G01 X9.5051 Y16.6336
G01 X9.5123 Y16.6253
G01 X9.5659 Y16.5535
G01 X9.5723 Y16.5445
G01 X9.5782 Y16.5351
G01 X9.6185 Y16.4678
G01 X9.6281 Y16.4500
G01 X9.6845 Y16.4500
G01 X9.6394 Y16.5384
G01 X9.5400 Y16.6753
G01 X9.4203 Y16.7950
G01 X9.2834 Y16.8944
G01 X9.1950 Y16.9395
G01 X9.1950 Y16.8831
G00 Z2.0000
G00 X12.0463 Y15.6650
G01 F60.00
G01 Z-0.0550
G01 F120.00
G01 X12.4360 Y15.6650
G01 X12.4422 Y15.6749
G01 X12.4762 Y15.7206
G01 X12.5157 Y15.7643
G01 X12.5594 Y15.8038
G01 X12.6067 Y15.8389
G01 X12.6572 Y15.8692
G01 X12.7121 Y15.8950
G01 X12.7676 Y15.9147
G01 X12.8211 Y15.9281
G01 X12.8400 Y15.9311
G01 X12.8400 Y16.2887
G01 X12.6629 Y16.2535
G01 X12.4900 Y16.1819
G01 X12.3344 Y16.0779
G01 X12.2021 Y15.9456
G01 X12.0981 Y15.7900
G01 X12.0463 Y15.6650
G00 Z2.0000
G00 X12.1586 Y15.7400
G01 F60.00
G01 Z-0.0550
G01 F120.00
G01 X12.3971 Y15.7400
G01 X12.4137 Y15.7624
G01 X12.4206 Y15.7710
G01 X12.4576 Y15.8120
G01 X12.4653 Y15.8199
G01 X12.5118 Y15.8618
G01 X12.5650 Y15.9012
G01 X12.6218 Y15.9353
G01 X12.6783 Y15.9622
G01 X12.6886 Y15.9663
G01 X12.7405 Y15.9848
G01 X12.7650 Y15.9914
G01 X12.7650 Y16.1973
G01 X12.6848 Y16.1814
G01 X12.5255 Y16.1154
G01 X12.3822 Y16.0197
G01 X12.2603 Y15.8978
G01 X12.1646 Y15.7545
G01 X12.1586 Y15.7400
G00 Z2.0000
G00 X12.2952 Y15.8150
G01 F60.00
G01 Z-0.0550
G01 F120.00
G01 X12.3596 Y15.8150
G01 X12.3675 Y15.8242
G01 X12.4021 Y15.8623
G01 X12.4097 Y15.8703
G01 X12.4177 Y15.8779
G01 X12.4642 Y15.9198
G01 X12.5188 Y15.9605
G01 X12.5327 Y15.9695
G01 X12.5768 Y15.9960
G01 X12.5914 Y16.0040
G01 X12.6479 Y16.0307
G01 X12.6581 Y16.0350
G01 X12.6900 Y16.0464
G01 X12.6900 Y16.1024
G01 X12.5611 Y16.0490
G01 X12.4300 Y15.9614
G01 X12.3186 Y15.8500
G01 X12.2952 Y15.8150
G00 Z2.0000
G00 X12.3581 Y14.5432
G01 F60.00
G01 Z-0.0550
G01 F120.00
G01 X12.3675 Y14.5542
G01 X12.4097 Y14.6003
G01 X12.4600 Y14.6462
G01 X12.4729 Y14.6566
G01 X12.5188 Y14.6905
G01 X12.5280 Y14.6966
G01 X12.5418 Y14.7050
G01 X12.5280 Y14.7134
G01 X12.5188 Y14.7195
G01 X12.4729 Y14.7534
G01 X12.4600 Y14.7638
G01 X12.4097 Y14.8097
G01 X12.3675 Y14.8558
G01 X12.3596 Y14.8650
G01 X12.2947 Y14.8650
G01 X12.3246 Y14.8093
G01 X12.3315 Y14.7943
G01 X12.3373 Y14.7788
G01 X12.3405 Y14.7682
G01 X12.3432 Y14.7575
G01 X12.3633 Y14.6568
G01 X12.3659 Y14.6404
G01 X12.3670 Y14.6294
G01 X12.3675 Y14.6184
G01 X12.3673 Y14.6019
G01 X12.3665 Y14.5908
G01 X12.3652 Y14.5799
G01 X12.3581 Y14.5432
G00 Z2.0000
G00 X12.2998 Y13.5183
G01 F60.00
G01 Z-0.0550
G01 F120.00
G01 X12.3138 Y13.5260
G01 X12.3238 Y13.5307
G01 X12.3392 Y13.5368
G01 X12.3497 Y13.5403
G01 X12.3657 Y13.5445
G01 X12.3765 Y13.5467
G01 X12.3875 Y13.5483
G01 X12.4004 Y13.5495
G01 X12.3602 Y13.5942
G01 X12.3534 Y13.6029
G01 X12.3179 Y13.6511
G01 X12.3194 Y13.6362
G01 X12.3199 Y13.6197
G01 X12.3196 Y13.6086
G01 X12.3181 Y13.5921
G01 X12.3154 Y13.5758
G01 X12.3129 Y13.5650
G01 X12.2998 Y13.5183
G00 Z2.0000
G00 X14.0545 Y13.7225
G01 F60.00
G01 Z-0.0550
G01 F120.00
G01 X14.0460 Y13.7068
G01 X14.0195 Y13.6627
G01 X14.0105 Y13.6488
G01 X13.9698 Y13.5942
G01 X13.9296 Y13.5495
G01 X13.9480 Y13.5476
G01 X13.9589 Y13.5457
G01 X13.9697 Y13.5433
G01 X13.9803 Y13.5403
G01 X13.9908 Y13.5368
G01 X14.0011 Y13.5329
G01 X14.0112 Y13.5284
G01 X14.0211 Y13.5234
G01 X14.0307 Y13.5180
G01 X14.0400 Y13.5121
G01 X14.0490 Y13.5057
G01 X14.0577 Y13.4989
G01 X14.0661 Y13.4917
G01 X14.0780 Y13.4801
G01 X14.0854 Y13.4720
G01 X14.0924 Y13.4634
G01 X14.0990 Y13.4546
G01 X14.1051 Y13.4454
G01 X14.1134 Y13.4311
G01 X14.1184 Y13.4212
G01 X14.1229 Y13.4111
G01 X14.1268 Y13.4008
G01 X14.1303 Y13.3903
G01 X14.1333 Y13.3797
G01 X14.1357 Y13.3689
G01 X14.1376 Y13.3580
G01 X14.1389 Y13.3471
G01 X14.1397 Y13.3360
G01 X14.1400 Y13.3251
G01 X14.3221 Y13.3251
G01 X14.2942 Y13.3368
G01 X14.2794 Y13.3440
G01 X14.2697 Y13.3495
G01 X14.2604 Y13.3554
G01 X14.2514 Y13.3617
G01 X14.2427 Y13.3685
G01 X14.2343 Y13.3758
G01 X14.2263 Y13.3834
G01 X14.1538 Y13.4560
G01 X14.1428 Y13.4684
G01 X14.1360 Y13.4771
G01 X14.1296 Y13.4862
G01 X14.1210 Y13.5003
G01 X14.1157 Y13.5100
G01 X14.1110 Y13.5200
G01 X14.0717 Y13.6148
G01 X14.0659 Y13.6303
G01 X14.0627 Y13.6409
G01 X14.0600 Y13.6516
G01 X14.0579 Y13.6625
G01 X14.0562 Y13.6734
G01 X14.0552 Y13.6844
G01 X14.0546 Y13.6954
G01 X14.0545 Y13.7225
G00 Z2.0000
G00 X13.7882 Y14.7050
G01 F60.00
G01 Z-0.0550
G01 F120.00
G01 X13.8020 Y14.6966
G01 X13.8112 Y14.6905
G01 X13.8571 Y14.6566
G01 X13.8700 Y14.6462
G01 X13.9203 Y14.6003
G01 X13.9279 Y14.5923
G01 X13.9678 Y14.5482
G01 X13.9672 Y14.5643
G01 X13.9672 Y14.6670
G01 X13.9678 Y14.6780
G01 X13.9689 Y14.6890
G01 X13.9705 Y14.6999
G01 X13.9726 Y14.7108
G01 X13.9753 Y14.7215
G01 X13.9785 Y14.7320
G01 X13.9843 Y14.7476
G01 X14.0237 Y14.8424
G01 X14.0284 Y14.8524
G01 X14.0353 Y14.8650
G01 X13.9704 Y14.8650
G01 X13.9625 Y14.8558
G01 X13.9203 Y14.8097
G01 X13.8700 Y14.7638
G01 X13.8571 Y14.7534
G01 X13.8112 Y14.7195
G01 X13.8020 Y14.7134
G01 X13.7882 Y14.7050
G00 Z2.0000
G00 X13.6400 Y16.1024
G01 F60.00
G01 Z-0.0550
G01 F120.00
G01 X13.6400 Y16.0464
G01 X13.6719 Y16.0350
G01 X13.6821 Y16.0307
G01 X13.7386 Y16.0040
G01 X13.7532 Y15.9960
G01 X13.7973 Y15.9695
G01 X13.8112 Y15.9605
G01 X13.8658 Y15.9198
G01 X13.9123 Y15.8779
G01 X13.9203 Y15.8703
G01 X13.9279 Y15.8623
G01 X13.9625 Y15.8242
G01 X13.9704 Y15.8150
G01 X14.0348 Y15.8150
G01 X14.0114 Y15.8500
G01 X13.9000 Y15.9614
G01 X13.7689 Y16.0490
G01 X13.6400 Y16.1024
G00 Z2.0000
G00 X13.5650 Y16.1973
G01 F60.00
G01 Z-0.0550
G01 F120.00
G01 X13.5650 Y15.9914
G01 X13.5895 Y15.9848
G01 X13.6414 Y15.9663
G01 X13.6517 Y15.9622
G01 X13.7082 Y15.9353
G01 X13.7650 Y15.9012
G01 X13.8182 Y15.8618
G01 X13.8647 Y15.8199
G01 X13.8724 Y15.8120
G01 X13.9094 Y15.7710
G01 X13.9163 Y15.7624
G01 X13.9329 Y15.7400
G01 X14.1714 Y15.7400
G01 X14.1654 Y15.7545
G01 X14.0697 Y15.8978
G01 X13.9478 Y16.0197
G01 X13.8045 Y16.1154
G01 X13.6452 Y16.1814
G01 X13.5650 Y16.1973
G00 Z2.0000
G00 X13.4900 Y16.2887
G01 F60.00
G01 Z-0.0550
G01 F120.00
G01 X13.4900 Y15.9311
G01 X13.5089 Y15.9281
G01 X13.5624 Y15.9147
G01 X13.6179 Y15.8950
G01 X13.6728 Y15.8692
G01 X13.7233 Y15.8389
G01 X13.7706 Y15.8038
G01 X13.8143 Y15.7643
G01 X13.8538 Y15.7206
G01 X13.8878 Y15.6749
G01 X13.8940 Y15.6650
G01 X14.2837 Y15.6650
G01 X14.2319 Y15.7900
G01 X14.1279 Y15.9456
G01 X13.9956 Y16.0779
G01 X13.8400 Y16.1819
G01 X13.6671 Y16.2535
G01 X13.4900 Y16.2887
G00 Z2.0000
G00 X12.0213 Y19.5510
G01 F60.00
G01 Z-0.0550
G01 F120.00
G01 X11.9285 Y19.6438
G01 X11.9145 Y19.6312
G01 X11.9059 Y19.6242
G01 X11.8405 Y19.5756
G01 X11.8523 Y19.5768
G01 X11.8688 Y19.5774
G01 X11.8854 Y19.5768
G01 X11.9018 Y19.5750
G01 X12.0080 Y19.5541
G01 X12.0213 Y19.5510
G00 Z2.0000
G00 X8.0637 Y21.5610
G01 F60.00
G01 Z-0.0550
G01 F120.00
G01 X7.9751 Y21.4725
G01 X7.9752 Y21.2991
G01 X8.0195 Y21.2723
G01 X8.0705 Y21.2348
G01 X8.0660 Y21.2480
G01 X8.0618 Y21.2640
G01 X8.0417 Y21.3647
G01 X8.0398 Y21.3755
G01 X8.0384 Y21.3865
G01 X8.0374 Y21.4030
G01 X8.0374 Y21.4141
G01 X8.0380 Y21.4251
G01 X8.0390 Y21.4361
G01 X8.0407 Y21.4470
G01 X8.0606 Y21.5477
G01 X8.0637 Y21.5610
G00 Z2.0000
G00 X7.0749 Y21.2094
G01 F60.00
G01 Z-0.0550
G01 F120.00
G01 X7.0359 Y21.1908
G01 X6.9654 Y21.1485
G01 X6.8963 Y21.0975
G01 X6.8313 Y21.0387
G01 X6.7748 Y20.9765
G01 X6.7225 Y20.9061
G01 X6.6783 Y20.8325
G01 X6.6416 Y20.7548
G01 X6.6132 Y20.6758
G01 X6.5918 Y20.5907
G01 X6.5792 Y20.5058
G01 X6.5750 Y20.4200
G01 X6.5792 Y20.3342
G01 X6.5918 Y20.2493
G01 X6.6127 Y20.1660
G01 X6.6416 Y20.0852
G01 X6.6775 Y20.0092
G01 X6.7225 Y19.9339
G01 X6.7736 Y19.8649
G01 X6.8313 Y19.8013
G01 X6.8949 Y19.7436
G01 X6.9639 Y19.6925
G01 X7.0375 Y19.6483
G01 X7.1152 Y19.6116
G01 X7.1960 Y19.5827
G01 X7.2793 Y19.5618
G01 X7.3642 Y19.5492
G01 X7.4500 Y19.5450
G01 X7.5358 Y19.5492
G01 X7.6207 Y19.5618
G01 X7.7040 Y19.5827
G01 X7.7848 Y19.6116
G01 X7.8608 Y19.6475
G01 X7.9330 Y19.6905
G01 X7.9391 Y19.6946
G01 X8.0051 Y19.7436
G01 X8.0687 Y19.8013
G01 X8.1240 Y19.8621
G01 X8.1286 Y19.8678
G01 X8.1775 Y19.9339
G01 X8.2199 Y20.0043
G01 X8.2233 Y20.0108
G01 X8.2584 Y20.0852
G01 X8.2862 Y20.1625
G01 X8.2883 Y20.1695
G01 X8.3082 Y20.2493
G01 X8.3203 Y20.3306
G01 X8.3211 Y20.3379
G01 X8.3250 Y20.4218
G01 X8.3208 Y20.5058
G01 X8.3088 Y20.5871
G01 X8.3074 Y20.5943
G01 X8.2873 Y20.6740
G01 X8.2597 Y20.7514
G01 X8.2569 Y20.7582
G01 X8.2217 Y20.8325
G01 X8.1785 Y20.9046
G01 X8.1286 Y20.9722
G01 X8.1240 Y20.9779
G01 X8.0687 Y21.0387
G01 X8.0065 Y21.0952
G01 X7.9346 Y21.1485
G01 X7.8641 Y21.1908
G01 X7.8252 Y21.2094
G01 X7.8251 Y21.5346
G01 X11.4154 Y25.1248
G01 X20.7850 Y25.1249
G01 X20.8236 Y25.1269
G01 X20.8582 Y25.1321
G01 X20.8904 Y25.1400
G01 X20.8974 Y25.1422
G01 X20.9251 Y25.1521
G01 X20.9319 Y25.1549
G01 X20.9618 Y25.1691
G01 X20.9934 Y25.1881
G01 X21.0230 Y25.2100
G01 X21.0476 Y25.2322
G01 X22.3203 Y26.5047
G01 X22.3450 Y26.5320
G01 X22.3669 Y26.5616
G01 X22.3840 Y26.5900
G01 X22.3875 Y26.5964
G01 X22.4001 Y26.6231
G01 X22.4029 Y26.6299
G01 X22.4140 Y26.6611
G01 X22.4229 Y26.6968
G01 X22.4283 Y26.7332
G01 X22.4301 Y26.7682
G01 X22.4281 Y26.8086
G01 X22.4233 Y26.8414
G01 X22.4201 Y26.8547
G01 X22.4201 Y29.1656
G01 X22.4591 Y29.1842
G01 X22.5296 Y29.2265
G01 X22.6015 Y29.2798
G01 X22.6637 Y29.3363
G01 X22.7190 Y29.3971
G01 X22.7236 Y29.4028
G01 X22.7735 Y29.4704
G01 X22.8167 Y29.5425
G01 X22.8519 Y29.6168
G01 X22.8547 Y29.6236
G01 X22.8823 Y29.7010
G01 X22.9024 Y29.7807
G01 X22.9038 Y29.7879
G01 X22.9158 Y29.8692
G01 X22.9200 Y29.9532
G01 X22.9161 Y30.0371
G01 X22.9153 Y30.0444
G01 X22.9032 Y30.1257
G01 X22.8823 Y30.2090
G01 X22.8547 Y30.2864
G01 X22.8519 Y30.2932
G01 X22.8167 Y30.3675
G01 X22.7735 Y30.4396
G01 X22.7236 Y30.5072
G01 X22.7190 Y30.5129
G01 X22.6637 Y30.5737
G01 X22.6015 Y30.6302
G01 X22.5296 Y30.6835
G01 X22.4591 Y30.7258
G01 X22.4202 Y30.7444
G01 X22.4201 Y31.1303
G01 X22.4233 Y31.1436
G01 X22.4281 Y31.1764
G01 X22.4301 Y31.2150
G01 X22.4301 Y38.6806
G01 X22.4691 Y38.6992
G01 X22.5396 Y38.7415
G01 X22.6115 Y38.7948
G01 X22.6737 Y38.8513
G01 X22.7290 Y38.9121
G01 X22.7336 Y38.9178
G01 X22.7835 Y38.9854
G01 X22.8267 Y39.0575
G01 X22.8619 Y39.1318
G01 X22.8647 Y39.1386
G01 X22.8923 Y39.2160
G01 X22.9124 Y39.2957
G01 X22.9138 Y39.3029
G01 X22.9258 Y39.3842
G01 X22.9300 Y39.4682
G01 X22.9258 Y39.5558
G01 X22.9132 Y39.6407
G01 X22.8923 Y39.7240
G01 X22.8647 Y39.8014
G01 X22.8619 Y39.8082
G01 X22.8283 Y39.8792
G01 X22.8249 Y39.8857
G01 X22.7825 Y39.9561
G01 X22.7336 Y40.0222
G01 X22.7290 Y40.0279
G01 X22.6737 Y40.0887
G01 X22.6101 Y40.1464
G01 X22.5441 Y40.1954
G01 X22.5380 Y40.1995
G01 X22.4675 Y40.2417
G01 X22.3932 Y40.2769
G01 X22.3864 Y40.2797
G01 X22.3090 Y40.3073
G01 X22.2293 Y40.3274
G01 X22.2221 Y40.3288
G01 X22.1408 Y40.3408
G01 X22.0587 Y40.3449
G01 X22.0513 Y40.3449
G01 X21.9692 Y40.3408
G01 X21.8843 Y40.3282
G01 X21.8045 Y40.3083
G01 X21.7975 Y40.3062
G01 X21.7202 Y40.2784
G01 X21.6458 Y40.2433
G01 X21.6393 Y40.2399
G01 X21.5689 Y40.1975
G01 X21.4999 Y40.1464
G01 X21.4389 Y40.0913
G01 X21.4337 Y40.0861
G01 X21.3786 Y40.0251
G01 X21.3296 Y39.9591
G01 X21.3255 Y39.9530
G01 X21.2833 Y39.8825
G01 X21.2481 Y39.8082
G01 X21.2453 Y39.8014
G01 X21.2177 Y39.7240
G01 X21.1976 Y39.6443
G01 X21.1962 Y39.6371
G01 X21.1841 Y39.5539
G01 X21.1800 Y39.4700
G01 X21.1839 Y39.3879
G01 X21.1847 Y39.3806
G01 X21.1968 Y39.2993
G01 X21.2177 Y39.2160
G01 X21.2453 Y39.1386
G01 X21.2481 Y39.1318
G01 X21.2842 Y39.0559
G01 X21.3275 Y38.9839
G01 X21.3764 Y38.9178
G01 X21.3810 Y38.9121
G01 X21.4376 Y38.8500
G01 X21.4999 Y38.7936
G01 X21.5674 Y38.7435
G01 X21.6409 Y38.6992
G01 X21.6798 Y38.6806
G01 X21.6799 Y31.2897
G01 X21.6767 Y31.2764
G01 X21.6719 Y31.2436
G01 X21.6699 Y31.2068
G01 X21.6699 Y30.7444
G01 X21.6309 Y30.7258
G01 X21.5604 Y30.6835
G01 X21.4885 Y30.6302
G01 X21.4263 Y30.5737
G01 X21.3710 Y30.5129
G01 X21.3664 Y30.5072
G01 X21.3165 Y30.4396
G01 X21.2733 Y30.3675
G01 X21.2381 Y30.2932
G01 X21.2353 Y30.2864
G01 X21.2077 Y30.2090
G01 X21.1876 Y30.1293
G01 X21.1862 Y30.1221
G01 X21.1742 Y30.0408
G01 X21.1700 Y29.9550
G01 X21.1742 Y29.8692
G01 X21.1862 Y29.7879
G01 X21.1876 Y29.7807
G01 X21.2077 Y29.7010
G01 X21.2353 Y29.6236
G01 X21.2381 Y29.6168
G01 X21.2733 Y29.5425
G01 X21.3165 Y29.4704
G01 X21.3664 Y29.4028
G01 X21.3710 Y29.3971
G01 X21.4263 Y29.3363
G01 X21.4885 Y29.2798
G01 X21.5604 Y29.2265
G01 X21.6309 Y29.1842
G01 X21.6698 Y29.1656
G01 X21.6699 Y26.9154
G01 X20.6296 Y25.8752
G01 X11.2600 Y25.8751
G01 X11.2232 Y25.8733
G01 X11.1868 Y25.8679
G01 X11.1511 Y25.8590
G01 X11.1181 Y25.8473
G01 X11.0832 Y25.8309
G01 X11.0516 Y25.8119
G01 X11.0220 Y25.7900
G01 X10.9947 Y25.7653
G01 X7.1847 Y21.9553
G01 X7.1612 Y21.9294
G01 X7.1402 Y21.9014
G01 X7.1361 Y21.8953
G01 X7.1191 Y21.8668
G01 X7.1034 Y21.8336
G01 X7.0922 Y21.8024
G01 X7.0900 Y21.7954
G01 X7.0821 Y21.7632
G01 X7.0769 Y21.7286
G01 X7.0749 Y21.6900
G01 X7.0749 Y21.2094
G00 Z2.0000
G00 X6.9999 Y21.2565
G01 F60.00
G01 Z-0.0550
G01 F120.00
G01 X6.9222 Y21.2099
G01 X6.8473 Y21.1544
G01 X6.7782 Y21.0918
G01 X6.7156 Y21.0227
G01 X6.6601 Y20.9478
G01 X6.6122 Y20.8678
G01 X6.5723 Y20.7835
G01 X6.5409 Y20.6958
G01 X6.5183 Y20.6053
G01 X6.5046 Y20.5131
G01 X6.5000 Y20.4200
G01 X6.5046 Y20.3269
G01 X6.5183 Y20.2347
G01 X6.5409 Y20.1442
G01 X6.5723 Y20.0565
G01 X6.6122 Y19.9722
G01 X6.6601 Y19.8922
G01 X6.7156 Y19.8173
G01 X6.7782 Y19.7482
G01 X6.8473 Y19.6856
G01 X6.9222 Y19.6301
G01 X7.0022 Y19.5822
G01 X7.0865 Y19.5423
G01 X7.1742 Y19.5109
G01 X7.2647 Y19.4883
G01 X7.3569 Y19.4746
G01 X7.4500 Y19.4700
G01 X7.5431 Y19.4746
G01 X7.6353 Y19.4883
G01 X7.7258 Y19.5109
G01 X7.8135 Y19.5423
G01 X7.8978 Y19.5822
G01 X7.9778 Y19.6301
G01 X8.0469 Y19.6811
G01 X8.0582 Y19.6904
G01 X8.1218 Y19.7482
G01 X8.1796 Y19.8118
G01 X8.1889 Y19.8231
G01 X8.2399 Y19.8922
G01 X8.2842 Y19.9658
G01 X8.2911 Y19.9787
G01 X8.3277 Y20.0565
G01 X8.3568 Y20.1372
G01 X8.3611 Y20.1513
G01 X8.3817 Y20.2347
G01 X8.3945 Y20.3196
G01 X8.3960 Y20.3342
G01 X8.4000 Y20.4200
G01 X8.3960 Y20.5058
G01 X8.3945 Y20.5204
G01 X8.3817 Y20.6053
G01 X8.3611 Y20.6887
G01 X8.3568 Y20.7028
G01 X8.3277 Y20.7835
G01 X8.2911 Y20.8613
G01 X8.2842 Y20.8742
G01 X8.2399 Y20.9478
G01 X8.1889 Y21.0169
G01 X8.1796 Y21.0282
G01 X8.1218 Y21.0918
G01 X8.0582 Y21.1496
G01 X8.0469 Y21.1589
G01 X7.9778 Y21.2099
G01 X7.9002 Y21.2565
G01 X7.9001 Y21.5035
G01 X11.4465 Y25.0499
G01 X20.7850 Y25.0499
G01 X20.8218 Y25.0515
G01 X20.8328 Y25.0524
G01 X20.8728 Y25.0585
G01 X20.9121 Y25.0682
G01 X20.9227 Y25.0715
G01 X20.9504 Y25.0815
G01 X20.9640 Y25.0871
G01 X20.9972 Y25.1030
G01 X21.0351 Y25.1257
G01 X21.0706 Y25.1520
G01 X21.0980 Y25.1766
G01 X22.3733 Y26.4517
G01 X22.4030 Y26.4844
G01 X22.4293 Y26.5199
G01 X22.4484 Y26.5514
G01 X22.4553 Y26.5644
G01 X22.4694 Y26.5944
G01 X22.4735 Y26.6046
G01 X22.4858 Y26.6393
G01 X22.4965 Y26.6822
G01 X22.5030 Y26.7259
G01 X22.5051 Y26.7663
G01 X22.5050 Y26.7774
G01 X22.5030 Y26.8141
G01 X22.4978 Y26.8506
G01 X22.4951 Y26.8639
G01 X22.4951 Y29.1185
G01 X22.5666 Y29.1612
G01 X22.5788 Y29.1693
G01 X22.6477 Y29.2206
G01 X22.7114 Y29.2782
G01 X22.7218 Y29.2886
G01 X22.7794 Y29.3523
G01 X22.8307 Y29.4212
G01 X22.8388 Y29.4334
G01 X22.8828 Y29.5072
G01 X22.9197 Y29.5847
G01 X22.9253 Y29.5983
G01 X22.9541 Y29.6792
G01 X22.9751 Y29.7625
G01 X22.9780 Y29.7769
G01 X22.9904 Y29.8619
G01 X22.9950 Y29.9513
G01 X22.9948 Y29.9624
G01 X22.9910 Y30.0408
G01 X22.9895 Y30.0554
G01 X22.9767 Y30.1403
G01 X22.9561 Y30.2237
G01 X22.9518 Y30.2378
G01 X22.9227 Y30.3185
G01 X22.8861 Y30.3963
G01 X22.8792 Y30.4092
G01 X22.8349 Y30.4828
G01 X22.7839 Y30.5519
G01 X22.7746 Y30.5632
G01 X22.7168 Y30.6268
G01 X22.6532 Y30.6846
G01 X22.6419 Y30.6939
G01 X22.5728 Y30.7449
G01 X22.4952 Y30.7915
G01 X22.4951 Y31.1211
G01 X22.4978 Y31.1344
G01 X22.5030 Y31.1709
G01 X22.5051 Y31.2150
G01 X22.5051 Y38.6335
G01 X22.5766 Y38.6762
G01 X22.5888 Y38.6843
G01 X22.6577 Y38.7356
G01 X22.7214 Y38.7932
G01 X22.7318 Y38.8036
G01 X22.7894 Y38.8673
G01 X22.8407 Y38.9362
G01 X22.8488 Y38.9484
G01 X22.8928 Y39.0222
G01 X22.9297 Y39.0997
G01 X22.9353 Y39.1133
G01 X22.9641 Y39.1942
G01 X22.9851 Y39.2775
G01 X22.9880 Y39.2919
G01 X23.0004 Y39.3769
G01 X23.0050 Y39.4663
G01 X23.0048 Y39.4774
G01 X23.0004 Y39.5631
G01 X22.9867 Y39.6553
G01 X22.9641 Y39.7458
G01 X22.9353 Y39.8267
G01 X22.9297 Y39.8403
G01 X22.8961 Y39.9113
G01 X22.8892 Y39.9242
G01 X22.8449 Y39.9978
G01 X22.7939 Y40.0669
G01 X22.7846 Y40.0782
G01 X22.7268 Y40.1418
G01 X22.6577 Y40.2044
G01 X22.5888 Y40.2557
G01 X22.5766 Y40.2638
G01 X22.5028 Y40.3078
G01 X22.4253 Y40.3447
G01 X22.4117 Y40.3503
G01 X22.3308 Y40.3791
G01 X22.2475 Y40.4001
G01 X22.2331 Y40.4030
G01 X22.1481 Y40.4154
G01 X22.0624 Y40.4198
G01 X22.0476 Y40.4198
G01 X21.9619 Y40.4154
G01 X21.8697 Y40.4017
G01 X21.7863 Y40.3811
G01 X21.7722 Y40.3768
G01 X21.6915 Y40.3477
G01 X21.6137 Y40.3111
G01 X21.6008 Y40.3042
G01 X21.5272 Y40.2599
G01 X21.4523 Y40.2044
G01 X21.3886 Y40.1468
G01 X21.3782 Y40.1364
G01 X21.3206 Y40.0727
G01 X21.2693 Y40.0038
G01 X21.2612 Y39.9916
G01 X21.2172 Y39.9178
G01 X21.1803 Y39.8403
G01 X21.1747 Y39.8267
G01 X21.1459 Y39.7458
G01 X21.1249 Y39.6625
G01 X21.1220 Y39.6481
G01 X21.1105 Y39.5704
G01 X21.1093 Y39.5594
G01 X21.1050 Y39.4700
G01 X21.1090 Y39.3842
G01 X21.1105 Y39.3696
G01 X21.1233 Y39.2847
G01 X21.1439 Y39.2013
G01 X21.1482 Y39.1872
G01 X21.1773 Y39.1065
G01 X21.2172 Y39.0222
G01 X21.2651 Y38.9422
G01 X21.3161 Y38.8731
G01 X21.3254 Y38.8618
G01 X21.3832 Y38.7982
G01 X21.4468 Y38.7404
G01 X21.4581 Y38.7311
G01 X21.5272 Y38.6801
G01 X21.6048 Y38.6335
G01 X21.6049 Y31.2989
G01 X21.6022 Y31.2856
G01 X21.5970 Y31.2491
G01 X21.5949 Y31.2087
G01 X21.5949 Y30.7915
G01 X21.5172 Y30.7449
G01 X21.4481 Y30.6939
G01 X21.4368 Y30.6846
G01 X21.3732 Y30.6268
G01 X21.3154 Y30.5632
G01 X21.3061 Y30.5519
G01 X21.2551 Y30.4828
G01 X21.2108 Y30.4092
G01 X21.2039 Y30.3963
G01 X21.1673 Y30.3185
G01 X21.1382 Y30.2378
G01 X21.1339 Y30.2237
G01 X21.1133 Y30.1403
G01 X21.1005 Y30.0554
G01 X21.0990 Y30.0408
G01 X21.0950 Y29.9550
G01 X21.0990 Y29.8692
G01 X21.1005 Y29.8546
G01 X21.1133 Y29.7697
G01 X21.1339 Y29.6863
G01 X21.1382 Y29.6722
G01 X21.1673 Y29.5915
G01 X21.2039 Y29.5137
G01 X21.2108 Y29.5008
G01 X21.2551 Y29.4272
G01 X21.3061 Y29.3581
G01 X21.3154 Y29.3468
G01 X21.3732 Y29.2832
G01 X21.4368 Y29.2254
G01 X21.4481 Y29.2161
G01 X21.5172 Y29.1651
G01 X21.5948 Y29.1185
G01 X21.5949 Y26.9465
G01 X20.5985 Y25.9501
G01 X11.2600 Y25.9501
G01 X11.2159 Y25.9480
G01 X11.1722 Y25.9415
G01 X11.1293 Y25.9308
G01 X11.0912 Y25.9173
G01 X11.0810 Y25.9129
G01 X11.0478 Y25.8970
G01 X11.0099 Y25.8743
G01 X10.9744 Y25.8480
G01 X10.9417 Y25.8183
G01 X7.1317 Y22.0083
G01 X7.1044 Y21.9784
G01 X7.0975 Y21.9698
G01 X7.0800 Y21.9461
G01 X7.0718 Y21.9339
G01 X7.0530 Y21.9022
G01 X7.0341 Y21.8623
G01 X7.0215 Y21.8277
G01 X7.0173 Y21.8136
G01 X7.0085 Y21.7778
G01 X7.0029 Y21.7414
G01 X7.0015 Y21.7268
G01 X6.9999 Y21.6900
G01 X6.9999 Y21.2565
G00 Z2.0000
G00 X6.9249 Y21.2991
G01 F60.00
G01 Z-0.0550
G01 F120.00
G01 X6.9249 Y21.3090
G01 X6.9172 Y21.2945
G01 X6.9249 Y21.2991
G00 Z2.0000
G00 X6.7209 Y21.2826
G01 F60.00
G01 Z-0.0550
G01 F120.00
G01 X6.5915 Y21.1532
G01 X6.4874 Y21.0099
G01 X6.4070 Y20.8520
G01 X6.3522 Y20.6836
G01 X6.3245 Y20.5086
G01 X6.3245 Y20.3314
G01 X6.3522 Y20.1564
G01 X6.4070 Y19.9880
G01 X6.4874 Y19.8301
G01 X6.5915 Y19.6868
G01 X6.7168 Y19.5615
G01 X6.8601 Y19.4574
G01 X7.0180 Y19.3770
G01 X7.1864 Y19.3222
G01 X7.3614 Y19.2945
G01 X7.5386 Y19.2945
G01 X7.7136 Y19.3222
G01 X7.8820 Y19.3770
G01 X8.0399 Y19.4574
G01 X8.1832 Y19.5615
G01 X8.3085 Y19.6868
G01 X8.4126 Y19.8301
G01 X8.4930 Y19.9880
G01 X8.5478 Y20.1564
G01 X8.5755 Y20.3314
G01 X8.5755 Y20.5086
G01 X8.5478 Y20.6836
G01 X8.4930 Y20.8520
G01 X8.4126 Y21.0099
G01 X8.3085 Y21.1532
G01 X8.2810 Y21.1808
G01 X8.2740 Y21.1893
G01 X8.2179 Y21.2731
G01 X8.2127 Y21.2829
G01 X8.2095 Y21.2915
G01 X8.2077 Y21.2986
G01 X8.1885 Y21.3957
G01 X8.1876 Y21.4030
G01 X8.1874 Y21.4122
G01 X8.1888 Y21.4232
G01 X8.2081 Y21.5203
G01 X8.2101 Y21.5274
G01 X8.2120 Y21.5325
G01 X8.2152 Y21.5392
G01 X8.2189 Y21.5455
G01 X8.2740 Y21.6278
G01 X8.2773 Y21.6322
G01 X8.2822 Y21.6377
G01 X11.4242 Y24.7796
G01 X11.4296 Y24.7845
G01 X11.4356 Y24.7889
G01 X11.5210 Y24.8458
G01 X11.5310 Y24.8505
G01 X11.5416 Y24.8537
G01 X11.6405 Y24.8734
G01 X11.6459 Y24.8741
G01 X11.6533 Y24.8745
G01 X20.8471 Y24.8746
G01 X20.9675 Y24.8985
G01 X21.0813 Y24.9457
G01 X21.1837 Y25.0141
G01 X22.5409 Y26.3713
G01 X22.6093 Y26.4737
G01 X22.6565 Y26.5875
G01 X22.6805 Y26.7084
G01 X22.6805 Y26.8316
G01 X22.6758 Y26.8560
G01 X22.6705 Y26.9119
G01 X22.6705 Y27.4898
G01 X22.6713 Y27.5006
G01 X22.6816 Y27.5715
G01 X22.6835 Y27.5805
G01 X22.6857 Y27.5874
G01 X22.6886 Y27.5941
G01 X22.7357 Y27.6833
G01 X22.7385 Y27.6880
G01 X22.7429 Y27.6939
G01 X22.7478 Y27.6994
G01 X22.7518 Y27.7032
G01 X22.8294 Y27.7676
G01 X22.8339 Y27.7709
G01 X22.8401 Y27.7747
G01 X22.8468 Y27.7779
G01 X22.8537 Y27.7804
G01 X22.9518 Y27.8105
G01 X22.9627 Y27.8122
G01 X22.9738 Y27.8123
G01 X23.0724 Y27.8032
G01 X23.0796 Y27.8021
G01 X23.0850 Y27.8009
G01 X23.0920 Y27.7986
G01 X23.0988 Y27.7957
G01 X23.1863 Y27.7495
G01 X23.1942 Y27.7447
G01 X23.2000 Y27.7402
G01 X23.2054 Y27.7352
G01 X23.2091 Y27.7311
G01 X23.2711 Y27.6563
G01 X23.2756 Y27.6505
G01 X23.2794 Y27.6442
G01 X23.3121 Y27.5837
G01 X23.3307 Y27.5530
G01 X23.3559 Y27.5158
G01 X23.3774 Y27.4871
G01 X23.4684 Y27.3773
G01 X23.4926 Y27.3508
G01 X23.5245 Y27.3192
G01 X23.5512 Y27.2952
G01 X23.6617 Y27.2051
G01 X23.6906 Y27.1838
G01 X23.7281 Y27.1590
G01 X23.7589 Y27.1406
G01 X23.8848 Y27.0738
G01 X23.9173 Y27.0585
G01 X23.9588 Y27.0414
G01 X23.9926 Y27.0293
G01 X24.1291 Y26.9882
G01 X24.1640 Y26.9795
G01 X24.2080 Y26.9708
G01 X24.2436 Y26.9655
G01 X24.3985 Y26.9503
G01 X24.4165 Y26.9490
G01 X24.4569 Y26.9475
G01 X26.9328 Y26.9475
G01 X27.0046 Y26.9546
G01 X27.0905 Y26.9717
G01 X27.1970 Y27.0110
G01 X27.2166 Y27.0230
G01 X27.2913 Y27.0729
G01 X27.3214 Y27.1004
G01 X27.3617 Y27.1310
G01 X27.3694 Y27.1361
G01 X27.3759 Y27.1395
G01 X27.3810 Y27.1416
G01 X27.4739 Y27.1758
G01 X27.4792 Y27.1774
G01 X27.4864 Y27.1789
G01 X27.4919 Y27.1796
G01 X27.4993 Y27.1798
G01 X27.6000 Y27.1759
G01 X27.6091 Y27.1747
G01 X27.6163 Y27.1730
G01 X27.6266 Y27.1691
G01 X27.7182 Y27.1268
G01 X27.7260 Y27.1221
G01 X27.7652 Y27.0936
G01 X27.7742 Y27.0860
G01 X27.8319 Y27.0281
G01 X27.8378 Y27.0207
G01 X27.8435 Y27.0110
G01 X27.8491 Y27.0039
G01 X27.8538 Y26.9960
G01 X27.8568 Y26.9893
G01 X27.8699 Y26.9537
G01 X27.8872 Y26.9159
G01 X27.8898 Y26.9071
G01 X27.8909 Y26.9017
G01 X27.8918 Y26.8945
G01 X27.8945 Y26.8840
G01 X27.8955 Y26.8767
G01 X27.8957 Y26.8712
G01 X27.8943 Y26.8315
G01 X27.8957 Y26.7936
G01 X27.8956 Y26.7881
G01 X27.8948 Y26.7808
G01 X27.8937 Y26.7754
G01 X27.8918 Y26.7684
G01 X27.8903 Y26.7577
G01 X27.8872 Y26.7471
G01 X27.8699 Y26.7092
G01 X27.8568 Y26.6737
G01 X27.8529 Y26.6654
G01 X27.8491 Y26.6591
G01 X27.8435 Y26.6520
G01 X27.8380 Y26.6426
G01 X27.8323 Y26.6353
G01 X27.8272 Y26.6301
G01 X27.8007 Y26.6056
G01 X27.7903 Y26.5943
G01 X28.0606 Y26.3240
G01 X28.0736 Y26.3297
G01 X28.1510 Y26.3573
G01 X28.2343 Y26.3782
G01 X28.3192 Y26.3908
G01 X28.4050 Y26.3950
G01 X28.4908 Y26.3908
G01 X28.5757 Y26.3782
G01 X28.6590 Y26.3573
G01 X28.7364 Y26.3297
G01 X28.7494 Y26.3240
G01 X29.0191 Y26.5937
G01 X28.9794 Y26.6335
G01 X28.9733 Y26.6407
G01 X28.9692 Y26.6470
G01 X28.9656 Y26.6537
G01 X28.9242 Y26.7436
G01 X28.9211 Y26.7523
G01 X28.9191 Y26.7613
G01 X28.9181 Y26.7704
G01 X28.9143 Y26.8675
G01 X28.9144 Y26.8749
G01 X28.9152 Y26.8822
G01 X28.9167 Y26.8894
G01 X28.9189 Y26.8964
G01 X28.9525 Y26.9875
G01 X28.9562 Y26.9960
G01 X28.9620 Y27.0054
G01 X28.9678 Y27.0125
G01 X29.0350 Y27.0852
G01 X29.0404 Y27.0902
G01 X29.0448 Y27.0936
G01 X29.0855 Y27.1231
G01 X29.1340 Y27.1515
G01 X29.1406 Y27.1546
G01 X29.1458 Y27.1565
G01 X29.1678 Y27.1619
G01 X29.1867 Y27.1706
G01 X29.1973 Y27.1739
G01 X29.2082 Y27.1757
G01 X29.2290 Y27.1766
G01 X29.2474 Y27.1810
G01 X29.2547 Y27.1822
G01 X29.2602 Y27.1826
G01 X29.2675 Y27.1826
G01 X29.2730 Y27.1820
G01 X29.2918 Y27.1791
G01 X29.3126 Y27.1798
G01 X29.3236 Y27.1789
G01 X29.3343 Y27.1764
G01 X29.3539 Y27.1693
G01 X29.3744 Y27.1659
G01 X29.3850 Y27.1629
G01 X29.3951 Y27.1583
G01 X29.4129 Y27.1475
G01 X29.4324 Y27.1402
G01 X29.4390 Y27.1370
G01 X29.4437 Y27.1342
G01 X29.4511 Y27.1287
G01 X29.4665 Y27.1146
G01 X29.4827 Y27.1047
G01 X29.4901 Y27.0992
G01 X29.5320 Y27.0606
G01 X29.5516 Y27.0486
G01 X29.6300 Y27.0047
G01 X29.7372 Y26.9651
G01 X29.8189 Y26.9520
G01 X29.8765 Y26.9475
G01 X30.6715 Y26.9475
G01 X30.6770 Y26.9473
G01 X30.6843 Y26.9464
G01 X30.7832 Y26.9267
G01 X30.7903 Y26.9248
G01 X30.7972 Y26.9221
G01 X30.8038 Y26.9188
G01 X30.8085 Y26.9159
G01 X30.8892 Y26.8619
G01 X30.8951 Y26.8575
G01 X30.9006 Y26.8526
G01 X30.9055 Y26.8471
G01 X30.9099 Y26.8412
G01 X30.9639 Y26.7605
G01 X30.9677 Y26.7541
G01 X30.9701 Y26.7492
G01 X30.9728 Y26.7423
G01 X30.9747 Y26.7352
G01 X30.9944 Y26.6363
G01 X30.9953 Y26.6290
G01 X30.9955 Y26.6235
G01 X30.9955 Y24.1002
G01 X30.9971 Y24.0595
G01 X30.9984 Y24.0415
G01 X31.0137 Y23.8857
G01 X31.0190 Y23.8500
G01 X31.0278 Y23.8058
G01 X31.0366 Y23.7707
G01 X31.0782 Y23.6336
G01 X31.0904 Y23.5996
G01 X31.1076 Y23.5579
G01 X31.1231 Y23.5253
G01 X31.1906 Y23.3989
G01 X31.2092 Y23.3679
G01 X31.2343 Y23.3304
G01 X31.2558 Y23.3014
G01 X31.3467 Y23.1906
G01 X31.3709 Y23.1638
G01 X31.4029 Y23.1319
G01 X31.4296 Y23.1077
G01 X31.5404 Y23.0168
G01 X31.5694 Y22.9953
G01 X31.6069 Y22.9702
G01 X31.6379 Y22.9516
G01 X31.7643 Y22.8841
G01 X31.7969 Y22.8686
G01 X31.8386 Y22.8514
G01 X31.8726 Y22.8392
G01 X32.0098 Y22.7976
G01 X32.0448 Y22.7888
G01 X32.0890 Y22.7800
G01 X32.1248 Y22.7747
G01 X32.2805 Y22.7594
G01 X32.3211 Y22.7569
G01 X32.3392 Y22.7565
G01 X33.9299 Y22.7565
G01 X34.0017 Y22.7636
G01 X34.0659 Y22.7763
G01 X34.0810 Y22.7790
G01 X34.0921 Y22.7800
G01 X34.1032 Y22.7796
G01 X34.1123 Y22.7815
G01 X34.1196 Y22.7824
G01 X34.1269 Y22.7825
G01 X34.1343 Y22.7819
G01 X34.1661 Y22.7763
G01 X34.2002 Y22.7742
G01 X34.2075 Y22.7729
G01 X34.2146 Y22.7709
G01 X34.2197 Y22.7690
G01 X34.2281 Y22.7651
G01 X34.2371 Y22.7634
G01 X34.2425 Y22.7619
G01 X34.2494 Y22.7594
G01 X34.2560 Y22.7562
G01 X34.2849 Y22.7379
G01 X34.3124 Y22.7247
G01 X34.3203 Y22.7201
G01 X34.3290 Y22.7132
G01 X34.3379 Y22.7039
G01 X34.3485 Y22.6966
G01 X34.3566 Y22.6892
G01 X34.3625 Y22.6821
G01 X34.3799 Y22.6571
G01 X34.4003 Y22.6344
G01 X34.4048 Y22.6285
G01 X34.4078 Y22.6239
G01 X34.4112 Y22.6174
G01 X34.4158 Y22.6053
G01 X34.4210 Y22.5977
G01 X34.4246 Y22.5913
G01 X34.4276 Y22.5845
G01 X34.4293 Y22.5793
G01 X34.4368 Y22.5460
G01 X34.4469 Y22.5172
G01 X34.4488 Y22.5101
G01 X34.4498 Y22.5047
G01 X34.4506 Y22.4955
G01 X34.4502 Y22.4845
G01 X34.4521 Y22.4754
G01 X34.4529 Y22.4681
G01 X34.4531 Y22.4626
G01 X34.4527 Y22.4552
G01 X34.4468 Y22.4216
G01 X34.4452 Y22.3911
G01 X34.4442 Y22.3838
G01 X34.4426 Y22.3767
G01 X34.4409 Y22.3714
G01 X34.4357 Y22.3596
G01 X34.4339 Y22.3506
G01 X34.4313 Y22.3417
G01 X34.4184 Y22.3088
G01 X34.4145 Y22.3005
G01 X34.4097 Y22.2928
G01 X34.3897 Y22.2660
G01 X34.3465 Y22.1501
G01 X34.3438 Y22.1250
G01 X34.3415 Y22.1143
G01 X34.3392 Y22.1074
G01 X34.3235 Y22.0679
G01 X34.3178 Y22.0578
G01 X34.2638 Y21.9770
G01 X34.2595 Y21.9711
G01 X34.2545 Y21.9657
G01 X33.4136 Y21.1251
G01 X33.4063 Y21.1195
G01 X33.3255 Y21.0655
G01 X33.3192 Y21.0618
G01 X33.3126 Y21.0586
G01 X33.1887 Y21.0073
G01 X33.0863 Y20.9389
G01 X32.9991 Y20.8517
G01 X32.9307 Y20.7493
G01 X32.8835 Y20.6354
G01 X32.8595 Y20.5146
G01 X32.8595 Y18.3771
G01 X32.8591 Y18.3692
G01 X32.8535 Y18.3168
G01 X32.8515 Y18.3057
G01 X32.8478 Y18.2950
G01 X32.8092 Y18.2058
G01 X32.8059 Y18.1992
G01 X32.8020 Y18.1929
G01 X32.7976 Y18.1871
G01 X32.7925 Y18.1817
G01 X32.7228 Y18.1141
G01 X32.7187 Y18.1104
G01 X32.7128 Y18.1060
G01 X32.7065 Y18.1021
G01 X32.6999 Y18.0989
G01 X32.6361 Y18.0737
G01 X32.6276 Y18.0688
G01 X32.6191 Y18.0652
G01 X32.4546 Y18.0174
G01 X32.3295 Y17.9433
G01 X32.2267 Y17.8405
G01 X32.1526 Y17.7154
G01 X32.1116 Y17.5740
G01 X32.1095 Y17.5477
G01 X32.1095 Y15.8223
G01 X32.1116 Y15.7960
G01 X32.1526 Y15.6546
G01 X32.2267 Y15.5295
G01 X32.3295 Y15.4267
G01 X32.4546 Y15.3526
G01 X32.5960 Y15.3116
G01 X32.6222 Y15.3095
G01 X34.3478 Y15.3095
G01 X34.3740 Y15.3116
G01 X34.5154 Y15.3526
G01 X34.6405 Y15.4267
G01 X34.7433 Y15.5295
G01 X34.8174 Y15.6546
G01 X34.8584 Y15.7960
G01 X34.8605 Y15.8222
G01 X34.8605 Y17.5478
G01 X34.8584 Y17.5740
G01 X34.8174 Y17.7154
G01 X34.7433 Y17.8405
G01 X34.6405 Y17.9433
G01 X34.5154 Y18.0174
G01 X34.3544 Y18.0641
G01 X34.3162 Y18.0757
G01 X34.3109 Y18.0777
G01 X34.3040 Y18.0809
G01 X34.2975 Y18.0847
G01 X34.2168 Y18.1387
G01 X34.2094 Y18.1443
G01 X34.2029 Y18.1507
G01 X34.1961 Y18.1594
G01 X34.1411 Y18.2417
G01 X34.1383 Y18.2465
G01 X34.1352 Y18.2532
G01 X34.1327 Y18.2601
G01 X34.1309 Y18.2672
G01 X34.1119 Y18.3625
G01 X34.1111 Y18.3680
G01 X34.1105 Y18.3753
G01 X34.1105 Y20.2011
G01 X34.1109 Y20.2085
G01 X34.1119 Y20.2158
G01 X34.1317 Y20.3146
G01 X34.1352 Y20.3251
G01 X34.1375 Y20.3301
G01 X34.1411 Y20.3365
G01 X34.1961 Y20.4189
G01 X34.2029 Y20.4276
G01 X34.4950 Y20.7195
G01 X34.5341 Y20.7517
G01 X34.5400 Y20.7561
G01 X34.5496 Y20.7615
G01 X34.5688 Y20.7696
G01 X34.5862 Y20.7810
G01 X34.5961 Y20.7860
G01 X34.6065 Y20.7895
G01 X34.6269 Y20.7936
G01 X34.6462 Y20.8015
G01 X34.6568 Y20.8044
G01 X34.6678 Y20.8058
G01 X34.6886 Y20.8059
G01 X34.7090 Y20.8099
G01 X34.7200 Y20.8107
G01 X34.7311 Y20.8099
G01 X34.7515 Y20.8059
G01 X34.7723 Y20.8058
G01 X34.7833 Y20.8044
G01 X34.7939 Y20.8015
G01 X34.8132 Y20.7936
G01 X34.8336 Y20.7895
G01 X34.8440 Y20.7860
G01 X34.8539 Y20.7810
G01 X34.8713 Y20.7696
G01 X34.8904 Y20.7615
G01 X34.9000 Y20.7561
G01 X34.9087 Y20.7493
G01 X34.9235 Y20.7346
G01 X34.9408 Y20.7230
G01 X34.9478 Y20.7171
G01 X34.9529 Y20.7117
G01 X34.9564 Y20.7074
G01 X34.9680 Y20.6902
G01 X34.9814 Y20.6767
G01 X34.9873 Y20.6697
G01 X35.0311 Y20.6043
G01 X38.3646 Y17.2708
G01 X38.3718 Y17.2625
G01 X38.4279 Y17.1787
G01 X38.4317 Y17.1723
G01 X38.4348 Y17.1657
G01 X38.4373 Y17.1588
G01 X38.4391 Y17.1516
G01 X38.4581 Y17.0563
G01 X38.4594 Y17.0454
G01 X38.4595 Y15.8223
G01 X38.4616 Y15.7960
G01 X38.5026 Y15.6546
G01 X38.5767 Y15.5295
G01 X38.6795 Y15.4267
G01 X38.8046 Y15.3526
G01 X38.9460 Y15.3116
G01 X38.9722 Y15.3095
G01 X40.6978 Y15.3095
G01 X40.7240 Y15.3116
G01 X40.8654 Y15.3526
G01 X40.9905 Y15.4267
G01 X41.0933 Y15.5295
G01 X41.1674 Y15.6546
G01 X41.2084 Y15.7960
G01 X41.2105 Y15.8222
G01 X41.2105 Y17.5478
G01 X41.2084 Y17.5740
G01 X41.1674 Y17.7154
G01 X41.0933 Y17.8405
G01 X40.9905 Y17.9433
G01 X40.8654 Y18.0174
G01 X40.7240 Y18.0584
G01 X40.6977 Y18.0605
G01 X39.4746 Y18.0606
G01 X39.4637 Y18.0619
G01 X39.3684 Y18.0809
G01 X39.3612 Y18.0827
G01 X39.3543 Y18.0852
G01 X39.3477 Y18.0883
G01 X39.3429 Y18.0911
G01 X39.2590 Y18.1471
G01 X39.2546 Y18.1505
G01 X39.2492 Y18.1554
G01 X36.6469 Y20.7577
G01 X36.6421 Y20.7633
G01 X36.6389 Y20.7678
G01 X36.5849 Y20.8485
G01 X36.5811 Y20.8549
G01 X36.5780 Y20.8615
G01 X36.5760 Y20.8667
G01 X36.5741 Y20.8738
G01 X36.5547 Y20.9709
G01 X36.5537 Y20.9781
G01 X36.5533 Y20.9855
G01 X36.5537 Y20.9929
G01 X36.5547 Y21.0001
G01 X36.5741 Y21.0972
G01 X36.5755 Y21.1026
G01 X36.5780 Y21.1095
G01 X36.5811 Y21.1161
G01 X36.5849 Y21.1225
G01 X36.6389 Y21.2032
G01 X36.6433 Y21.2091
G01 X36.6469 Y21.2133
G01 X36.6522 Y21.2184
G01 X36.6596 Y21.2239
G01 X36.7403 Y21.2779
G01 X36.7450 Y21.2808
G01 X36.7516 Y21.2841
G01 X36.7585 Y21.2868
G01 X36.7656 Y21.2887
G01 X36.8627 Y21.3081
G01 X36.8699 Y21.3091
G01 X36.8773 Y21.3095
G01 X37.6502 Y21.3093
G01 X37.6593 Y21.3081
G01 X37.7546 Y21.2891
G01 X37.7618 Y21.2873
G01 X37.7687 Y21.2848
G01 X37.8926 Y21.2335
G01 X38.0134 Y21.2095
G01 X38.1366 Y21.2095
G01 X38.2575 Y21.2335
G01 X38.3713 Y21.2807
G01 X38.4737 Y21.3491
G01 X42.8609 Y25.7363
G01 X42.9293 Y25.8387
G01 X42.9639 Y25.9221
G01 X42.9765 Y25.9525
G01 X43.0005 Y26.0734
G01 X43.0007 Y34.6510
G01 X43.0019 Y34.6601
G01 X43.0209 Y34.7554
G01 X43.0232 Y34.7643
G01 X43.0259 Y34.7712
G01 X43.0292 Y34.7778
G01 X43.0321 Y34.7825
G01 X43.0871 Y34.8648
G01 X43.0941 Y34.8733
G01 X43.1023 Y34.8807
G01 X43.1891 Y34.9389
G01 X43.1988 Y34.9441
G01 X43.2074 Y34.9473
G01 X43.2146 Y34.9491
G01 X43.3153 Y34.9689
G01 X43.3245 Y34.9695
G01 X43.4006 Y34.9695
G01 X43.4768 Y34.9816
G01 X43.5687 Y35.0284
G01 X43.6416 Y35.1013
G01 X43.6884 Y35.1932
G01 X43.7005 Y35.2694
G01 X43.7005 Y37.3206
G01 X43.6884 Y37.3968
G01 X43.6416 Y37.4887
G01 X43.5687 Y37.5616
G01 X43.4768 Y37.6084
G01 X43.4006 Y37.6205
G01 X43.3245 Y37.6205
G01 X43.3153 Y37.6211
G01 X43.2146 Y37.6409
G01 X43.2057 Y37.6432
G01 X43.1971 Y37.6467
G01 X43.1891 Y37.6511
G01 X43.1068 Y37.7061
G01 X43.0994 Y37.7116
G01 X43.0929 Y37.7181
G01 X43.0871 Y37.7252
G01 X43.0321 Y37.8075
G01 X43.0292 Y37.8122
G01 X43.0259 Y37.8188
G01 X43.0232 Y37.8257
G01 X43.0213 Y37.8328
G01 X43.0011 Y37.9353
G01 X43.0005 Y37.9445
G01 X43.0005 Y42.7066
G01 X42.9765 Y42.8275
G01 X42.9293 Y42.9413
G01 X42.8609 Y43.0437
G01 X41.3054 Y44.5992
G01 X41.3005 Y44.6046
G01 X41.2961 Y44.6106
G01 X41.2421 Y44.6913
G01 X41.2383 Y44.6977
G01 X41.2345 Y44.7060
G01 X41.2313 Y44.7166
G01 X41.2119 Y44.8137
G01 X41.2111 Y44.8191
G01 X41.2105 Y44.8265
G01 X41.2105 Y45.9728
G01 X41.2084 Y45.9990
G01 X41.1674 Y46.1404
G01 X41.0933 Y46.2655
G01 X40.9905 Y46.3683
G01 X40.8654 Y46.4424
G01 X40.7240 Y46.4834
G01 X40.6977 Y46.4855
G01 X38.9723 Y46.4855
G01 X38.9460 Y46.4834
G01 X38.8046 Y46.4424
G01 X38.6795 Y46.3683
G01 X38.5767 Y46.2655
G01 X38.5026 Y46.1404
G01 X38.4616 Y45.9990
G01 X38.4595 Y45.9727
G01 X38.4595 Y44.2473
G01 X38.4616 Y44.2210
G01 X38.5026 Y44.0796
G01 X38.5767 Y43.9545
G01 X38.6795 Y43.8517
G01 X38.8046 Y43.7776
G01 X38.9460 Y43.7366
G01 X38.9722 Y43.7345
G01 X40.2685 Y43.7345
G01 X40.2741 Y43.7341
G01 X40.2813 Y43.7331
G01 X40.3784 Y43.7137
G01 X40.3890 Y43.7105
G01 X40.3941 Y43.7083
G01 X40.4005 Y43.7049
G01 X40.4844 Y43.6489
G01 X40.4904 Y43.6445
G01 X40.4958 Y43.6396
G01 X41.6559 Y42.4795
G01 X41.6595 Y42.4754
G01 X41.6639 Y42.4694
G01 X41.7179 Y42.3887
G01 X41.7208 Y42.3840
G01 X41.7241 Y42.3774
G01 X41.7268 Y42.3705
G01 X41.7287 Y42.3634
G01 X41.7484 Y42.2645
G01 X41.7493 Y42.2572
G01 X41.7495 Y42.2517
G01 X41.7495 Y37.9445
G01 X41.7487 Y37.9335
G01 X41.7287 Y37.8328
G01 X41.7268 Y37.8257
G01 X41.7241 Y37.8188
G01 X41.7208 Y37.8122
G01 X41.7179 Y37.8075
G01 X41.6629 Y37.7252
G01 X41.6571 Y37.7181
G01 X41.6506 Y37.7116
G01 X41.6432 Y37.7061
G01 X41.5609 Y37.6511
G01 X41.5529 Y37.6467
G01 X41.5443 Y37.6432
G01 X41.5354 Y37.6409
G01 X41.4347 Y37.6211
G01 X41.4255 Y37.6205
G01 X41.3494 Y37.6205
G01 X41.2732 Y37.6084
G01 X41.1813 Y37.5616
G01 X41.1084 Y37.4887
G01 X41.0616 Y37.3968
G01 X41.0495 Y37.3206
G01 X41.0495 Y35.2694
G01 X41.0616 Y35.1932
G01 X41.1084 Y35.1013
G01 X41.1813 Y35.0284
G01 X41.2732 Y34.9816
G01 X41.3494 Y34.9695
G01 X41.4255 Y34.9695
G01 X41.4347 Y34.9689
G01 X41.5354 Y34.9491
G01 X41.5426 Y34.9473
G01 X41.5512 Y34.9441
G01 X41.5609 Y34.9389
G01 X41.6477 Y34.8807
G01 X41.6559 Y34.8733
G01 X41.6629 Y34.8648
G01 X41.7179 Y34.7825
G01 X41.7208 Y34.7778
G01 X41.7241 Y34.7712
G01 X41.7268 Y34.7643
G01 X41.7291 Y34.7554
G01 X41.7481 Y34.6601
G01 X41.7493 Y34.6510
G01 X41.7495 Y26.5283
G01 X41.7491 Y26.5209
G01 X41.7481 Y26.5137
G01 X41.7287 Y26.4166
G01 X41.7268 Y26.4095
G01 X41.7241 Y26.4026
G01 X41.7217 Y26.3977
G01 X41.7179 Y26.3913
G01 X41.6639 Y26.3106
G01 X41.6607 Y26.3061
G01 X41.6559 Y26.3005
G01 X37.8108 Y22.4554
G01 X37.8054 Y22.4505
G01 X37.7994 Y22.4461
G01 X37.7187 Y22.3921
G01 X37.7123 Y22.3883
G01 X37.7057 Y22.3852
G01 X37.6988 Y22.3827
G01 X37.6916 Y22.3809
G01 X37.5963 Y22.3619
G01 X37.5872 Y22.3607
G01 X36.6834 Y22.3605
G01 X36.6760 Y22.3609
G01 X36.6466 Y22.3645
G01 X36.6353 Y22.3645
G01 X36.6261 Y22.3656
G01 X36.6150 Y22.3685
G01 X36.6034 Y22.3705
G01 X36.5946 Y22.3734
G01 X36.5561 Y22.3916
G01 X36.5199 Y22.4058
G01 X36.5116 Y22.4099
G01 X36.4979 Y22.4187
G01 X36.4730 Y22.4373
G01 X36.4654 Y22.4403
G01 X36.4591 Y22.4436
G01 X36.4303 Y22.4621
G01 X36.3855 Y22.4980
G01 X36.3772 Y22.5058
G01 X36.3702 Y22.5148
G01 X36.3162 Y22.5956
G01 X36.3124 Y22.6019
G01 X36.3092 Y22.6085
G01 X36.3068 Y22.6155
G01 X36.3054 Y22.6208
G01 X36.2860 Y22.7179
G01 X36.2849 Y22.7252
G01 X36.2846 Y22.7325
G01 X36.2849 Y22.7399
G01 X36.2860 Y22.7472
G01 X36.3050 Y22.8425
G01 X36.3062 Y22.8478
G01 X36.3086 Y22.8548
G01 X36.3115 Y22.8615
G01 X36.3152 Y22.8679
G01 X36.3734 Y22.9547
G01 X36.3808 Y22.9629
G01 X36.3893 Y22.9699
G01 X36.4747 Y23.0269
G01 X36.4829 Y23.0311
G01 X36.5318 Y23.0514
G01 X36.6414 Y23.1356
G01 X36.7256 Y23.2452
G01 X36.7785 Y23.3729
G01 X36.7920 Y23.4756
G01 X36.7920 Y23.9944
G01 X36.7785 Y24.0970
G01 X36.7256 Y24.2248
G01 X36.6495 Y24.3239
G01 X36.4421 Y24.1166
G01 X36.4420 Y23.5100
G01 X36.4410 Y23.4910
G01 X36.4378 Y23.4723
G01 X36.4345 Y23.4592
G01 X36.4300 Y23.4465
G01 X36.4280 Y23.4413
G01 X36.4213 Y23.4275
G01 X36.4125 Y23.4128
G01 X36.4023 Y23.3990
G01 X36.3920 Y23.3876
G01 X36.3881 Y23.3837
G01 X36.3780 Y23.3747
G01 X36.3672 Y23.3666
G01 X36.3527 Y23.3575
G01 X36.3479 Y23.3548
G01 X36.3340 Y23.3483
G01 X36.3178 Y23.3425
G01 X36.3011 Y23.3384
G01 X36.2860 Y23.3360
G01 X36.2805 Y23.3356
G01 X36.2670 Y23.3350
G01 X36.0670 Y23.3350
G01 X36.0498 Y23.3358
G01 X36.0347 Y23.3380
G01 X36.0144 Y23.3431
G01 X36.0000 Y23.3483
G01 X35.9878 Y23.3540
G01 X35.9829 Y23.3566
G01 X35.9698 Y23.3645
G01 X35.9574 Y23.3736
G01 X35.9532 Y23.3771
G01 X35.9433 Y23.3863
G01 X35.9341 Y23.3962
G01 X35.9306 Y23.4004
G01 X35.9215 Y23.4128
G01 X35.9127 Y23.4275
G01 X35.9068 Y23.4397
G01 X35.9040 Y23.4465
G01 X35.8993 Y23.4599
G01 X35.7847 Y23.4599
G01 X35.7787 Y23.4430
G01 X35.7722 Y23.4291
G01 X35.7695 Y23.4243
G01 X35.7625 Y23.4128
G01 X35.7545 Y23.4019
G01 X35.7511 Y23.3976
G01 X35.7407 Y23.3863
G01 X35.7280 Y23.3747
G01 X35.7157 Y23.3655
G01 X35.7111 Y23.3625
G01 X35.6995 Y23.3557
G01 X35.6873 Y23.3498
G01 X35.6696 Y23.3431
G01 X35.6547 Y23.3392
G01 X35.6475 Y23.3377
G01 X35.6342 Y23.3358
G01 X35.6188 Y23.3350
G01 X35.4170 Y23.3350
G01 X35.3980 Y23.3360
G01 X35.3829 Y23.3384
G01 X35.3662 Y23.3425
G01 X35.3500 Y23.3483
G01 X35.3378 Y23.3540
G01 X35.3229 Y23.3625
G01 X35.3168 Y23.3666
G01 X35.3046 Y23.3759
G01 X35.2920 Y23.3876
G01 X35.2817 Y23.3990
G01 X35.2715 Y23.4128
G01 X35.2627 Y23.4275
G01 X35.2560 Y23.4413
G01 X35.2501 Y23.4574
G01 X35.2462 Y23.4723
G01 X35.2433 Y23.4892
G01 X35.2426 Y23.4965
G01 X35.2420 Y23.5100
G01 X35.2420 Y23.9600
G01 X35.2428 Y23.9772
G01 X35.2454 Y23.9941
G01 X35.2495 Y24.0108
G01 X35.2553 Y24.0270
G01 X35.2610 Y24.0392
G01 X35.2695 Y24.0541
G01 X35.2736 Y24.0602
G01 X35.2829 Y24.0724
G01 X35.2946 Y24.0850
G01 X35.3060 Y24.0953
G01 X35.3183 Y24.1045
G01 X35.3313 Y24.1125
G01 X35.3378 Y24.1160
G01 X35.3500 Y24.1217
G01 X35.3662 Y24.1275
G01 X35.3829 Y24.1316
G01 X35.3962 Y24.1337
G01 X35.4017 Y24.1343
G01 X35.4170 Y24.1350
G01 X35.6170 Y24.1350
G01 X35.6360 Y24.1340
G01 X35.6511 Y24.1316
G01 X35.6643 Y24.1284
G01 X35.6696 Y24.1269
G01 X35.6840 Y24.1217
G01 X35.6979 Y24.1152
G01 X35.7027 Y24.1125
G01 X35.7142 Y24.1055
G01 X35.7280 Y24.0953
G01 X35.7394 Y24.0850
G01 X35.7433 Y24.0811
G01 X35.7523 Y24.0710
G01 X35.7625 Y24.0572
G01 X35.7713 Y24.0425
G01 X35.7772 Y24.0303
G01 X35.7800 Y24.0235
G01 X35.7847 Y24.0101
G01 X35.8919 Y24.0101
G01 X35.8919 Y24.1174
G01 X35.8770 Y24.1340
G01 X35.8561 Y24.1621
G01 X35.8370 Y24.1935
G01 X35.8204 Y24.2284
G01 X35.8092 Y24.2596
G01 X35.8070 Y24.2666
G01 X35.7991 Y24.2988
G01 X35.7941 Y24.3316
G01 X35.7934 Y24.3389
G01 X35.7919 Y24.3702
G01 X35.7939 Y24.4106
G01 X35.7987 Y24.4434
G01 X35.8033 Y24.4625
G01 X35.7971 Y24.4631
G01 X35.6130 Y24.4891
G01 X35.5432 Y24.5083
G01 X35.5363 Y24.5111
G01 X35.5313 Y24.5137
G01 X35.5190 Y24.5216
G01 X35.5089 Y24.5249
G01 X35.4991 Y24.5298
G01 X35.4930 Y24.5338
G01 X35.4887 Y24.5372
G01 X35.4677 Y24.5559
G01 X35.4442 Y24.5716
G01 X35.4371 Y24.5774
G01 X35.4295 Y24.5854
G01 X35.4207 Y24.5978
G01 X35.4108 Y24.6069
G01 X35.4049 Y24.6139
G01 X35.4017 Y24.6184
G01 X35.3980 Y24.6248
G01 X35.3857 Y24.6501
G01 X35.3701 Y24.6736
G01 X35.3657 Y24.6816
G01 X35.3617 Y24.6919
G01 X35.3584 Y24.7068
G01 X35.3527 Y24.7189
G01 X35.3494 Y24.7295
G01 X35.3477 Y24.7404
G01 X35.3461 Y24.7685
G01 X35.3406 Y24.7962
G01 X35.3397 Y24.8035
G01 X35.3395 Y24.8090
G01 X35.3395 Y26.6137
G01 X35.3324 Y26.6855
G01 X35.3153 Y26.7714
G01 X35.2760 Y26.8780
G01 X35.2646 Y26.8966
G01 X35.2612 Y26.9028
G01 X35.2360 Y26.9575
G01 X35.2327 Y26.9659
G01 X35.2308 Y26.9729
G01 X35.2296 Y26.9801
G01 X35.2182 Y27.0766
G01 X35.2177 Y27.0839
G01 X35.2181 Y27.0931
G01 X35.2200 Y27.1040
G01 X35.2468 Y27.1993
G01 X35.2485 Y27.2045
G01 X35.2514 Y27.2113
G01 X35.2549 Y27.2178
G01 X35.2601 Y27.2253
G01 X35.3203 Y27.3016
G01 X35.3264 Y27.3085
G01 X35.3333 Y27.3145
G01 X35.3409 Y27.3197
G01 X35.4273 Y27.3681
G01 X35.4373 Y27.3728
G01 X35.4443 Y27.3750
G01 X35.4533 Y27.3769
G01 X35.5259 Y27.3855
G01 X35.8360 Y27.6956
G01 X35.8303 Y27.7086
G01 X35.8027 Y27.7860
G01 X35.7818 Y27.8693
G01 X35.7692 Y27.9542
G01 X35.7650 Y28.0400
G01 X35.7692 Y28.1258
G01 X35.7818 Y28.2107
G01 X35.8027 Y28.2940
G01 X35.8303 Y28.3714
G01 X35.8360 Y28.3844
G01 X35.5291 Y28.6913
G01 X35.5039 Y28.6918
G01 X35.4966 Y28.6927
G01 X35.4894 Y28.6943
G01 X35.3935 Y28.7254
G01 X35.3833 Y28.7295
G01 X35.3769 Y28.7331
G01 X35.3694 Y28.7385
G01 X35.2941 Y28.8028
G01 X35.2887 Y28.8078
G01 X35.2828 Y28.8148
G01 X35.2768 Y28.8241
G01 X35.2319 Y28.9123
G01 X35.2295 Y28.9173
G01 X35.2270 Y28.9242
G01 X35.2252 Y28.9314
G01 X35.2241 Y28.9386
G01 X35.2161 Y29.0410
G01 X35.2166 Y29.0520
G01 X35.2178 Y29.0593
G01 X35.2192 Y29.0646
G01 X35.2510 Y29.1623
G01 X35.2557 Y29.1723
G01 X35.2933 Y29.2394
G01 X35.3004 Y29.2612
G01 X35.3251 Y29.3491
G01 X35.3387 Y29.4345
G01 X35.3395 Y29.4633
G01 X35.3395 Y51.1568
G01 X35.3380 Y51.1974
G01 X35.3366 Y51.2155
G01 X35.3213 Y51.3713
G01 X35.3160 Y51.4070
G01 X35.3072 Y51.4512
G01 X35.2984 Y51.4862
G01 X35.2568 Y51.6234
G01 X35.2446 Y51.6574
G01 X35.2274 Y51.6991
G01 X35.2119 Y51.7317
G01 X35.1444 Y51.8581
G01 X35.1258 Y51.8891
G01 X35.1007 Y51.9266
G01 X35.0792 Y51.9556
G01 X34.9883 Y52.0664
G01 X34.9641 Y52.0931
G01 X34.9321 Y52.1251
G01 X34.9054 Y52.1493
G01 X34.7946 Y52.2402
G01 X34.7656 Y52.2617
G01 X34.7281 Y52.2868
G01 X34.6971 Y52.3054
G01 X34.5707 Y52.3729
G01 X34.5381 Y52.3884
G01 X34.4964 Y52.4056
G01 X34.4624 Y52.4178
G01 X34.3253 Y52.4594
G01 X34.2902 Y52.4682
G01 X34.2460 Y52.4770
G01 X34.2103 Y52.4823
G01 X34.0545 Y52.4976
G01 X34.0365 Y52.4989
G01 X33.9958 Y52.5005
G01 X15.5752 Y52.5005
G01 X15.5345 Y52.4989
G01 X15.5165 Y52.4976
G01 X15.3607 Y52.4823
G01 X15.3250 Y52.4770
G01 X15.2808 Y52.4682
G01 X15.2457 Y52.4594
G01 X15.1086 Y52.4178
G01 X15.0746 Y52.4056
G01 X15.0329 Y52.3884
G01 X15.0003 Y52.3729
G01 X14.8739 Y52.3054
G01 X14.8429 Y52.2868
G01 X14.8054 Y52.2617
G01 X14.7764 Y52.2402
G01 X14.6656 Y52.1493
G01 X14.6389 Y52.1251
G01 X14.6069 Y52.0931
G01 X14.5827 Y52.0664
G01 X14.4918 Y51.9556
G01 X14.4703 Y51.9266
G01 X14.4452 Y51.8891
G01 X14.4266 Y51.8581
G01 X14.3591 Y51.7317
G01 X14.3436 Y51.6991
G01 X14.3264 Y51.6574
G01 X14.3142 Y51.6234
G01 X14.2726 Y51.4863
G01 X14.2638 Y51.4512
G01 X14.2550 Y51.4070
G01 X14.2497 Y51.3713
G01 X14.2344 Y51.2155
G01 X14.2319 Y51.1749
G01 X14.2315 Y51.1568
G01 X14.2315 Y43.6582
G01 X14.2319 Y43.6401
G01 X14.2344 Y43.5995
G01 X14.2497 Y43.4437
G01 X14.2550 Y43.4080
G01 X14.2638 Y43.3638
G01 X14.2726 Y43.3287
G01 X14.3142 Y43.1916
G01 X14.3264 Y43.1576
G01 X14.3436 Y43.1159
G01 X14.3591 Y43.0833
G01 X14.4266 Y42.9569
G01 X14.4452 Y42.9259
G01 X14.4703 Y42.8884
G01 X14.4918 Y42.8594
G01 X14.5827 Y42.7486
G01 X14.6069 Y42.7218
G01 X14.6389 Y42.6899
G01 X14.6656 Y42.6657
G01 X14.7764 Y42.5748
G01 X14.8054 Y42.5533
G01 X14.8429 Y42.5282
G01 X14.8739 Y42.5096
G01 X15.0003 Y42.4421
G01 X15.0329 Y42.4266
G01 X15.0746 Y42.4094
G01 X15.1086 Y42.3972
G01 X15.2458 Y42.3556
G01 X15.2807 Y42.3468
G01 X15.3250 Y42.3380
G01 X15.3608 Y42.3327
G01 X15.5165 Y42.3174
G01 X15.5571 Y42.3149
G01 X15.5752 Y42.3145
G01 X22.6777 Y42.3145
G01 X22.6831 Y42.3142
G01 X22.6902 Y42.3131
G01 X22.7836 Y42.2949
G01 X22.7907 Y42.2932
G01 X22.7975 Y42.2908
G01 X22.8025 Y42.2886
G01 X22.8089 Y42.2850
G01 X22.8932 Y42.2297
G01 X22.8976 Y42.2264
G01 X22.9031 Y42.2215
G01 X22.9081 Y42.2161
G01 X22.9115 Y42.2117
G01 X22.9682 Y42.1283
G01 X22.9727 Y42.1203
G01 X22.9767 Y42.1100
G01 X22.9786 Y42.1029
G01 X22.9983 Y42.0078
G01 X22.9995 Y42.0005
G01 X22.9998 Y41.9950
G01 X23.0099 Y40.7780
G01 X23.0091 Y40.7532
G01 X23.0083 Y40.7442
G01 X23.0063 Y40.7354
G01 X22.9800 Y40.6419
G01 X22.9783 Y40.6367
G01 X22.9754 Y40.6299
G01 X22.9719 Y40.6234
G01 X22.9678 Y40.6173
G01 X22.9065 Y40.5396
G01 X22.9017 Y40.5340
G01 X22.8964 Y40.5290
G01 X22.8920 Y40.5255
G01 X22.8859 Y40.5215
G01 X22.7995 Y40.4731
G01 X22.7895 Y40.4684
G01 X22.7807 Y40.4657
G01 X22.7735 Y40.4643
G01 X22.6752 Y40.4526
G01 X22.6679 Y40.4521
G01 X22.6587 Y40.4525
G01 X22.6478 Y40.4544
G01 X22.5490 Y40.4824
G01 X22.5388 Y40.4866
G01 X22.4870 Y40.5130
G01 X22.3186 Y40.5678
G01 X22.1436 Y40.5955
G01 X21.9664 Y40.5955
G01 X21.7914 Y40.5678
G01 X21.6230 Y40.5130
G01 X21.4651 Y40.4326
G01 X21.3218 Y40.3285
G01 X21.1965 Y40.2032
G01 X21.0924 Y40.0599
G01 X21.0120 Y39.9020
G01 X20.9572 Y39.7336
G01 X20.9295 Y39.5586
G01 X20.9295 Y39.3814
G01 X20.9572 Y39.2064
G01 X21.0120 Y39.0380
G01 X21.0924 Y38.8801
G01 X21.1965 Y38.7368
G01 X21.3386 Y38.5946
G01 X21.3439 Y38.5876
G01 X21.3989 Y38.5053
G01 X21.4017 Y38.5005
G01 X21.4048 Y38.4938
G01 X21.4068 Y38.4887
G01 X21.4087 Y38.4816
G01 X21.4281 Y38.3845
G01 X21.4294 Y38.3735
G01 X21.4295 Y31.3488
G01 X21.4286 Y31.3175
G01 X21.4281 Y31.3106
G01 X21.4195 Y31.2666
G01 X21.4195 Y31.0509
G01 X21.4185 Y31.0296
G01 X21.4178 Y31.0241
G01 X21.4164 Y31.0170
G01 X21.4016 Y30.9645
G01 X21.3951 Y30.9344
G01 X21.3924 Y30.9258
G01 X21.3842 Y30.9080
G01 X21.3795 Y30.9001
G01 X21.3506 Y30.8631
G01 X21.3370 Y30.8442
G01 X21.3324 Y30.8362
G01 X21.3269 Y30.8289
G01 X21.3188 Y30.8204
G01 X21.1865 Y30.6882
G01 X21.0824 Y30.5449
G01 X21.0637 Y30.5082
G01 X21.0602 Y30.5021
G01 X21.0257 Y30.4504
G01 X21.0212 Y30.4447
G01 X21.0175 Y30.4407
G01 X21.0108 Y30.4347
G01 X20.9345 Y30.3745
G01 X20.9285 Y30.3703
G01 X20.9221 Y30.3666
G01 X20.9154 Y30.3636
G01 X20.9084 Y30.3612
G01 X20.8149 Y30.3349
G01 X20.8059 Y30.3329
G01 X20.7967 Y30.3321
G01 X20.7857 Y30.3326
G01 X20.6874 Y30.3442
G01 X20.6820 Y30.3452
G01 X20.6749 Y30.3471
G01 X20.6680 Y30.3498
G01 X20.6614 Y30.3530
G01 X20.5766 Y30.4005
G01 X20.5719 Y30.4034
G01 X20.5660 Y30.4077
G01 X20.5605 Y30.4126
G01 X20.5555 Y30.4181
G01 X20.4920 Y30.4988
G01 X20.4872 Y30.5066
G01 X20.4676 Y30.5449
G01 X20.3635 Y30.6882
G01 X20.2382 Y30.8135
G01 X20.0949 Y30.9176
G01 X19.9370 Y30.9980
G01 X19.7686 Y31.0528
G01 X19.5936 Y31.0805
G01 X19.4164 Y31.0805
G01 X19.2414 Y31.0528
G01 X19.0730 Y30.9980
G01 X18.9151 Y30.9176
G01 X18.7718 Y30.8135
G01 X18.6465 Y30.6882
G01 X18.5424 Y30.5449
G01 X18.5211 Y30.5036
G01 X18.4867 Y30.4519
G01 X18.4824 Y30.4461
G01 X18.4775 Y30.4407
G01 X18.4722 Y30.4358
G01 X18.3945 Y30.3745
G01 X18.3869 Y30.3693
G01 X18.3771 Y30.3643
G01 X18.3684 Y30.3612
G01 X18.2749 Y30.3349
G01 X18.2677 Y30.3332
G01 X18.2604 Y30.3323
G01 X18.2531 Y30.3321
G01 X18.2476 Y30.3324
G01 X18.1474 Y30.3442
G01 X18.1420 Y30.3452
G01 X18.1349 Y30.3471
G01 X18.1280 Y30.3498
G01 X18.1230 Y30.3522
G01 X18.0350 Y30.4014
G01 X18.0274 Y30.4066
G01 X18.0205 Y30.4126
G01 X18.0144 Y30.4195
G01 X17.9520 Y30.4988
G01 X17.9472 Y30.5066
G01 X17.9276 Y30.5449
G01 X17.8235 Y30.6882
G01 X17.6850 Y30.8265
G01 X17.6803 Y30.8317
G01 X17.6761 Y30.8374
G01 X17.6211 Y30.9197
G01 X17.6175 Y30.9261
G01 X17.6145 Y30.9329
G01 X17.6122 Y30.9399
G01 X17.6109 Y30.9452
G01 X17.5919 Y31.0405
G01 X17.5909 Y31.0478
G01 X17.5905 Y31.0533
G01 X17.5905 Y33.9163
G01 X17.5915 Y33.9423
G01 X17.5925 Y33.9493
G01 X17.5941 Y33.9562
G01 X17.6210 Y34.0515
G01 X17.6250 Y34.0617
G01 X17.6285 Y34.0682
G01 X17.6315 Y34.0728
G01 X17.6974 Y34.1563
G01 X17.7061 Y34.1644
G01 X17.8335 Y34.2918
G01 X17.9376 Y34.4351
G01 X18.0180 Y34.5930
G01 X18.0728 Y34.7614
G01 X18.1005 Y34.9364
G01 X18.1005 Y35.1136
G01 X18.0728 Y35.2886
G01 X18.0180 Y35.4570
G01 X17.9376 Y35.6149
G01 X17.8335 Y35.7582
G01 X17.7082 Y35.8835
G01 X17.5649 Y35.9876
G01 X17.4070 Y36.0680
G01 X17.2386 Y36.1228
G01 X17.0636 Y36.1505
G01 X16.8864 Y36.1505
G01 X16.7114 Y36.1228
G01 X16.5430 Y36.0680
G01 X16.3851 Y35.9876
G01 X16.2418 Y35.8835
G01 X16.0996 Y35.7414
G01 X16.0926 Y35.7361
G01 X16.0103 Y35.6811
G01 X16.0005 Y35.6759
G01 X15.9937 Y35.6732
G01 X15.9884 Y35.6717
G01 X15.8840 Y35.6511
G01 X15.8748 Y35.6505
G01 X14.1896 Y35.6506
G01 X14.1787 Y35.6519
G01 X14.0834 Y35.6709
G01 X14.0762 Y35.6727
G01 X14.0693 Y35.6752
G01 X14.0627 Y35.6783
G01 X14.0563 Y35.6821
G01 X13.9756 Y35.7361
G01 X13.9696 Y35.7405
G01 X13.9642 Y35.7454
G01 X12.6141 Y37.0955
G01 X12.6105 Y37.0996
G01 X12.6061 Y37.1056
G01 X12.5511 Y37.1879
G01 X12.5475 Y37.1943
G01 X12.5452 Y37.1993
G01 X12.5417 Y37.2098
G01 X12.5219 Y37.3087
G01 X12.5209 Y37.3159
G01 X12.5205 Y37.3215
G01 X12.5205 Y38.3698
G01 X12.5214 Y38.3941
G01 X12.5222 Y38.4011
G01 X12.5241 Y38.4098
G01 X12.5510 Y38.5050
G01 X12.5550 Y38.5153
G01 X12.5585 Y38.5218
G01 X12.5615 Y38.5264
G01 X12.6012 Y38.5768
G01 X12.6068 Y38.5875
G01 X12.6110 Y38.5935
G01 X12.6146 Y38.5978
G01 X12.7535 Y38.7368
G01 X12.8576 Y38.8801
G01 X12.9380 Y39.0380
G01 X12.9928 Y39.2064
G01 X13.0205 Y39.3814
G01 X13.0205 Y39.5586
G01 X12.9928 Y39.7336
G01 X12.9380 Y39.9020
G01 X12.8576 Y40.0599
G01 X12.7535 Y40.2032
G01 X12.6282 Y40.3285
G01 X12.4849 Y40.4326
G01 X12.3270 Y40.5130
G01 X12.1586 Y40.5678
G01 X11.9836 Y40.5955
G01 X11.8064 Y40.5955
G01 X11.6314 Y40.5678
G01 X11.4630 Y40.5130
G01 X11.3051 Y40.4326
G01 X11.1618 Y40.3285
G01 X11.0365 Y40.2032
G01 X10.9324 Y40.0599
G01 X10.8520 Y39.9020
G01 X10.7972 Y39.7336
G01 X10.7695 Y39.5586
G01 X10.7695 Y39.3814
G01 X10.7972 Y39.2064
G01 X10.8520 Y39.0380
G01 X10.9324 Y38.8801
G01 X11.0365 Y38.7368
G01 X11.1786 Y38.5946
G01 X11.1839 Y38.5876
G01 X11.2389 Y38.5053
G01 X11.2441 Y38.4955
G01 X11.2468 Y38.4887
G01 X11.2483 Y38.4834
G01 X11.2681 Y38.3845
G01 X11.2691 Y38.3772
G01 X11.2695 Y38.3698
G01 X11.2695 Y36.8684
G01 X11.2935 Y36.7475
G01 X11.3407 Y36.6337
G01 X11.4091 Y36.5313
G01 X13.4013 Y34.5391
G01 X13.5037 Y34.4707
G01 X13.6176 Y34.4235
G01 X13.7384 Y34.3995
G01 X15.8748 Y34.3995
G01 X15.9026 Y34.3983
G01 X15.9148 Y34.3959
G01 X16.0100 Y34.3690
G01 X16.0203 Y34.3650
G01 X16.0299 Y34.3595
G01 X16.0818 Y34.3188
G01 X16.0925 Y34.3132
G01 X16.0971 Y34.3101
G01 X16.1028 Y34.3054
G01 X16.2471 Y34.1610
G01 X16.2539 Y34.1523
G01 X16.3079 Y34.0716
G01 X16.3117 Y34.0652
G01 X16.3148 Y34.0586
G01 X16.3173 Y34.0517
G01 X16.3191 Y34.0445
G01 X16.3381 Y33.9492
G01 X16.3391 Y33.9419
G01 X16.3395 Y33.9364
G01 X16.3395 Y31.0552
G01 X16.3387 Y31.0326
G01 X16.3381 Y31.0256
G01 X16.3364 Y31.0169
G01 X16.3261 Y30.9806
G01 X16.3191 Y30.9452
G01 X16.3173 Y30.9381
G01 X16.3141 Y30.9295
G01 X16.3090 Y30.9198
G01 X16.3050 Y30.9097
G01 X16.3015 Y30.9032
G01 X16.2985 Y30.8986
G01 X16.2739 Y30.8674
G01 X16.2529 Y30.8359
G01 X16.2471 Y30.8287
G01 X16.0926 Y30.6741
G01 X16.0871 Y30.6693
G01 X16.0826 Y30.6661
G01 X16.0018 Y30.6121
G01 X15.9955 Y30.6083
G01 X15.9888 Y30.6052
G01 X15.9819 Y30.6027
G01 X15.9748 Y30.6009
G01 X15.8740 Y30.5811
G01 X15.8648 Y30.5805
G01 X12.6762 Y30.5805
G01 X12.6674 Y30.5810
G01 X12.6092 Y30.5879
G01 X12.5986 Y30.5900
G01 X12.5883 Y30.5935
G01 X12.4984 Y30.6349
G01 X12.4919 Y30.6383
G01 X12.4872 Y30.6413
G01 X12.4814 Y30.6458
G01 X12.4760 Y30.6508
G01 X12.4052 Y30.7277
G01 X12.3990 Y30.7368
G01 X12.3949 Y30.7450
G01 X12.3707 Y30.8101
G01 X12.3659 Y30.8185
G01 X12.3624 Y30.8270
G01 X12.3587 Y30.8407
G01 X12.3030 Y31.0120
G01 X12.2226 Y31.1699
G01 X12.1185 Y31.3132
G01 X11.9932 Y31.4385
G01 X11.8499 Y31.5426
G01 X11.6920 Y31.6230
G01 X11.5236 Y31.6778
G01 X11.3486 Y31.7055
G01 X11.1714 Y31.7055
G01 X10.9964 Y31.6778
G01 X10.8280 Y31.6230
G01 X10.6701 Y31.5426
G01 X10.5268 Y31.4385
G01 X10.4015 Y31.3132
G01 X10.2974 Y31.1699
G01 X10.2170 Y31.0120
G01 X10.1622 Y30.8436
G01 X10.1345 Y30.6686
G01 X10.1345 Y30.4914
G01 X10.1622 Y30.3164
G01 X10.2170 Y30.1480
G01 X10.2974 Y29.9901
G01 X10.4015 Y29.8468
G01 X10.5268 Y29.7215
G01 X10.6701 Y29.6174
G01 X10.8280 Y29.5370
G01 X10.9964 Y29.4822
G01 X11.1714 Y29.4545
G01 X11.3486 Y29.4545
G01 X11.3561 Y29.4556
G01 X11.3637 Y29.4560
G01 X11.4531 Y29.4543
G01 X11.4587 Y29.4540
G01 X11.4660 Y29.4529
G01 X11.4715 Y29.4516
G01 X11.4786 Y29.4493
G01 X11.5701 Y29.4114
G01 X11.5783 Y29.4074
G01 X11.5887 Y29.4007
G01 X11.7026 Y29.3535
G01 X11.8234 Y29.3295
G01 X15.8648 Y29.3295
G01 X15.8926 Y29.3283
G01 X15.9048 Y29.3259
G01 X16.0000 Y29.2990
G01 X16.0103 Y29.2950
G01 X16.0184 Y29.2905
G01 X16.0244 Y29.2862
G01 X16.0718 Y29.2488
G01 X16.0825 Y29.2432
G01 X16.0871 Y29.2401
G01 X16.0928 Y29.2354
G01 X16.2318 Y29.0965
G01 X16.3751 Y28.9924
G01 X16.5330 Y28.9120
G01 X16.7014 Y28.8572
G01 X16.8764 Y28.8295
G01 X17.0536 Y28.8295
G01 X17.2286 Y28.8572
G01 X17.3970 Y28.9120
G01 X17.5549 Y28.9924
G01 X17.6982 Y29.0965
G01 X17.8235 Y29.2218
G01 X17.9276 Y29.3651
G01 X17.9489 Y29.4064
G01 X17.9833 Y29.4581
G01 X17.9888 Y29.4653
G01 X17.9938 Y29.4706
G01 X17.9992 Y29.4753
G01 X18.0785 Y29.5377
G01 X18.0847 Y29.5417
G01 X18.0896 Y29.5442
G01 X18.0998 Y29.5482
G01 X18.1951 Y29.5751
G01 X18.2023 Y29.5768
G01 X18.2077 Y29.5776
G01 X18.2151 Y29.5779
G01 X18.2224 Y29.5776
G01 X18.3262 Y29.5652
G01 X18.3369 Y29.5623
G01 X18.3470 Y29.5578
G01 X18.4334 Y29.5095
G01 X18.4381 Y29.5066
G01 X18.4440 Y29.5023
G01 X18.4520 Y29.4947
G01 X18.5180 Y29.4111
G01 X18.5231 Y29.4030
G01 X18.5424 Y29.3651
G01 X18.6465 Y29.2218
G01 X18.7886 Y29.0796
G01 X18.7939 Y29.0726
G01 X18.8479 Y28.9918
G01 X18.8517 Y28.9855
G01 X18.8548 Y28.9788
G01 X18.8573 Y28.9719
G01 X18.8591 Y28.9648
G01 X18.8781 Y28.8695
G01 X18.8794 Y28.8585
G01 X18.8795 Y28.4233
G01 X18.8793 Y28.4178
G01 X18.8784 Y28.4105
G01 X18.8587 Y28.3116
G01 X18.8562 Y28.3027
G01 X18.8517 Y28.2927
G01 X18.8479 Y28.2863
G01 X18.7939 Y28.2056
G01 X18.7895 Y28.1996
G01 X18.7846 Y28.1942
G01 X18.7158 Y28.1254
G01 X18.7118 Y28.1216
G01 X18.7060 Y28.1171
G01 X18.6221 Y28.0611
G01 X18.6157 Y28.0575
G01 X18.6090 Y28.0545
G01 X18.6020 Y28.0522
G01 X18.5966 Y28.0509
G01 X18.5013 Y28.0319
G01 X18.4941 Y28.0309
G01 X18.4885 Y28.0305
G01 X11.0183 Y28.0305
G01 X11.0109 Y28.0309
G01 X11.0037 Y28.0319
G01 X10.9084 Y28.0509
G01 X10.9030 Y28.0522
G01 X10.8960 Y28.0545
G01 X10.8893 Y28.0575
G01 X10.8829 Y28.0611
G01 X10.7975 Y28.1182
G01 X10.7892 Y28.1254
G01 X8.6702 Y30.2444
G01 X8.6515 Y30.2648
G01 X8.6446 Y30.2750
G01 X8.5962 Y30.3614
G01 X8.5925 Y30.3697
G01 X8.5893 Y30.3803
G01 X8.5881 Y30.3876
G01 X8.5809 Y30.4478
G01 X8.5773 Y30.4593
G01 X8.5763 Y30.4647
G01 X8.5756 Y30.4721
G01 X8.5755 Y30.6686
G01 X8.5478 Y30.8436
G01 X8.4930 Y31.0120
G01 X8.4126 Y31.1699
G01 X8.3085 Y31.3132
G01 X8.1700 Y31.4515
G01 X8.1653 Y31.4567
G01 X8.1611 Y31.4624
G01 X8.1061 Y31.5447
G01 X8.1017 Y31.5528
G01 X8.0988 Y31.5596
G01 X8.0959 Y31.5702
G01 X8.0769 Y31.6655
G01 X8.0759 Y31.6728
G01 X8.0755 Y31.6802
G01 X8.0755 Y34.5598
G01 X8.0767 Y34.5876
G01 X8.0791 Y34.5998
G01 X8.1060 Y34.6950
G01 X8.1092 Y34.7037
G01 X8.1145 Y34.7134
G01 X8.1188 Y34.7194
G01 X8.1562 Y34.7668
G01 X8.1618 Y34.7775
G01 X8.1660 Y34.7835
G01 X8.1696 Y34.7878
G01 X8.3085 Y34.9268
G01 X8.4126 Y35.0701
G01 X8.4930 Y35.2280
G01 X8.5478 Y35.3964
G01 X8.5755 Y35.5714
G01 X8.5755 Y35.7486
G01 X8.5478 Y35.9236
G01 X8.4930 Y36.0920
G01 X8.4126 Y36.2499
G01 X8.3085 Y36.3932
G01 X8.1832 Y36.5185
G01 X8.0399 Y36.6226
G01 X7.8820 Y36.7030
G01 X7.7136 Y36.7578
G01 X7.5386 Y36.7855
G01 X7.3614 Y36.7855
G01 X7.3057 Y36.7767
G01 X7.1864 Y36.7578
G01 X7.0180 Y36.7030
G01 X6.8601 Y36.6226
G01 X6.7168 Y36.5185
G01 X6.5915 Y36.3932
G01 X6.4874 Y36.2499
G01 X6.4070 Y36.0920
G01 X6.3522 Y35.9236
G01 X6.3245 Y35.7486
G01 X6.3245 Y35.5714
G01 X6.3522 Y35.3964
G01 X6.4070 Y35.2280
G01 X6.4874 Y35.0701
G01 X6.5915 Y34.9268
G01 X6.7336 Y34.7846
G01 X6.7389 Y34.7776
G01 X6.7939 Y34.6953
G01 X6.7975 Y34.6889
G01 X6.7998 Y34.6838
G01 X6.8018 Y34.6787
G01 X6.8037 Y34.6716
G01 X6.8234 Y34.5727
G01 X6.8241 Y34.5672
G01 X6.8245 Y34.5598
G01 X6.8245 Y31.6802
G01 X6.8233 Y31.6524
G01 X6.8209 Y31.6402
G01 X6.7940 Y31.5450
G01 X6.7900 Y31.5347
G01 X6.7855 Y31.5266
G01 X6.7812 Y31.5206
G01 X6.7438 Y31.4732
G01 X6.7382 Y31.4625
G01 X6.7351 Y31.4579
G01 X6.7304 Y31.4522
G01 X6.5915 Y31.3132
G01 X6.4874 Y31.1699
G01 X6.4070 Y31.0120
G01 X6.3522 Y30.8436
G01 X6.3245 Y30.6686
G01 X6.3245 Y30.4914
G01 X6.3522 Y30.3164
G01 X6.4070 Y30.1480
G01 X6.4874 Y29.9901
G01 X6.5915 Y29.8468
G01 X6.7168 Y29.7215
G01 X6.8601 Y29.6174
G01 X7.0180 Y29.5370
G01 X7.1864 Y29.4822
G01 X7.3614 Y29.4545
G01 X7.5624 Y29.4544
G01 X7.5712 Y29.4532
G01 X7.6682 Y29.4339
G01 X7.6788 Y29.4307
G01 X7.6855 Y29.4277
G01 X7.6904 Y29.4251
G01 X7.7787 Y29.3659
G01 X7.7856 Y29.3598
G01 X10.2263 Y26.9191
G01 X10.3287 Y26.8507
G01 X10.4426 Y26.8035
G01 X10.5634 Y26.7795
G01 X18.9416 Y26.7795
G01 X19.0625 Y26.8035
G01 X19.1763 Y26.8507
G01 X19.2787 Y26.9191
G01 X20.0009 Y27.6413
G01 X20.0693 Y27.7437
G01 X20.1165 Y27.8576
G01 X20.1405 Y27.9784
G01 X20.1405 Y28.1016
G01 X20.1358 Y28.1260
G01 X20.1309 Y28.1764
G01 X20.1305 Y28.1838
G01 X20.1305 Y28.8563
G01 X20.1315 Y28.8809
G01 X20.1332 Y28.8914
G01 X20.1622 Y28.9935
G01 X20.1667 Y29.0036
G01 X20.1715 Y29.0114
G01 X20.2112 Y29.0618
G01 X20.2168 Y29.0725
G01 X20.2234 Y29.0814
G01 X20.3635 Y29.2218
G01 X20.4676 Y29.3651
G01 X20.4863 Y29.4018
G01 X20.4898 Y29.4079
G01 X20.5243 Y29.4596
G01 X20.5288 Y29.4653
G01 X20.5325 Y29.4693
G01 X20.5392 Y29.4753
G01 X20.6155 Y29.5355
G01 X20.6215 Y29.5397
G01 X20.6296 Y29.5442
G01 X20.6346 Y29.5464
G01 X20.6416 Y29.5488
G01 X20.7351 Y29.5751
G01 X20.7441 Y29.5771
G01 X20.7533 Y29.5779
G01 X20.7643 Y29.5774
G01 X20.8608 Y29.5660
G01 X20.8680 Y29.5648
G01 X20.8751 Y29.5629
G01 X20.8820 Y29.5602
G01 X20.8870 Y29.5578
G01 X20.9734 Y29.5095
G01 X20.9811 Y29.5045
G01 X20.9882 Y29.4986
G01 X20.9956 Y29.4905
G01 X21.0580 Y29.4111
G01 X21.0631 Y29.4030
G01 X21.0824 Y29.3651
G01 X21.1865 Y29.2218
G01 X21.3250 Y29.0835
G01 X21.3308 Y29.0769
G01 X21.3889 Y28.9903
G01 X21.3925 Y28.9839
G01 X21.3948 Y28.9788
G01 X21.3983 Y28.9684
G01 X21.4181 Y28.8695
G01 X21.4191 Y28.8622
G01 X21.4195 Y28.8548
G01 X21.4195 Y27.1533
G01 X21.4191 Y27.1459
G01 X21.4181 Y27.1387
G01 X21.3983 Y27.0398
G01 X21.3948 Y27.0293
G01 X21.3925 Y27.0243
G01 X21.3889 Y27.0179
G01 X21.3339 Y26.9356
G01 X21.3295 Y26.9296
G01 X21.3259 Y26.9255
G01 X20.6181 Y26.2179
G01 X20.6094 Y26.2111
G01 X20.5287 Y26.1571
G01 X20.5223 Y26.1533
G01 X20.5157 Y26.1502
G01 X20.5088 Y26.1477
G01 X20.5016 Y26.1459
G01 X20.4063 Y26.1269
G01 X20.3991 Y26.1259
G01 X20.3917 Y26.1255
G01 X11.1984 Y26.1255
G01 X11.0775 Y26.1015
