(G-CODE GENERATED BY FLATCAM v8.994 - www.flatcam.org - Version Date: 2020/11/7)

(Name: PCB_milli-B_Cu.gbr_iso_combined_2_cnc)
(Type: G-code from Geometry)
(Units: MM)

(Created on Thursday, 01 May 2025 at 18:14)

(This preprocessor is the default preprocessor used by FlatCAM.)
(It is made to work with MACH3 compatible motion controllers.)

(TOOL DIAMETER: 0.15 mm)
(Feedrate_XY: 120.0 mm/min)
(Feedrate_Z: 60.0 mm/min)
(Feedrate rapids 1500.0 mm/min)

(Z_Cut: -0.055 mm)
(Z_Move: 2.0 mm)
(Z Start: None mm)
(Z End: 15.0 mm)
(X,Y End: None mm)
(Steps per circle: 64)
(Preprocessor Geometry: default)

(X range:   22.8000 ...   35.3395  mm)
(Y range:   29.4000 ...   51.4000  mm)

(Spindle Speed: 10000.0 RPM)
G21
G90
G94

G01 F120.00

M5
G00 Z15.0000
G00 X0.0000 Y0.0000
T1
M6    
(MSG, Change to Tool Dia = 0.1500)
M0
G00 Z15.0000

M03 S10000.0
G01 F120.00
G00 X23.2971 Y30.8000
G01 F60.00
G01 Z-0.0550
G01 F120.00
G01 X23.2836 Y30.8124
G01 X23.2733 Y30.8230
G01 X23.2636 Y30.8341
G01 X23.2501 Y30.8516
G01 X23.1872 Y30.9441
G01 X23.1759 Y30.9631
G01 X23.1661 Y30.9828
G01 X23.1603 Y30.9964
G01 X23.1552 Y31.0102
G01 X23.1509 Y31.0243
G01 X23.1472 Y31.0385
G01 X23.1244 Y31.1481
G01 X23.1213 Y31.1699
G01 X23.1197 Y31.1919
G01 X23.0550 Y39.0138
G00 Z2.0000
G00 X23.0550 Y39.0138
G01 F60.00
G01 Z-0.0550
G01 F120.00
G01 X23.0317 Y38.9646
G01 X23.0216 Y38.9450
G01 X22.9775 Y38.8713
G01 X22.9696 Y38.8589
G01 X22.9611 Y38.8468
G01 X22.9144 Y38.7838
G01 X22.9006 Y38.7665
G01 X22.8380 Y38.6975
G01 X22.8275 Y38.6870
G01 X22.8000 Y38.6620
G00 Z2.0000
G00 X22.8000 Y38.7671
G01 F60.00
G01 Z-0.0550
G01 F120.00
G01 X22.8401 Y38.8114
G01 X22.8508 Y38.8241
G01 X22.9009 Y38.8915
G01 X22.9103 Y38.9052
G01 X22.9590 Y38.9868
G01 X22.9975 Y39.0677
G01 X23.0040 Y39.0829
G01 X23.0359 Y39.1725
G01 X23.0388 Y39.1831
G01 X23.0603 Y39.2700
G01 X23.0622 Y39.2809
G01 X23.0751 Y39.3695
G01 X23.0797 Y39.4590
G01 X23.0800 Y39.4700
G01 X23.0797 Y39.4810
G01 X23.0751 Y39.5705
G01 X23.0622 Y39.6591
G01 X23.0603 Y39.6700
G01 X23.0388 Y39.7569
G01 X23.0359 Y39.7675
G01 X23.0040 Y39.8571
G01 X22.9975 Y39.8723
G01 X22.9590 Y39.9532
G01 X22.9103 Y40.0348
G01 X22.9009 Y40.0485
G01 X22.8508 Y40.1159
G01 X22.8401 Y40.1286
G01 X22.8000 Y40.1729
G00 Z2.0000
G00 X22.8000 Y38.8814
G01 F60.00
G01 Z-0.0550
G01 F120.00
G01 X22.8449 Y38.9422
G01 X22.8928 Y39.0222
G01 X22.9327 Y39.1065
G01 X22.9618 Y39.1872
G01 X22.9661 Y39.2013
G01 X22.9851 Y39.2775
G01 X22.9880 Y39.2919
G01 X23.0004 Y39.3769
G01 X23.0050 Y39.4700
G01 X23.0004 Y39.5631
G01 X22.9880 Y39.6481
G01 X22.9851 Y39.6625
G01 X22.9661 Y39.7387
G01 X22.9618 Y39.7528
G01 X22.9327 Y39.8335
G01 X22.8928 Y39.9178
G01 X22.8449 Y39.9978
G01 X22.8000 Y40.0586
G00 Z2.0000
G00 X22.8000 Y39.9272
G01 F60.00
G01 Z-0.0550
G01 F120.00
G01 X22.8267 Y39.8825
G01 X22.8627 Y39.8065
G01 X22.8928 Y39.7222
G01 X22.9132 Y39.6407
G01 X22.9253 Y39.5594
G01 X22.9261 Y39.5521
G01 X22.9300 Y39.4700
G01 X22.9261 Y39.3879
G01 X22.9253 Y39.3806
G01 X22.9132 Y39.2993
G01 X22.8928 Y39.2178
G01 X22.8627 Y39.1335
G01 X22.8267 Y39.0575
G01 X22.8000 Y39.0128
G00 Z2.0000
G00 X22.8336 Y40.2470
G01 F60.00
G01 Z-0.0550
G01 F120.00
G01 X22.8430 Y40.2372
G01 X22.8957 Y40.1790
G01 X22.9053 Y40.1678
G01 X22.9144 Y40.1562
G01 X22.9655 Y40.0872
G01 X22.9775 Y40.0687
G01 X23.0216 Y39.9950
G01 X23.0285 Y39.9820
G01 X23.0473 Y39.9424
G01 X23.0439 Y40.3591
G01 X23.0252 Y40.3442
G01 X23.0131 Y40.3357
G01 X23.0006 Y40.3279
G01 X22.9030 Y40.2733
G01 X22.8831 Y40.2637
G01 X22.8695 Y40.2581
G01 X22.8486 Y40.2510
G01 X22.8336 Y40.2470
G00 Z2.0000
G00 X22.8000 Y40.3166
G01 F60.00
G01 Z-0.0550
G01 F120.00
G01 X22.8165 Y40.3200
G01 X22.8324 Y40.3245
G01 X22.8480 Y40.3302
G01 X22.8631 Y40.3371
G01 X22.8728 Y40.3422
G01 X22.9624 Y40.3924
G01 X22.9763 Y40.4014
G01 X22.9895 Y40.4114
G01 X22.9979 Y40.4185
G01 X23.0060 Y40.4261
G01 X23.0136 Y40.4341
G01 X23.0209 Y40.4424
G01 X23.0879 Y40.5274
G01 X23.0973 Y40.5410
G01 X23.1030 Y40.5504
G01 X23.1107 Y40.5651
G01 X23.1171 Y40.5797
G01 X23.1947 Y31.1944
G01 X23.1958 Y31.1779
G01 X23.1982 Y31.1615
G01 X23.2190 Y31.0609
G01 X23.2215 Y31.0502
G01 X23.2263 Y31.0343
G01 X23.2301 Y31.0239
G01 X23.2367 Y31.0088
G01 X23.2445 Y30.9941
G01 X23.2533 Y30.9801
G01 X23.3111 Y30.8952
G01 X23.3212 Y30.8821
G01 X23.3323 Y30.8698
G01 X23.3442 Y30.8584
G01 X23.3527 Y30.8512
G01 X23.3614 Y30.8445
G01 X23.4287 Y30.8000
G00 Z2.0000
G00 X22.8000 Y40.3932
G01 F60.00
G01 Z-0.0550
G01 F120.00
G01 X22.8162 Y40.3983
G01 X22.8230 Y40.4011
G01 X22.8329 Y40.4059
G01 X22.9241 Y40.4570
G01 X22.9304 Y40.4609
G01 X22.9393 Y40.4673
G01 X22.9505 Y40.4769
G01 X22.9583 Y40.4847
G01 X22.9631 Y40.4903
G01 X23.0278 Y40.5723
G01 X23.0341 Y40.5814
G01 X23.0397 Y40.5909
G01 X23.0446 Y40.6008
G01 X23.0488 Y40.6111
G01 X23.0522 Y40.6216
G01 X23.0785 Y40.7151
G01 X23.0811 Y40.7256
G01 X23.0833 Y40.7398
G01 X23.0841 Y40.7505
G01 X23.0849 Y40.7786
G01 X23.0749 Y41.9938
G01 X23.0744 Y42.0048
G01 X23.0725 Y42.0194
G01 X23.0512 Y42.1218
G01 X23.0483 Y42.1324
G01 X23.0432 Y42.1462
G01 X23.0386 Y42.1562
G01 X23.0312 Y42.1690
G01 X22.9745 Y42.2524
G01 X22.9680 Y42.2613
G01 X22.9608 Y42.2697
G01 X22.9530 Y42.2775
G01 X22.9475 Y42.2824
G01 X22.9389 Y42.2892
G01 X22.8485 Y42.3487
G01 X22.8390 Y42.3541
G01 X22.8258 Y42.3603
G01 X22.8121 Y42.3651
G01 X22.8000 Y42.3681
G00 Z2.0000
G00 X22.8000 Y40.4734
G01 F60.00
G01 Z-0.0550
G01 F120.00
G01 X22.8859 Y40.5215
G01 X22.8920 Y40.5255
G01 X22.8964 Y40.5290
G01 X22.9017 Y40.5340
G01 X22.9065 Y40.5396
G01 X22.9699 Y40.6203
G01 X22.9754 Y40.6299
G01 X22.9795 Y40.6402
G01 X23.0068 Y40.7372
G01 X23.0080 Y40.7424
G01 X23.0089 Y40.7496
G01 X23.0099 Y40.7780
G01 X22.9999 Y41.9932
G01 X22.9992 Y42.0024
G01 X22.9786 Y42.1029
G01 X22.9767 Y42.1100
G01 X22.9742 Y42.1170
G01 X22.9710 Y42.1236
G01 X22.9682 Y42.1283
G01 X22.9125 Y42.2102
G01 X22.9081 Y42.2161
G01 X22.9031 Y42.2215
G01 X22.8976 Y42.2264
G01 X22.8932 Y42.2297
G01 X22.8104 Y42.2840
G01 X22.8000 Y42.2897
G00 Z2.0000
G00 X22.8749 Y42.4200
G01 F60.00
G01 Z-0.0550
G01 F120.00
G01 X22.8927 Y42.4094
G01 X22.9785 Y42.3530
G01 X22.9918 Y42.3431
G01 X23.0002 Y42.3360
G01 X23.0083 Y42.3284
G01 X23.0160 Y42.3205
G01 X23.0232 Y42.3122
G01 X23.0334 Y42.2991
G01 X23.0912 Y42.2142
G01 X23.0972 Y42.2050
G01 X23.1037 Y42.1934
G01 X23.1019 Y42.4200
G01 X22.8749 Y42.4200
G00 Z2.0000
G00 X22.8000 Y42.4950
G01 F60.00
G01 Z-0.0550
G01 F120.00
G01 X23.1762 Y42.4950
G01 X23.2697 Y31.1969
G01 X23.2704 Y31.1858
G01 X23.2720 Y31.1749
G01 X23.2924 Y31.0762
G01 X23.2961 Y31.0619
G01 X23.3012 Y31.0481
G01 X23.3076 Y31.0349
G01 X23.3153 Y31.0223
G01 X23.3699 Y30.9420
G01 X23.3742 Y30.9360
G01 X23.3812 Y30.9274
G01 X23.3888 Y30.9194
G01 X23.3941 Y30.9143
G01 X23.3998 Y30.9096
G01 X23.4086 Y30.9030
G01 X23.4929 Y30.8476
G01 X23.5056 Y30.8401
G01 X23.5155 Y30.8354
G01 X23.5224 Y30.8326
G01 X23.5364 Y30.8281
G01 X23.5471 Y30.8257
G01 X23.6000 Y30.8156
G00 Z2.0000
G00 X22.8000 Y42.5700
G01 F60.00
G01 Z-0.0550
G01 F120.00
G01 X23.2506 Y42.5700
G01 X23.3446 Y31.1993
G01 X23.3450 Y31.1938
G01 X23.3461 Y31.1865
G01 X23.3659 Y31.0914
G01 X23.3677 Y31.0843
G01 X23.3703 Y31.0774
G01 X23.3735 Y31.0708
G01 X23.3773 Y31.0645
G01 X23.4319 Y30.9841
G01 X23.4364 Y30.9783
G01 X23.4427 Y30.9716
G01 X23.4513 Y30.9646
G01 X23.5340 Y30.9103
G01 X23.5404 Y30.9066
G01 X23.5488 Y30.9028
G01 X23.5576 Y30.9001
G01 X23.6000 Y30.8919
G00 Z2.0000
G00 X35.0740 Y29.4000
G01 F60.00
G01 Z-0.0550
G01 F120.00
G01 X35.0809 Y29.4244
G01 X35.0823 Y29.4313
G01 X35.0831 Y29.4383
G01 X35.0840 Y29.4626
G01 X35.0840 Y51.1578
G01 X35.0824 Y51.1895
G01 X35.0666 Y51.3499
G01 X35.0569 Y51.4000
G00 Z2.0000
G00 X35.1333 Y51.4000
G01 F60.00
G01 Z-0.0550
G01 F120.00
G01 X35.1400 Y51.3663
G01 X35.1415 Y51.3554
G01 X35.1571 Y51.1969
G01 X35.1590 Y51.1578
G01 X35.1590 Y29.4626
G01 X35.1581 Y29.4371
G01 X35.1573 Y29.4266
G01 X35.1551 Y29.4126
G01 X35.1519 Y29.4000
G00 Z2.0000
G00 X35.2573 Y29.4000
G01 F60.00
G01 Z-0.0550
G01 F120.00
G01 X35.2639 Y29.4418
G01 X35.2645 Y29.4640
G01 X35.2645 Y51.1559
G01 X35.2631 Y51.1929
G01 X35.2619 Y51.2090
G01 X35.2468 Y51.3621
G01 X35.2409 Y51.4000
G00 Z2.0000
G00 X35.3170 Y51.4000
G01 F60.00
G01 Z-0.0550
G01 F120.00
G01 X35.3213 Y51.3713
G01 X35.3366 Y51.2155
G01 X35.3380 Y51.1974
G01 X35.3395 Y51.1568
G01 X35.3395 Y29.4633
G01 X35.3387 Y29.4345
G01 X35.3332 Y29.4000
G00 Z2.0000
M05
G00 Z2.0000
G00 Z15.00


